; generated by PrusaSlicer 2.5.0-beta1+win64 on 2025-10-10 at 14:21:45 UTC

; 

; external perimeters extrusion width = 0.42mm
; perimeters extrusion width = 0.44mm
; infill extrusion width = 0.44mm
; solid infill extrusion width = 0.44mm
; top infill extrusion width = 0.40mm
; support material extrusion width = 0.36mm
; first layer extrusion width = 0.42mm

M201 X500 Y500 Z100 E5000 ; sets maximum accelerations, mm/sec^2
M203 X500 Y500 Z10 E60 ; sets maximum feedrates, mm / sec
M204 P500 R1000 T500 ; sets acceleration (P, T) and retract acceleration (R), mm/sec^2
M205 X8.00 Y8.00 Z0.40 E5.00 ; sets the jerk limits, mm/sec
M205 S0 T0 ; sets the minimum extruding and travel feed rate, mm/sec
M107
;TYPE:Custom
G90 ; use absolute coordinates
M83 ; extruder relative mode
M104 S150 ; set temporary nozzle temp to prevent oozing during homing
M140 S60 ; set final bed temp
G4 S30 ; allow partial nozzle warmup
G28 ; home all axis and restore leveling
G1 Z50 F240
G1 X2.0 Y10 F3000
M104 S210 ; set final nozzle temp
M190 S60 ; wait for bed temp to stabilize
M109 S210 ; wait for nozzle temp to stabilize
G1 Z0.28 F240
G92 E0
G1 X2.0 Y140 E10 F1500 ; prime the nozzle
G1 X2.3 Y140 F5000
G92 E0
G1 X2.3 Y10 E10 F1200 ; prime the nozzle
G92 E0
G21 ; set units to millimeters
G90 ; use absolute coordinates
M83 ; use relative distances for extrusion
; Filament gcode
M107
;LAYER_CHANGE
;Z:0.2
;HEIGHT:0.2
;BEFORE_LAYER_CHANGE
G92 E0
;0.2


G1 E-.8 F1800
G1 Z.2 F9000
;AFTER_LAYER_CHANGE
;0.2
G1 X69.729 Y107.397
G1 E.8 F1800
M204 S500
;TYPE:Skirt/Brim
;WIDTH:0.42
G1 F1200
G1 X87.016 Y96.173 E.64624
G1 X120.573 Y78.174 E1.19393
G1 X122.154 Y77.773 E.05115
G1 X124.042 Y78.34 E.06181
G1 X149.066 Y95.022 E.94295
G1 X150.213 Y96.322 E.05436
G1 X151.53 Y98.956 E.09234
G1 X151.887 Y100.466 E.04866
G1 X151.887 Y110.314 E.30878
G1 X151.493 Y111.897 E.05115
G1 X150.898 Y112.702 E.03138
G1 X149.58 Y114.019 E.0584
G1 X148.832 Y114.584 E.02938
G1 X90.226 Y147.139 E2.10204
G1 X88.651 Y147.563 E.05115
G1 X87.061 Y147.2 E.05115
G1 X85.662 Y145.876 E.06039
G1 X66.762 Y113.14 E1.18519
G1 X66.311 Y111.572 E.05115
G1 X66.649 Y109.976 E.05115
G1 X67.846 Y108.62 E.05671
G1 X69.679 Y107.429 E.06853
;WIPE_START
G1 F7200
G1 X72.363 Y105.687 E-.76
;WIPE_END
G1 E-.04 F1800
G1 X95.826 Y108.369 F9000
G1 E.8 F1800
;TYPE:Support material
G1 F1200
G1 X99.778 Y108.369 E.12389
G1 X99.778 Y109.686 E.0413
G1 X102.412 Y109.686 E.08259
G1 X102.412 Y118.217 E.26749
G1 X93.881 Y118.217 E.26749
G1 X93.881 Y116.9 E.0413
G1 X92.564 Y116.9 E.0413
G1 X92.564 Y110.314 E.20648
G1 X88.612 Y110.314 E.12389
G1 X88.612 Y107.68 E.08259
G1 X87.295 Y107.68 E.0413
G1 X87.295 Y100.466 E.22619
G1 X88.612 Y100.466 E.0413
G1 X88.612 Y99.149 E.0413
G1 X95.826 Y99.149 E.22619
G1 X95.826 Y108.312 E.2873
G1 X102.039 Y118.047 F9000
G1 F1200
G1 X102.039 Y110.025 E.25152
G1 X101.62 Y110.025 E.01314
G1 X101.62 Y117.877 E.2462
G1 X101.201 Y117.877 E.01314
G1 X101.201 Y110.025 E.2462
G1 X100.783 Y110.025 E.01314
G1 X100.783 Y117.877 E.2462
G1 X100.364 Y117.877 E.01314
G1 X100.364 Y110.025 E.2462
G1 X99.945 Y110.025 E.01314
G1 X99.945 Y117.877 E.2462
G1 X99.526 Y117.877 E.01314
G1 X99.526 Y110.025 E.2462
G1 X99.438 Y110.025 E.00274
G1 X99.438 Y108.708 E.0413
G1 X99.107 Y108.708 E.0104
G1 X99.107 Y117.877 E.2875
G1 X98.688 Y117.877 E.01314
G1 X98.688 Y108.708 E.2875
G1 X98.269 Y108.708 E.01314
G1 X98.269 Y117.877 E.2875
G1 X97.85 Y117.877 E.01314
G1 X97.85 Y108.708 E.2875
G1 X97.431 Y108.708 E.01314
G1 X97.431 Y117.877 E.2875
G1 X97.012 Y117.877 E.01314
G1 X97.012 Y108.708 E.2875
G1 X96.593 Y108.708 E.01314
G1 X96.593 Y117.877 E.2875
G1 X96.174 Y117.877 E.01314
G1 X96.174 Y108.708 E.2875
G1 X95.755 Y108.708 E.01314
G1 X95.755 Y117.877 E.2875
G1 X95.336 Y117.877 E.01314
G1 X95.336 Y99.488 E.57657
G1 X94.917 Y99.488 E.01314
G1 X94.917 Y117.877 E.57657
G1 X94.498 Y117.877 E.01314
G1 X94.498 Y99.488 E.57657
G1 X94.079 Y99.488 E.01314
G1 X94.079 Y116.56 E.53528
G1 X93.66 Y116.56 E.01314
G1 X93.66 Y99.488 E.53528
G1 X93.241 Y99.488 E.01314
G1 X93.241 Y116.56 E.53528
G1 X92.903 Y116.56 E.01059
G1 X92.903 Y109.975 E.20648
G1 X92.822 Y109.975 E.00254
G1 X92.822 Y99.488 E.3288
G1 X92.403 Y99.488 E.01314
G1 X92.403 Y109.975 E.3288
G1 X91.984 Y109.975 E.01314
G1 X91.984 Y99.488 E.3288
G1 X91.565 Y99.488 E.01314
G1 X91.565 Y109.975 E.3288
G1 X91.146 Y109.975 E.01314
G1 X91.146 Y99.488 E.3288
G1 X90.727 Y99.488 E.01314
G1 X90.727 Y109.975 E.3288
G1 X90.308 Y109.975 E.01314
G1 X90.308 Y99.488 E.3288
G1 X89.889 Y99.488 E.01314
G1 X89.889 Y109.975 E.3288
G1 X89.47 Y109.975 E.01314
G1 X89.47 Y99.488 E.3288
G1 X89.051 Y99.488 E.01314
G1 X89.051 Y109.975 E.3288
G1 X88.952 Y109.975 E.00311
G1 X88.952 Y107.341 E.08259
G1 X88.632 Y107.341 E.01002
G1 X88.632 Y100.806 E.20491
G1 X88.213 Y100.806 E.01314
G1 X88.213 Y107.341 E.20491
G1 X87.794 Y107.341 E.01314
G1 X87.794 Y100.636 E.21023
;WIPE_START
G1 F7200
G1 X87.794 Y103.836 E-.76
;WIPE_END
G1 E-.04 F1800
G1 X147.193 Y100.466 F9000
G1 E.8 F1800
G1 F1200
G1 X148.51 Y100.466 E.0413
G1 X148.51 Y110.314 E.30878
G1 X147.193 Y110.314 E.0413
G1 X147.193 Y111.631 E.0413
G1 X140.299 Y111.631 E.21615
G1 X137.344 Y106.514 E.18527
G1 X137.344 Y99.149 E.23093
G1 X138.661 Y99.149 E.0413
G1 X138.661 Y97.832 E.0413
G1 X147.193 Y97.832 E.26749
G1 X147.193 Y100.41 E.08082
G1 X148.127 Y110.145 F9000
G1 F1200
G1 X148.127 Y100.806 E.29282
G1 X147.708 Y100.806 E.01314
G1 X147.708 Y109.975 E.2875
G1 X147.289 Y109.975 E.01314
G1 X147.289 Y100.806 E.2875
G1 X146.87 Y100.806 E.01314
G1 X146.87 Y109.975 E.2875
G1 X146.853 Y109.975 E.00053
G1 X146.853 Y111.292 E.0413
G1 X146.451 Y111.292 E.01261
G1 X146.451 Y98.171 E.41139
G1 X146.032 Y98.171 E.01314
G1 X146.032 Y111.292 E.41139
G1 X145.613 Y111.292 E.01314
G1 X145.613 Y98.171 E.41139
G1 X145.194 Y98.171 E.01314
G1 X145.194 Y111.292 E.41139
G1 X144.775 Y111.292 E.01314
G1 X144.775 Y98.171 E.41139
G1 X144.356 Y98.171 E.01314
G1 X144.356 Y111.292 E.41139
G1 X143.937 Y111.292 E.01314
G1 X143.937 Y98.171 E.41139
G1 X143.518 Y98.171 E.01314
G1 X143.518 Y111.292 E.41139
G1 X143.099 Y111.292 E.01314
G1 X143.099 Y98.171 E.41139
G1 X142.68 Y98.171 E.01314
G1 X142.68 Y111.292 E.41139
G1 X142.261 Y111.292 E.01314
G1 X142.261 Y98.171 E.41139
G1 X141.842 Y98.171 E.01314
G1 X141.842 Y111.292 E.41139
G1 X141.423 Y111.292 E.01314
G1 X141.423 Y98.171 E.41139
G1 X141.004 Y98.171 E.01314
G1 X141.004 Y111.292 E.41139
G1 X140.585 Y111.292 E.01314
G1 X140.585 Y98.171 E.41139
G1 X140.166 Y98.171 E.01314
G1 X140.166 Y110.723 E.39355
G1 X139.747 Y109.997 E.02627
G1 X139.747 Y98.171 E.3708
G1 X139.328 Y98.171 E.01314
G1 X139.328 Y109.272 E.34804
G1 X138.909 Y108.546 E.02627
G1 X138.909 Y99.488 E.284
G1 X138.49 Y99.488 E.01314
G1 X138.49 Y107.82 E.26124
G1 X138.071 Y107.095 E.02627
G1 X138.071 Y99.319 E.24381
;WIPE_START
G1 F7200
G1 X138.071 Y102.519 E-.76
;WIPE_END
G1 E-.04 F1800
G1 X120.831 Y109.35 F9000
G1 E.8 F1800
;TYPE:Perimeter
;WIDTH:0.419999
G1 F1200
G1 X120.784 Y109.226 E.00418
G1 X109.505 Y89.691 E.70727
G1 X121.778 Y82.605 E.44434
G1 X139.614 Y113.497 E1.11846
G1 X88.976 Y142.733 E1.83334
G1 X71.14 Y111.841 E1.11846
G1 X83.413 Y104.755 E.44434
G1 X94.692 Y124.29 E.70727
G1 X94.785 Y124.424 E.00513
G1 X95.039 Y124.636 E.01037
G1 X95.383 Y124.753 E.01138
G1 X95.682 Y124.745 E.0094
G1 X95.979 Y124.635 E.00994
G1 X120.439 Y110.514 E.88554
G1 X120.528 Y110.455 E.00335
G1 X120.745 Y110.23 E.00981
G1 X120.892 Y109.879 E.01193
G1 X120.891 Y109.507 E.01166
G1 X120.852 Y109.407 E.00337
G1 X120.481 Y109.489 F9000
G1 F1200
G1 X120.457 Y109.414 E.00245
G1 X108.99 Y89.553 E.71909
G1 X121.916 Y82.09 E.46799
G1 X140.129 Y113.635 E1.1421
G1 X88.838 Y143.248 E1.85699
G1 X70.625 Y111.703 E1.1421
G1 X83.551 Y104.24 E.46799
G1 X95.018 Y124.102 E.71909
G1 X95.051 Y124.153 E.00191
G1 X95.276 Y124.335 E.00908
G1 X95.551 Y124.383 E.00875
G1 X95.791 Y124.309 E.00786
G1 X120.25 Y110.187 E.88554
G1 X120.33 Y110.131 E.00308
G1 X120.49 Y109.912 E.00849
G1 X120.53 Y109.641 E.00859
G1 X120.499 Y109.546 E.00314
G1 X120.062 Y109.861 F9000
;TYPE:External perimeter
G1 F1200
G1 X120.148 Y109.751 E.00437
G1 X120.131 Y109.603 E.00468
G1 X108.475 Y89.415 E.73091
G1 X122.054 Y81.575 E.49164
G1 X140.644 Y113.773 E1.16575
G1 X88.7 Y143.764 E1.88063
G1 X70.11 Y111.565 E1.16575
G1 X83.689 Y103.725 E.49164
G1 X95.345 Y123.913 E.73091
G1 X95.447 Y123.997 E.00415
G1 X95.602 Y123.982 E.00489
G1 X120.01 Y109.891 E.88366
G1 X120.196 Y109.898 F9000
;WIPE_START
G1 F7200
G1 X120.148 Y109.751 E-.04664
G1 X120.131 Y109.603 E-.03543
G1 X118.703 Y107.131 E-.67792
;WIPE_END
G1 E-.04 F1800
G1 X122.786 Y84.592 F9000
G1 E.8 F1800
;TYPE:Solid infill
;WIDTH:0.421316
G1 F1200
G1 X121.37 Y83.176 E.06301
G1 X121.031 Y83.372 E.01233
G1 X123.053 Y85.394 E.09
G1 X123.784 Y86.66 E.046
G1 X120.691 Y83.568 E.13763
G1 X120.352 Y83.763 E.01233
G1 X124.515 Y87.927 E.18525
G1 X125.246 Y89.193 E.046
G1 X120.013 Y83.959 E.23287
G1 X119.674 Y84.155 E.01233
G1 X125.977 Y90.459 E.28049
G1 X126.708 Y91.725 E.046
G1 X119.334 Y84.351 E.32812
G1 X118.995 Y84.547 E.01233
G1 X127.439 Y92.991 E.37574
G1 X128.17 Y94.257 E.046
G1 X118.656 Y84.743 E.42336
G1 X118.317 Y84.939 E.01233
G1 X128.901 Y95.523 E.47099
G1 X129.632 Y96.79 E.046
G1 X117.977 Y85.134 E.51861
G1 X117.638 Y85.33 E.01233
G1 X130.363 Y98.056 E.56623
G1 X131.094 Y99.322 E.046
G1 X117.299 Y85.526 E.61386
G1 X116.96 Y85.722 E.01233
G1 X131.825 Y100.588 E.66148
G1 X132.556 Y101.854 E.046
G1 X116.62 Y85.918 E.7091
G1 X116.281 Y86.114 E.01233
G1 X133.287 Y103.12 E.75673
G1 X134.018 Y104.386 E.046
G1 X115.942 Y86.31 E.80435
G1 X115.603 Y86.506 E.01233
G1 X134.749 Y105.653 E.85197
G1 X135.48 Y106.919 E.046
G1 X115.263 Y86.701 E.89959
G1 X114.924 Y86.897 E.01233
G1 X136.211 Y108.185 E.94722
G1 X136.942 Y109.451 E.046
G1 X114.585 Y87.093 E.99484
G1 X114.245 Y87.289 E.01233
G1 X137.673 Y110.717 E1.04246
G1 X138.404 Y111.983 E.046
G1 X113.906 Y87.485 E1.09009
G1 X113.567 Y87.681 E.01233
G1 X139.135 Y113.249 E1.13771
G1 X139.217 Y113.391 E.00515
G1 X138.916 Y113.565 E.01095
G1 X113.228 Y87.877 E1.14304
G1 X112.888 Y88.073 E.01233
G1 X138.577 Y113.761 E1.14304
G1 X138.238 Y113.957 E.01233
G1 X112.549 Y88.268 E1.14304
G1 X112.21 Y88.464 E.01233
G1 X137.898 Y114.153 E1.14304
G1 X137.559 Y114.349 E.01233
G1 X111.871 Y88.66 E1.14304
G1 X111.531 Y88.856 E.01233
G1 X137.22 Y114.544 E1.14304
G1 X136.881 Y114.74 E.01233
G1 X111.192 Y89.052 E1.14304
G1 X110.853 Y89.248 E.01233
G1 X136.541 Y114.936 E1.14304
G1 X136.202 Y115.132 E.01233
G1 X110.514 Y89.444 E1.14304
G1 X110.174 Y89.64 E.01233
G1 X135.863 Y115.328 E1.14304
G1 X135.523 Y115.524 E.01233
G1 X110.045 Y90.045 E1.1337
G1 X110.776 Y91.312 E.046
G1 X135.184 Y115.72 E1.08608
G1 X134.845 Y115.916 E.01233
G1 X111.507 Y92.578 E1.03845
G1 X112.238 Y93.844 E.046
G1 X134.506 Y116.111 E.99083
G1 X134.166 Y116.307 E.01233
G1 X112.969 Y95.11 E.94321
G1 X113.7 Y96.376 E.046
G1 X133.827 Y116.503 E.89558
G1 X133.488 Y116.699 E.01233
G1 X114.431 Y97.642 E.84796
G1 X115.162 Y98.908 E.046
G1 X133.149 Y116.895 E.80034
G1 X132.809 Y117.091 E.01233
G1 X115.893 Y100.174 E.75272
G1 X116.624 Y101.441 E.046
G1 X132.47 Y117.287 E.70509
G1 X132.131 Y117.483 E.01233
G1 X117.355 Y102.707 E.65747
G1 X118.086 Y103.973 E.046
G1 X131.792 Y117.678 E.60985
G1 X131.452 Y117.874 E.01233
G1 X118.817 Y105.239 E.56222
G1 X119.548 Y106.505 E.046
G1 X131.113 Y118.07 E.5146
G1 X130.774 Y118.266 E.01233
G1 X120.279 Y107.771 E.46698
G1 X121.01 Y109.037 E.046
G1 X130.435 Y118.462 E.41935
G1 X130.095 Y118.658 E.01233
G1 X121.195 Y109.757 E.39605
G1 X121.194 Y109.825 E.00213
G1 X121.094 Y110.192 E.01198
G1 X129.756 Y118.854 E.38541
G1 X129.417 Y119.05 E.01233
G1 X120.885 Y110.518 E.37962
G1 X120.759 Y110.643 E.00559
G1 X120.592 Y110.76 E.00642
G1 X129.078 Y119.245 E.37758
G1 X128.738 Y119.441 E.01233
G1 X120.253 Y110.956 E.37756
G1 X119.914 Y111.152 E.01233
G1 X128.399 Y119.637 E.37757
G1 X128.06 Y119.833 E.01233
G1 X119.574 Y111.348 E.37757
G1 X119.235 Y111.543 E.01233
G1 X127.72 Y120.029 E.37757
G1 X127.381 Y120.225 E.01233
G1 X118.896 Y111.739 E.37758
G1 X118.556 Y111.935 E.01233
G1 X127.042 Y120.421 E.37758
G1 X126.703 Y120.616 E.01233
G1 X118.217 Y112.131 E.37758
G1 X117.878 Y112.327 E.01233
G1 X126.363 Y120.812 E.37759
G1 X126.024 Y121.008 E.01233
G1 X117.538 Y112.522 E.37759
G1 X117.199 Y112.718 E.01233
G1 X125.685 Y121.204 E.37759
G1 X125.346 Y121.4 E.01233
G1 X116.86 Y112.914 E.3776
G1 X116.52 Y113.11 E.01233
G1 X125.006 Y121.596 E.3776
G1 X124.667 Y121.792 E.01233
G1 X116.181 Y113.306 E.3776
G1 X115.842 Y113.501 E.01233
G1 X124.328 Y121.988 E.37761
G1 X123.989 Y122.183 E.01233
G1 X115.502 Y113.697 E.37761
G1 X115.163 Y113.893 E.01233
G1 X123.649 Y122.379 E.37761
G1 X123.31 Y122.575 E.01233
G1 X114.824 Y114.089 E.37762
G1 X114.484 Y114.285 E.01233
G1 X122.971 Y122.771 E.37762
G1 X122.632 Y122.967 E.01233
G1 X114.145 Y114.48 E.37762
G1 X113.806 Y114.676 E.01233
G1 X122.292 Y123.163 E.37763
G1 X121.953 Y123.359 E.01233
G1 X113.466 Y114.872 E.37763
G1 X113.127 Y115.068 E.01233
G1 X121.614 Y123.555 E.37763
G1 X121.275 Y123.75 E.01233
G1 X112.788 Y115.264 E.37764
G1 X112.448 Y115.459 E.01233
G1 X120.935 Y123.946 E.37764
G1 X120.596 Y124.142 E.01233
G1 X112.109 Y115.655 E.37764
G1 X111.77 Y115.851 E.01233
G1 X120.257 Y124.338 E.37765
G1 X119.917 Y124.534 E.01233
G1 X111.43 Y116.047 E.37765
G1 X111.091 Y116.243 E.01233
G1 X119.578 Y124.73 E.37765
G1 X119.239 Y124.926 E.01233
G1 X110.752 Y116.438 E.37766
G1 X110.412 Y116.634 E.01233
G1 X118.9 Y125.122 E.37766
G1 X118.56 Y125.317 E.01233
G1 X110.073 Y116.83 E.37766
G1 X109.734 Y117.026 E.01233
G1 X118.221 Y125.513 E.37767
G1 X117.882 Y125.709 E.01233
G1 X109.394 Y117.222 E.37767
G1 X109.055 Y117.417 E.01233
G1 X117.543 Y125.905 E.37767
G1 X117.203 Y126.101 E.01233
G1 X108.716 Y117.613 E.37768
G1 X108.376 Y117.809 E.01233
G1 X116.864 Y126.297 E.37768
G1 X116.525 Y126.493 E.01233
G1 X108.037 Y118.005 E.37768
G1 X107.698 Y118.201 E.01233
G1 X116.186 Y126.689 E.37769
G1 X115.846 Y126.884 E.01233
G1 X107.358 Y118.396 E.37769
G1 X107.019 Y118.592 E.01233
G1 X115.507 Y127.08 E.37769
G1 X115.168 Y127.276 E.01233
G1 X106.68 Y118.788 E.3777
G1 X106.34 Y118.984 E.01233
G1 X114.829 Y127.472 E.3777
G1 X114.489 Y127.668 E.01233
G1 X106.001 Y119.18 E.3777
G1 X105.662 Y119.375 E.01233
G1 X114.15 Y127.864 E.37771
G1 X113.811 Y128.06 E.01233
G1 X105.322 Y119.571 E.37771
G1 X104.983 Y119.767 E.01233
G1 X113.472 Y128.256 E.37771
G1 X113.132 Y128.451 E.01233
G1 X104.644 Y119.963 E.37772
G1 X104.304 Y120.159 E.01233
G1 X112.793 Y128.647 E.37772
G1 X112.454 Y128.843 E.01233
G1 X103.965 Y120.354 E.37772
G1 X103.626 Y120.55 E.01233
G1 X112.114 Y129.039 E.37773
G1 X111.775 Y129.235 E.01233
G1 X103.286 Y120.746 E.37773
G1 X102.947 Y120.942 E.01233
G1 X111.436 Y129.431 E.37773
G1 X111.097 Y129.627 E.01233
G1 X102.608 Y121.138 E.37774
G1 X102.268 Y121.333 E.01233
G1 X110.757 Y129.822 E.37774
G1 X110.418 Y130.018 E.01233
G1 X101.929 Y121.529 E.37774
G1 X101.59 Y121.725 E.01233
G1 X110.079 Y130.214 E.37774
G1 X109.74 Y130.41 E.01233
G1 X101.25 Y121.921 E.37775
G1 X100.911 Y122.116 E.01233
G1 X109.4 Y130.606 E.37775
G1 X109.061 Y130.802 E.01233
G1 X100.572 Y122.312 E.37775
G1 X100.232 Y122.508 E.01233
G1 X108.722 Y130.998 E.37776
G1 X108.383 Y131.194 E.01233
G1 X99.893 Y122.704 E.37776
G1 X99.554 Y122.9 E.01233
G1 X108.043 Y131.389 E.37776
G1 X107.704 Y131.585 E.01233
G1 X99.214 Y123.095 E.37777
G1 X98.875 Y123.291 E.01233
G1 X107.365 Y131.781 E.37777
G1 X107.026 Y131.977 E.01233
G1 X98.536 Y123.487 E.37777
G1 X98.196 Y123.683 E.01233
G1 X106.686 Y132.173 E.37778
G1 X106.347 Y132.369 E.01233
G1 X97.857 Y123.879 E.37778
G1 X97.518 Y124.074 E.01233
G1 X106.008 Y132.565 E.37778
G1 X105.669 Y132.761 E.01233
G1 X97.178 Y124.27 E.37779
G1 X96.839 Y124.466 E.01233
G1 X105.329 Y132.956 E.37779
G1 X104.99 Y133.152 E.01233
G1 X96.5 Y124.662 E.37779
G1 X96.16 Y124.858 E.01233
G1 X104.651 Y133.348 E.3778
G1 X104.312 Y133.544 E.01233
G1 X95.637 Y124.87 E.38598
;WIPE_START
G1 F7200
G1 X97.9 Y127.132 E-.76
;WIPE_END
G1 E-.04 F1800
G1 X84.359 Y106.635 F9000
G1 E.8 F1800
G1 F1200
