; generated by PrusaSlicer 2.5.0-beta1+win64 on 2025-10-10 at 12:10:08 UTC

; 

; external perimeters extrusion width = 0.42mm
; perimeters extrusion width = 0.44mm
; infill extrusion width = 0.44mm
; solid infill extrusion width = 0.44mm
; top infill extrusion width = 0.40mm
; first layer extrusion width = 0.42mm

; external perimeters extrusion width = 0.42mm
; perimeters extrusion width = 0.44mm
; infill extrusion width = 0.44mm
; solid infill extrusion width = 0.44mm
; top infill extrusion width = 0.40mm
; first layer extrusion width = 0.42mm

; external perimeters extrusion width = 0.42mm
; perimeters extrusion width = 0.44mm
; infill extrusion width = 0.44mm
; solid infill extrusion width = 0.44mm
; top infill extrusion width = 0.40mm
; first layer extrusion width = 0.42mm

; external perimeters extrusion width = 0.42mm
; perimeters extrusion width = 0.44mm
; infill extrusion width = 0.44mm
; solid infill extrusion width = 0.44mm
; top infill extrusion width = 0.40mm
; first layer extrusion width = 0.42mm

; external perimeters extrusion width = 0.42mm
; perimeters extrusion width = 0.44mm
; infill extrusion width = 0.44mm
; solid infill extrusion width = 0.44mm
; top infill extrusion width = 0.40mm
; first layer extrusion width = 0.42mm

M201 X500 Y500 Z100 E5000 ; sets maximum accelerations, mm/sec^2
M203 X500 Y500 Z10 E60 ; sets maximum feedrates, mm / sec
M204 P500 R1000 T500 ; sets acceleration (P, T) and retract acceleration (R), mm/sec^2
M205 X8.00 Y8.00 Z0.40 E5.00 ; sets the jerk limits, mm/sec
M205 S0 T0 ; sets the minimum extruding and travel feed rate, mm/sec
M107
;TYPE:Custom
G90 ; use absolute coordinates
M83 ; extruder relative mode
M104 S150 ; set temporary nozzle temp to prevent oozing during homing
M140 S60 ; set final bed temp
G4 S30 ; allow partial nozzle warmup
G28 ; home all axis and restore leveling
G1 Z50 F240
G1 X2.0 Y10 F3000
M104 S210 ; set final nozzle temp
M190 S60 ; wait for bed temp to stabilize
M109 S210 ; wait for nozzle temp to stabilize
G1 Z0.28 F240
G92 E0
G1 X2.0 Y140 E10 F1500 ; prime the nozzle
G1 X2.3 Y140 F5000
G92 E0
G1 X2.3 Y10 E10 F1200 ; prime the nozzle
G92 E0
G21 ; set units to millimeters
G90 ; use absolute coordinates
M83 ; use relative distances for extrusion
; Filament gcode
M107
;LAYER_CHANGE
;Z:0.2
;HEIGHT:0.2
;BEFORE_LAYER_CHANGE
G92 E0
;0.2


G1 E-.8 F1800
G1 Z.2 F9000
;AFTER_LAYER_CHANGE
;0.2
G1 X49.512 Y92.623
G1 E.8 F1800
M204 S500
;TYPE:Skirt/Brim
;WIDTH:0.42
G1 F1200
G1 X168.725 Y28.897 E4.23838
G1 X170.317 Y28.498 E.05146
G1 X182.317 Y28.498 E.37625
G1 X183.9 Y28.892 E.05115
G1 X185.114 Y29.983 E.05115
G1 X185.694 Y31.875 E.06207
G1 X185.499 Y114.805 E2.6002
G1 X184.682 Y187.774 E2.28805
G1 X184.27 Y189.353 E.05115
G1 X183.166 Y190.554 E.05115
G1 X181.305 Y191.114 E.06094
G1 X169.305 Y191.114 E.37625
G1 X94.305 Y187.885 E2.35374
G1 X92.74 Y187.423 E.05115
G1 X91.871 Y186.691 E.03562
G1 X33.597 Y117.761 E2.83011
G1 X32.799 Y115.581 E.0728
G1 X32.799 Y103.581 E.37625
G1 X33.193 Y101.997 E.05115
G1 X34.584 Y100.602 E.06177
G1 X49.459 Y92.651 E.52884
;WIPE_START
G1 F7200
G1 X52.281 Y91.143 E-.76
;WIPE_END
G1 E-.04 F1800
G1 X177.08 Y176.801 F9000
G1 E.8 F1800
;TYPE:Perimeter
;WIDTH:0.419999
G1 F1200
G1 X180.241 Y176.801 E.09909
G1 X180.241 Y179.918 E.09773
G1 X179.768 Y178.948 E.03384
G1 X179.346 Y178.366 E.02254
G1 X178.85 Y177.847 E.0225
G1 X178.265 Y177.388 E.02331
G1 X177.49 Y176.952 E.02789
G1 X177.137 Y176.821 E.0118
;WIPE_START
G1 F7200
G1 X180.241 Y176.801 E-.73724
G1 X180.241 Y176.897 E-.02276
;WIPE_END
G1 E-.04 F1800
G1 X173.48 Y176.801 F9000
G1 E.8 F1800
G1 F1200
G1 X172.826 Y177.094 E.02247
G1 X172.193 Y177.495 E.02349
G1 X171.415 Y178.192 E.03274
G1 X170.957 Y178.777 E.02331
G1 X170.52 Y179.552 E.02789
G1 X170.369 Y179.961 E.01368
G1 X170.369 Y176.801 E.09909
G1 X173.42 Y176.801 E.09567
;WIPE_START
G1 F7200
G1 X172.826 Y177.094 E-.1573
G1 X172.193 Y177.495 E-.17795
G1 X171.415 Y178.192 E-.24802
G1 X170.957 Y178.777 E-.17656
G1 X170.956 Y178.777 E-.00017
;WIPE_END
G1 E-.04 F1800
G1 X170.369 Y183.512 F9000
G1 E.8 F1800
G1 F1200
G1 X170.519 Y183.92 E.01363
G1 X171.043 Y184.823 E.03274
G1 X171.57 Y185.438 E.02537
G1 X172.029 Y185.855 E.01945
G1 X172.626 Y186.266 E.02273
G1 X173.149 Y186.537 E.01848
G1 X173.503 Y186.672 E.01189
G1 X170.369 Y186.672 E.09827
G1 X170.369 Y183.572 E.09722
;WIPE_START
G1 F7200
G1 X170.519 Y183.92 E-.09003
G1 X171.043 Y184.823 E-.24801
G1 X171.57 Y185.438 E-.1922
G1 X172.029 Y185.855 E-.1473
G1 X172.315 Y186.052 E-.08245
;WIPE_END
G1 E-.04 F1800
G1 X177.08 Y186.672 F9000
G1 E.8 F1800
G1 F1200
G1 X177.488 Y186.522 E.01363
G1 X178.392 Y185.999 E.03274
G1 X179.006 Y185.472 E.02537
G1 X179.427 Y185.007 E.01967
G1 X179.834 Y184.416 E.02251
G1 X180.106 Y183.892 E.01852
G1 X180.241 Y183.538 E.01186
G1 X180.241 Y186.672 E.09827
G1 X177.14 Y186.672 E.09722
G1 X177.248 Y186.213 F9000
;WIDTH:0.447218
G1 F1200
G1 X176.833 Y186.363 E.01483
;WIDTH:0.474437
G1 X176.363 Y186.533 E.01793
G1 X175.364 Y186.634 E.03604
;WIDTH:0.465384
G1 X174.676 Y186.605 E.02417
G1 X174.024 Y186.452 E.02353
;WIDTH:0.419999
G1 X173.393 Y186.233 E.02093
G1 X172.799 Y185.931 E.0209
G1 X172.246 Y185.547 E.02111
G1 X171.827 Y185.162 E.01784
G1 X171.335 Y184.585 E.02377
G1 X170.848 Y183.735 E.03073
;WIDTH:0.447219
G1 X170.678 Y183.265 E.0168
;WIDTH:0.474438
G1 X170.508 Y182.795 E.01793
G1 X170.407 Y181.795 E.03604
;WIDTH:0.492465
G1 X170.476 Y180.789 E.0377
G1 X170.639 Y180.316 E.0187
;WIDTH:0.456232
G1 X170.802 Y179.843 E.01719
;WIDTH:0.419999
G1 X171.285 Y178.962 E.03151
G1 X171.708 Y178.43 E.02131
G1 X172.441 Y177.779 E.03074
G1 X173.022 Y177.416 E.02148
G1 X173.633 Y177.146 E.02093
;WIDTH:0.449969
G1 X173.949 Y177.039 E.01129
;WIDTH:0.479938
G1 X174.265 Y176.932 E.01213
G1 X174.937 Y176.848 E.02461
;WIDTH:0.452877
G1 X175.6 Y176.845 E.02258
;WIDTH:0.494171
G1 X176.273 Y176.91 E.02538
G1 X176.735 Y177.072 E.0184
;WIDTH:0.457085
G1 X177.198 Y177.234 E.01689
;WIDTH:0.419999
G1 X178.08 Y177.717 E.03151
G1 X178.612 Y178.14 E.0213
G1 X179.07 Y178.623 E.02089
G1 X179.459 Y179.165 E.02093
G1 X179.888 Y180.047 E.03073
;WIDTH:0.4462
G1 X179.997 Y180.372 E.01151
;WIDTH:0.4724
G1 X180.106 Y180.698 E.01226
G1 X180.193 Y181.362 E.02394
;WIDTH:0.453029
G1 X180.197 Y181.442 E.00271
;WIDTH:0.449661
G1 X180.196 Y182.038 E.02016
;WIDTH:0.490252
G1 X180.137 Y182.523 E.01819
;WIDTH:0.530843
G1 X180.078 Y183.009 E.01984
G1 X179.986 Y183.222 E.00941
;WIDTH:0.493895
G1 X179.894 Y183.434 E.0087
;WIDTH:0.456947
G1 X179.802 Y183.647 E.00799
;WIDTH:0.419999
G1 X179.499 Y184.242 E.02093
G1 X179.119 Y184.79 E.0209
G1 X178.73 Y185.214 E.01805
G1 X178.154 Y185.706 E.02375
G1 X177.304 Y186.193 E.03069
G1 X177.119 Y185.865 F9000
;TYPE:External perimeter
G1 F1200
G1 X176.241 Y186.148 E.02892
G1 X175.324 Y186.246 E.02892
G1 X174.703 Y186.206 E.01949
G1 X174.101 Y186.083 E.01929
G1 X173.52 Y185.878 E.01932
G1 X172.973 Y185.596 E.01929
G1 X172.464 Y185.239 E.01949
G1 X172.085 Y184.887 E.01624
G1 X171.628 Y184.347 E.02216
G1 X171.176 Y183.55 E.02872
G1 X170.894 Y182.672 E.02892
G1 X170.796 Y181.755 E.02892
G1 X170.888 Y180.832 E.0291
G1 X171.161 Y179.957 E.02873
G1 X171.614 Y179.147 E.0291
G1 X172 Y178.668 E.0193
G1 X172.689 Y178.064 E.02873
G1 X173.218 Y177.739 E.01947
G1 X173.783 Y177.491 E.01932
G1 X174.375 Y177.324 E.01929
G1 X174.99 Y177.238 E.01949
G1 X175.599 Y177.237 E.0191
G1 X176.216 Y177.32 E.01951
G1 X177.084 Y177.593 E.02853
G1 X177.894 Y178.045 E.0291
G1 X178.374 Y178.432 E.0193
G1 X178.795 Y178.88 E.01928
G1 X179.151 Y179.383 E.01932
G1 X179.547 Y180.209 E.02872
G1 X179.717 Y180.806 E.01949
G1 X179.803 Y181.416 E.0193
G1 X179.804 Y182.037 E.01949
G1 X179.652 Y182.935 E.02855
G1 X179.446 Y183.521 E.01947
G1 X179.164 Y184.069 E.01932
G1 X178.811 Y184.573 E.01929
G1 X178.454 Y184.957 E.01644
G1 X177.916 Y185.414 E.02214
G1 X177.171 Y185.835 E.02684
G1 X177.072 Y186.262 F9000
;WIPE_START
G1 F7200
G1 X176.241 Y186.148 E-.233
G1 X175.324 Y186.246 E-.21904
G1 X174.703 Y186.206 E-.1476
G1 X174.101 Y186.083 E-.1461
G1 X174.044 Y186.063 E-.01426
;WIPE_END
G1 E-.04 F1800
G1 X180.618 Y187.049 F9000
G1 E.8 F1800
;TYPE:Perimeter
G1 F1200
G1 X177.323 Y187.049 E.10332
;WIDTH:0.455829
G1 X176.795 Y187.032 E.01811
;WIDTH:0.491658
G1 X176.268 Y187.014 E.01969
G1 X175.251 Y187.037 E.03795
;WIDTH:0.472892
G1 X174.552 Y187.023 E.025
G1 X174.257 Y187.036 E.01055
;WIDTH:0.446446
G1 X173.963 Y187.049 E.0099
;WIDTH:0.419999
G1 X169.992 Y187.049 E.1245
G1 X169.992 Y183.754 E.10332
;WIDTH:0.455829
G1 X170.01 Y183.227 E.01811
;WIDTH:0.491658
G1 X170.028 Y182.7 E.01969
G1 X170.005 Y181.656 E.03897
;WIDTH:0.461411
G1 X170.013 Y180.595 E.03689
G1 X169.992 Y179.717 E.03056
;WIDTH:0.419999
G1 X169.992 Y176.424 E.10327
G1 X173.61 Y176.424 E.11343
;WIDTH:0.456659
G1 X173.962 Y176.442 E.01213
;WIDTH:0.493318
G1 X174.314 Y176.46 E.0132
G1 X175.016 Y176.438 E.02631
;WIDTH:0.453083
G1 X175.707 Y176.44 E.02358
;WIDTH:0.467632
G1 X176.446 Y176.447 E.02608
G1 X177.324 Y176.424 E.03102
;WIDTH:0.419999
G1 X180.618 Y176.424 E.10327
G1 X180.618 Y177.514 E.0342
G1 X180.618 Y180.041 E.07924
;WIDTH:0.456688
G1 X180.599 Y180.393 E.01211
;WIDTH:0.493376
G1 X180.581 Y180.745 E.01319
G1 X180.603 Y181.442 E.02615
;WIDTH:0.455436
G1 X180.6 Y182.172 E.02502
;WIDTH:0.489987
G1 X180.583 Y183.199 E.03819
G1 X180.6 Y183.493 E.01097
;WIDTH:0.454993
G1 X180.618 Y183.788 E.01011
;WIDTH:0.419999
G1 X180.618 Y186.989 E.10038
G1 X180.995 Y187.427 F9000
;TYPE:External perimeter
G1 F1200
G1 X169.615 Y187.427 E.35681
G1 X169.615 Y176.047 E.35681
G1 X180.995 Y176.047 E.35681
G1 X180.995 Y187.367 E.35493
G1 X180.608 Y187.323 F9000
;WIPE_START
G1 F7200
G1 X177.795 Y187.383 E-.76
;WIPE_END
G1 E-.04 F1800
G1 X179.611 Y184.957 F9000
G1 E.8 F1800
;TYPE:Solid infill
;WIDTH:0.431842
G1 F1200
G1 X179.95 Y185.296 E.01552
G1 X179.95 Y185.846 E.01779
G1 X179.482 Y185.377 E.02143
G1 X179.22 Y185.666 E.01259
G1 X179.936 Y186.382 E.03277
G1 X179.386 Y186.382 E.01779
G1 X178.93 Y185.926 E.02086
G1 X178.631 Y186.177 E.01263
G1 X179.006 Y186.552 E.01715
;WIPE_START
G1 F7200
G1 X178.631 Y186.177 E-.12596
G1 X178.93 Y185.926 E-.09273
G1 X179.386 Y186.382 E-.15316
G1 X179.936 Y186.382 E-.13063
G1 X179.22 Y185.666 E-.24063
G1 X179.268 Y185.613 E-.01688
;WIPE_END
G1 E-.04 F1800
G1 X170.49 Y185.154 F9000
G1 E.8 F1800
;WIDTH:0.448904
G1 F1200
G1 X171.717 Y186.382 E.05862
G1 X171.143 Y186.382 E.01938
G1 X170.49 Y185.728 E.03121
;WIPE_START
G1 F7200
G1 X171.143 Y186.382 E-.21958
G1 X171.717 Y186.382 E-.13636
G1 X170.514 Y185.179 E-.40406
;WIPE_END
G1 E-.04 F1800
G1 X171.577 Y176.921 F9000
G1 E.8 F1800
;WIDTH:0.432166
G1 F1200
G1 X171.965 Y177.309 E.01775
G1 X171.671 Y177.566 E.01263
G1 X171.196 Y177.091 E.02172
G1 X170.659 Y177.091 E.01738
G1 X171.377 Y177.822 E.03315
G1 X171.111 Y178.106 E.01261
G1 X170.659 Y177.655 E.02066
G1 X170.659 Y178.205 E.01782
G1 X170.984 Y178.53 E.01487
;WIPE_START
G1 F7200
G1 X170.659 Y178.205 E-.10911
G1 X170.659 Y177.655 E-.13074
G1 X171.111 Y178.106 E-.15158
G1 X171.377 Y177.822 E-.0925
G1 X170.659 Y177.091 E-.24327
G1 X170.797 Y177.091 E-.03281
;WIPE_END
G1 E-.04 F1800
G1 X179.29 Y176.921 F9000
G1 E.8 F1800
;WIDTH:0.452069
G1 F1200
G1 X179.95 Y177.582 E.03178
G1 X179.95 Y178.161 E.01969
G1 X178.711 Y176.921 E.05962
M106 S255
;LAYER_CHANGE
;Z:0.4
;HEIGHT:0.2
;BEFORE_LAYER_CHANGE
G92 E0
;0.4


;WIPE_START
G1 F7200
G1 X179.95 Y178.161 E-.41623
G1 X179.95 Y177.582 E-.13742
G1 X179.336 Y176.968 E-.20635
;WIPE_END
G1 E-.04 F1800
G1 Z.4 F9000
;AFTER_LAYER_CHANGE
;0.4
M104 S205 ; set temperature
G1 X184.802 Y177.029
G1 E.8 F1800
;TYPE:Skirt/Brim
;WIDTH:0.42
G1 F2400
G1 X184.682 Y187.774 E.33694
G1 X184.27 Y189.353 E.05115
G1 X183.166 Y190.554 E.05115
G1 X181.305 Y191.114 E.06094
G1 X169.305 Y191.114 E.37625
G1 X94.305 Y187.885 E2.35374
G1 X92.74 Y187.423 E.05115
G1 X91.871 Y186.691 E.03562
G1 X33.597 Y117.761 E2.83011
G1 X32.799 Y115.581 E.0728
G1 X32.799 Y103.581 E.37625
G1 X33.193 Y101.997 E.05115
G1 X34.584 Y100.602 E.06177
G1 X168.725 Y28.897 E4.7691
G1 X170.317 Y28.498 E.05146
G1 X182.317 Y28.498 E.37625
G1 X183.9 Y28.892 E.05115
G1 X185.114 Y29.983 E.05115
G1 X185.694 Y31.875 E.06207
G1 X185.499 Y114.805 E2.6002
G1 X184.803 Y176.969 E1.94923
;WIPE_START
G1 F7200
G1 X184.767 Y180.169 E-.76
;WIPE_END
G1 E-.04 F1800
G1 X180.311 Y176.731 F9000
G1 E.8 F1800
;TYPE:Perimeter
;WIDTH:0.439999
G1 F1500
G1 X180.311 Y180.359 E.11979
G1 X180.04 Y179.607 E.02637
G1 X179.706 Y178.982 E.02343
G1 X179.285 Y178.403 E.02363
G1 X178.774 Y177.877 E.02421
G1 X177.916 Y177.251 E.03505
G1 X177.136 Y176.88 E.02852
G1 X176.655 Y176.731 E.01664
G1 X180.251 Y176.731 E.11872
;WIPE_START
G1 F7200
G1 X180.304 Y179.93 E-.76
;WIPE_END
G1 E-.04 F1800
G1 X173.955 Y176.731 F9000
G1 E.8 F1800
G1 F1500
G1 X173.504 Y176.867 E.01556
G1 X172.857 Y177.157 E.02342
G1 X172.231 Y177.554 E.02446
G1 X171.465 Y178.241 E.03398
G1 X171.024 Y178.797 E.02343
G1 X170.661 Y179.414 E.02363
G1 X170.435 Y179.936 E.01877
G1 X170.299 Y180.386 E.01554
G1 X170.299 Y176.731 E.1207
G1 X173.895 Y176.731 E.11873
;WIPE_START
G1 F7200
G1 X173.504 Y176.867 E-.09833
G1 X172.857 Y177.157 E-.16849
G1 X172.231 Y177.554 E-.17593
G1 X171.465 Y178.241 E-.24444
G1 X171.275 Y178.482 E-.07281
;WIPE_END
G1 E-.04 F1800
G1 X170.299 Y183.112 F9000
G1 E.8 F1800
G1 F1500
G1 X170.722 Y184.177 E.03782
G1 X171.123 Y184.81 E.02475
G1 X171.835 Y185.597 E.03505
G1 X172.693 Y186.222 E.03505
G1 X173.473 Y186.593 E.02851
G1 X174.002 Y186.742 E.01815
G1 X170.299 Y186.742 E.12225
G1 X170.299 Y183.172 E.11789
;WIPE_START
G1 F7200
G1 X170.722 Y184.177 E-.25889
G1 X171.123 Y184.81 E-.178
G1 X171.835 Y185.597 E-.25211
G1 X172.077 Y185.773 E-.071
;WIPE_END
G1 E-.04 F1800
G1 X176.683 Y186.742 F9000
G1 E.8 F1800
G1 F1500
G1 X177.463 Y186.457 E.02744
G1 X178.353 Y185.94 E.03397
G1 X178.955 Y185.424 E.02617
G1 X179.392 Y184.935 E.02169
G1 X179.958 Y184.036 E.03505
G1 X180.311 Y183.112 E.03266
G1 X180.311 Y186.742 E.11987
G1 X176.743 Y186.742 E.11781
G1 X177.214 Y186.13 F9000
G1 F1500
G1 X176.636 Y186.344 E.02034
;WIDTH:0.480519
G1 X176.427 Y186.41 E.00798
;WIDTH:0.521038
G1 X176.218 Y186.476 E.00871
;WIDTH:0.561557
G1 X176.009 Y186.542 E.00945
G1 X175.347 Y186.585 E.02862
;WIDTH:0.565063
G1 X174.686 Y186.555 E.02872
G1 X174.376 Y186.461 E.01409
;WIDTH:0.523375
G1 X174.065 Y186.367 E.01297
;WIDTH:0.481687
G1 X173.754 Y186.273 E.01184
;WIDTH:0.439999
G1 X172.864 Y185.863 E.03238
G1 X172.075 Y185.28 E.03238
G1 X171.422 Y184.549 E.03238
G1 X171.061 Y183.971 E.0225
G1 X170.704 Y183.086 E.0315
;WIDTH:0.480663
G1 X170.636 Y182.874 E.00812
;WIDTH:0.521327
G1 X170.568 Y182.661 E.00887
;WIDTH:0.56199
G1 X170.501 Y182.449 E.00963
G1 X170.456 Y181.78 E.02893
;WIDTH:0.59189
G1 X170.525 Y180.803 E.04471
G1 X170.587 Y180.644 E.00778
;WIDTH:0.553918
G1 X170.649 Y180.485 E.00725
;WIDTH:0.515945
G1 X170.711 Y180.326 E.00671
;WIDTH:0.477972
G1 X170.773 Y180.167 E.00617
;WIDTH:0.439999
G1 X171.025 Y179.572 E.02135
G1 X171.364 Y179.003 E.02186
G1 X171.773 Y178.492 E.02162
G1 X172.492 Y177.854 E.03175
G1 X173.063 Y177.497 E.02223
G1 X173.662 Y177.231 E.02164
;WIDTH:0.479704
G1 X173.866 Y177.151 E.00796
;WIDTH:0.519409
G1 X174.07 Y177.071 E.00868
;WIDTH:0.559114
G1 X174.275 Y176.992 E.00941
G1 X174.939 Y176.898 E.02878
;WIDTH:0.55321
G1 X175.593 Y176.895 E.02776
;WIDTH:0.593806
G1 X176.261 Y176.959 E.03074
G1 X176.414 Y177.02 E.00757
;WIDTH:0.555355
G1 X176.567 Y177.082 E.00704
;WIDTH:0.516903
G1 X176.721 Y177.143 E.00651
;WIDTH:0.478451
G1 X176.874 Y177.205 E.00598
;WIDTH:0.439999
G1 X177.746 Y177.61 E.03174
G1 X178.534 Y178.193 E.03238
G1 X178.995 Y178.674 E.02198
G1 X179.382 Y179.211 E.02186
G1 X179.688 Y179.79 E.02162
G1 X179.912 Y180.405 E.02161
;WIDTH:0.484515
G1 X179.98 Y180.613 E.00806
;WIDTH:0.52903
G1 X180.048 Y180.822 E.00887
;WIDTH:0.573545
G1 X180.116 Y181.031 E.00968
G1 X180.153 Y181.694 E.02931
;WIDTH:0.545393
G1 X180.154 Y181.737 E.00179
;WIDTH:0.565063
G1 X180.124 Y182.355 E.02686
G1 X180.06 Y182.568 E.00963
;WIDTH:0.523375
G1 X179.997 Y182.78 E.00886
;WIDTH:0.481687
G1 X179.933 Y182.993 E.00809
;WIDTH:0.439999
