; generated by PrusaSlicer 2.5.0-beta1+win64 on 2025-10-09 at 17:15:36 UTC

; 

; external perimeters extrusion width = 0.42mm
; perimeters extrusion width = 0.44mm
; infill extrusion width = 0.44mm
; solid infill extrusion width = 0.44mm
; top infill extrusion width = 0.40mm
; first layer extrusion width = 0.42mm

M201 X500 Y500 Z100 E5000 ; sets maximum accelerations, mm/sec^2
M203 X500 Y500 Z10 E60 ; sets maximum feedrates, mm / sec
M204 P500 R1000 T500 ; sets acceleration (P, T) and retract acceleration (R), mm/sec^2
M205 X8.00 Y8.00 Z0.40 E5.00 ; sets the jerk limits, mm/sec
M205 S0 T0 ; sets the minimum extruding and travel feed rate, mm/sec
M107
;TYPE:Custom
G90 ; use absolute coordinates
M83 ; extruder relative mode
M104 S150 ; set temporary nozzle temp to prevent oozing during homing
M140 S60 ; set final bed temp
G4 S30 ; allow partial nozzle warmup
G28 ; home all axis and restore leveling
G1 Z50 F240
G1 X2.0 Y10 F3000
M104 S210 ; set final nozzle temp
M190 S60 ; wait for bed temp to stabilize
M109 S210 ; wait for nozzle temp to stabilize
G1 Z0.28 F240
G92 E0
G1 X2.0 Y140 E10 F1500 ; prime the nozzle
G1 X2.3 Y140 F5000
G92 E0
G1 X2.3 Y10 E10 F1200 ; prime the nozzle
G92 E0
G21 ; set units to millimeters
G90 ; use absolute coordinates
M83 ; use relative distances for extrusion
; Filament gcode
M107
;LAYER_CHANGE
;Z:0.2
;HEIGHT:0.2
;BEFORE_LAYER_CHANGE
G92 E0
;0.2


G1 E-.8 F1800
G1 Z.2 F9000
;AFTER_LAYER_CHANGE
;0.2
G1 X105.502 Y58.417
G1 E.8 F1800
M204 S500
;TYPE:Skirt/Brim
;WIDTH:0.42
G1 F1200
G1 X106.592 Y57.203 E.05115
G1 X108.485 Y56.623 E.06207
G1 X111.518 Y56.623 E.0951
G1 X113.101 Y57.017 E.05115
G1 X114.315 Y58.107 E.05115
G1 X114.895 Y60 E.06207
G1 X114.895 Y160 E3.13543
G1 X114.501 Y161.583 E.05115
G1 X113.411 Y162.797 E.05115
G1 X111.518 Y163.377 E.06207
G1 X108.485 Y163.377 E.0951
G1 X106.902 Y162.983 E.05115
G1 X105.688 Y161.893 E.05115
G1 X105.108 Y160 E.06207
G1 X105.108 Y60 E3.13543
G1 X105.487 Y58.475 E.04927
;WIPE_START
G1 F7200
G1 X106.592 Y57.203 E-.40011
G1 X108.041 Y56.759 E-.35989
;WIPE_END
G1 E-.04 F1800
G1 X109.804 Y60.692 F9000
G1 E.8 F1800
;TYPE:Perimeter
;WIDTH:0.428953
G1 F1200
G1 X110.19 Y60.692 E.01239
G1 X110.19 Y159.308 E3.16548
G1 X109.804 Y159.308 E.01239
G1 X109.804 Y60.752 E3.16356
G1 X109.423 Y60.31 F9000
;TYPE:External perimeter
;WIDTH:0.419999
G1 F1200
G1 X110.572 Y60.31 E.03603
G1 X110.572 Y159.69 E3.11598
G1 X109.423 Y159.69 E.03603
G1 X109.423 Y60.37 E3.1141
G1 X109.77 Y60.509 F9000
M106 S255
;LAYER_CHANGE
;Z:0.4
;HEIGHT:0.2
;BEFORE_LAYER_CHANGE
G92 E0
;0.4


;WIPE_START
G1 F7200
G1 X110.572 Y60.31 E-.27329
G1 X110.572 Y62.359 E-.48671
;WIPE_END
G1 E-.04 F1800
G1 Z.4 F9000
;AFTER_LAYER_CHANGE
;0.4
M104 S205 ; set temperature
G1 X114.895 Y62.359
G1 E.8 F1800
;TYPE:Skirt/Brim
;WIDTH:0.42
G1 F2400
G1 X114.895 Y160 E3.06146
G1 X114.501 Y161.583 E.05115
G1 X113.411 Y162.797 E.05115
G1 X111.518 Y163.377 E.06207
G1 X108.485 Y163.377 E.0951
G1 X106.902 Y162.983 E.05115
G1 X105.688 Y161.893 E.05115
G1 X105.108 Y160 E.06207
G1 X105.108 Y60 E3.13543
G1 X105.502 Y58.417 E.05115
G1 X106.592 Y57.203 E.05115
G1 X108.485 Y56.623 E.06207
G1 X111.518 Y56.623 E.0951
G1 X113.101 Y57.017 E.05115
G1 X114.315 Y58.107 E.05115
G1 X114.895 Y60 E.06207
G1 X114.895 Y62.299 E.07209
;WIPE_START
G1 F7200
G1 X114.895 Y65.499 E-.76
;WIPE_END
G1 E-.04 F1800
G1 X109.479 Y159.006 F9000
G1 E.8 F1800
;TYPE:Perimeter
;WIDTH:0.439999
G1 F2400
G1 X109.479 Y60.994 E3.23608
G1 X110.524 Y60.994 E.03449
G1 X110.524 Y159.006 E3.23608
G1 X109.539 Y159.006 E.03251
G1 X109.082 Y159.403 F9000
G1 F2400
G1 X109.082 Y60.597 E3.2623
G1 X110.921 Y60.597 E.06071
G1 X110.921 Y159.403 E3.2623
G1 X109.142 Y159.403 E.05873
G1 X108.913 Y159.79 F9000
M204 S250
;TYPE:Overhang perimeter
;WIDTH:0.389872
;HEIGHT:0.389872
G1 F1500
G1 X108.695 Y159.79 E.01082
G1 X108.695 Y60.21 E4.94242
G1 X108.913 Y60.21 E.01082
M204 S500
;TYPE:External perimeter
;WIDTH:0.419999
;HEIGHT:0.2
G1 X111.082 Y60.21 E.06801
M204 S250
;TYPE:Overhang perimeter
;WIDTH:0.389872
;HEIGHT:0.389872
G1 X111.308 Y60.21 E.01121
G1 X111.308 Y61.516 E.06484
G1 X111.308 Y159.79 E4.87758
G1 X111.082 Y159.79 E.01121
M204 S500
;TYPE:External perimeter
;WIDTH:0.419999
;HEIGHT:0.2
G1 X108.973 Y159.79 E.06613
;WIPE_START
G1 F7200
G1 X108.695 Y159.79 E-.06602
G1 X108.695 Y156.868 E-.69398
;WIPE_END
G1 E-.04 F1800
G1 X110.397 Y158.073 F9000
G1 E.8 F1800
;TYPE:Solid infill
;WIDTH:0.441435
G1 F2400
G1 X109.785 Y158.685 E.02867
G1 X109.785 Y158.121 E.01868
G1 X110.218 Y157.688 E.0203
G1 X110.218 Y157.125 E.01868
G1 X109.785 Y157.558 E.0203
G1 X109.785 Y156.994 E.01868
G1 X110.218 Y156.561 E.0203
G1 X110.218 Y155.997 E.01868
G1 X109.785 Y156.431 E.0203
G1 X109.785 Y155.867 E.01868
G1 X110.218 Y155.434 E.0203
G1 X110.218 Y154.87 E.01868
G1 X109.785 Y155.303 E.0203
G1 X109.785 Y154.74 E.01868
G1 X110.218 Y154.307 E.0203
G1 X110.218 Y153.743 E.01868
G1 X109.785 Y154.176 E.0203
G1 X109.785 Y153.613 E.01868
G1 X110.218 Y153.179 E.0203
G1 X110.218 Y152.616 E.01868
G1 X109.785 Y153.049 E.0203
G1 X109.785 Y152.485 E.01868
G1 X110.218 Y152.052 E.0203
G1 X110.218 Y151.489 E.01868
G1 X109.785 Y151.922 E.0203
G1 X109.785 Y151.358 E.01868
G1 X110.218 Y150.925 E.0203
G1 X110.218 Y150.362 E.01868
G1 X109.785 Y150.795 E.0203
G1 X109.785 Y150.231 E.01868
G1 X110.218 Y149.798 E.0203
G1 X110.218 Y149.234 E.01868
G1 X109.785 Y149.668 E.0203
G1 X109.785 Y149.104 E.01868
G1 X110.218 Y148.671 E.0203
G1 X110.218 Y148.107 E.01868
G1 X109.785 Y148.54 E.0203
G1 X109.785 Y147.977 E.01868
G1 X110.218 Y147.544 E.0203
G1 X110.218 Y146.98 E.01868
G1 X109.785 Y147.413 E.0203
G1 X109.785 Y146.85 E.01868
G1 X110.218 Y146.416 E.0203
G1 X110.218 Y145.853 E.01868
G1 X109.785 Y146.286 E.0203
G1 X109.785 Y145.722 E.01868
G1 X110.218 Y145.289 E.0203
G1 X110.218 Y144.726 E.01868
G1 X109.785 Y145.159 E.0203
G1 X109.785 Y144.595 E.01868
G1 X110.218 Y144.162 E.0203
G1 X110.218 Y143.599 E.01868
G1 X109.785 Y144.032 E.0203
G1 X109.785 Y143.468 E.01868
G1 X110.218 Y143.035 E.0203
G1 X110.218 Y142.471 E.01868
G1 X109.785 Y142.905 E.0203
G1 X109.785 Y142.341 E.01868
G1 X110.218 Y141.908 E.0203
G1 X110.218 Y141.344 E.01868
G1 X109.785 Y141.777 E.0203
G1 X109.785 Y141.214 E.01868
G1 X110.218 Y140.781 E.0203
G1 X110.218 Y140.217 E.01868
G1 X109.785 Y140.65 E.0203
G1 X109.785 Y140.087 E.01868
G1 X110.218 Y139.653 E.0203
G1 X110.218 Y139.09 E.01868
G1 X109.785 Y139.523 E.0203
G1 X109.785 Y138.959 E.01868
G1 X110.218 Y138.526 E.0203
G1 X110.218 Y137.963 E.01868
G1 X109.785 Y138.396 E.0203
G1 X109.785 Y137.832 E.01868
G1 X110.218 Y137.399 E.0203
G1 X110.218 Y136.835 E.01868
G1 X109.785 Y137.269 E.0203
G1 X109.785 Y136.705 E.01868
G1 X110.218 Y136.272 E.0203
G1 X110.218 Y135.708 E.01868
G1 X109.785 Y136.141 E.0203
G1 X109.785 Y135.578 E.01868
G1 X110.218 Y135.145 E.0203
G1 X110.218 Y134.581 E.01868
G1 X109.785 Y135.014 E.0203
G1 X109.785 Y134.451 E.01868
G1 X110.218 Y134.018 E.0203
G1 X110.218 Y133.454 E.01868
G1 X109.785 Y133.887 E.0203
G1 X109.785 Y133.324 E.01868
G1 X110.218 Y132.89 E.0203
G1 X110.218 Y132.327 E.01868
G1 X109.785 Y132.76 E.0203
G1 X109.785 Y132.196 E.01868
G1 X110.218 Y131.763 E.0203
G1 X110.218 Y131.2 E.01868
G1 X109.785 Y131.633 E.0203
G1 X109.785 Y131.069 E.01868
G1 X110.218 Y130.636 E.0203
G1 X110.218 Y130.072 E.01868
G1 X109.785 Y130.506 E.0203
G1 X109.785 Y129.942 E.01868
G1 X110.218 Y129.509 E.0203
G1 X110.218 Y128.945 E.01868
G1 X109.785 Y129.378 E.0203
G1 X109.785 Y128.815 E.01868
G1 X110.218 Y128.382 E.0203
G1 X110.218 Y127.818 E.01868
G1 X109.785 Y128.251 E.0203
G1 X109.785 Y127.688 E.01868
G1 X110.218 Y127.255 E.0203
G1 X110.218 Y126.691 E.01868
G1 X109.785 Y127.124 E.0203
G1 X109.785 Y126.561 E.01868
G1 X110.218 Y126.127 E.0203
G1 X110.218 Y125.564 E.01868
G1 X109.785 Y125.997 E.0203
G1 X109.785 Y125.433 E.01868
G1 X110.218 Y125 E.0203
G1 X110.218 Y124.437 E.01868
G1 X109.785 Y124.87 E.0203
G1 X109.785 Y124.306 E.01868
G1 X110.218 Y123.873 E.0203
G1 X110.218 Y123.309 E.01868
G1 X109.785 Y123.743 E.0203
G1 X109.785 Y123.179 E.01868
G1 X110.218 Y122.746 E.0203
G1 X110.218 Y122.182 E.01868
G1 X109.785 Y122.615 E.0203
G1 X109.785 Y122.052 E.01868
G1 X110.218 Y121.619 E.0203
G1 X110.218 Y121.055 E.01868
G1 X109.785 Y121.488 E.0203
G1 X109.785 Y120.925 E.01868
G1 X110.218 Y120.492 E.0203
G1 X110.218 Y119.928 E.01868
G1 X109.785 Y120.361 E.0203
G1 X109.785 Y119.798 E.01868
G1 X110.218 Y119.364 E.0203
G1 X110.218 Y118.801 E.01868
G1 X109.785 Y119.234 E.0203
G1 X109.785 Y118.67 E.01868
G1 X110.218 Y118.237 E.0203
G1 X110.218 Y117.674 E.01868
G1 X109.785 Y118.107 E.0203
G1 X109.785 Y117.543 E.01868
G1 X110.218 Y117.11 E.0203
G1 X110.218 Y116.546 E.01868
G1 X109.785 Y116.98 E.0203
G1 X109.785 Y116.416 E.01868
G1 X110.218 Y115.983 E.0203
G1 X110.218 Y115.419 E.01868
G1 X109.785 Y115.852 E.0203
G1 X109.785 Y115.289 E.01868
G1 X110.218 Y114.856 E.0203
G1 X110.218 Y114.292 E.01868
G1 X109.785 Y114.725 E.0203
G1 X109.785 Y114.162 E.01868
G1 X110.218 Y113.729 E.0203
G1 X110.218 Y113.165 E.01868
G1 X109.785 Y113.598 E.0203
G1 X109.785 Y113.034 E.01868
G1 X110.218 Y112.601 E.0203
G1 X110.218 Y112.038 E.01868
G1 X109.785 Y112.471 E.0203
G1 X109.785 Y111.907 E.01868
G1 X110.218 Y111.474 E.0203
G1 X110.218 Y110.911 E.01868
G1 X109.785 Y111.344 E.0203
G1 X109.785 Y110.78 E.01868
G1 X110.218 Y110.347 E.0203
G1 X110.218 Y109.783 E.01868
G1 X109.785 Y110.217 E.0203
G1 X109.785 Y109.653 E.01868
G1 X110.218 Y109.22 E.0203
G1 X110.218 Y108.656 E.01868
G1 X109.785 Y109.089 E.0203
G1 X109.785 Y108.526 E.01868
G1 X110.218 Y108.093 E.0203
G1 X110.218 Y107.529 E.01868
G1 X109.785 Y107.962 E.0203
G1 X109.785 Y107.399 E.01868
G1 X110.218 Y106.965 E.0203
G1 X110.218 Y106.402 E.01868
G1 X109.785 Y106.835 E.0203
G1 X109.785 Y106.271 E.01868
G1 X110.218 Y105.838 E.0203
G1 X110.218 Y105.275 E.01868
G1 X109.785 Y105.708 E.0203
G1 X109.785 Y105.144 E.01868
G1 X110.218 Y104.711 E.0203
G1 X110.218 Y104.148 E.01868
G1 X109.785 Y104.581 E.0203
G1 X109.785 Y104.017 E.01868
G1 X110.218 Y103.584 E.0203
G1 X110.218 Y103.02 E.01868
G1 X109.785 Y103.454 E.0203
G1 X109.785 Y102.89 E.01868
G1 X110.218 Y102.457 E.0203
G1 X110.218 Y101.893 E.01868
G1 X109.785 Y102.326 E.0203
G1 X109.785 Y101.763 E.01868
G1 X110.218 Y101.33 E.0203
G1 X110.218 Y100.766 E.01868
G1 X109.785 Y101.199 E.0203
G1 X109.785 Y100.636 E.01868
G1 X110.218 Y100.202 E.0203
G1 X110.218 Y99.639 E.01868
G1 X109.785 Y100.072 E.0203
G1 X109.785 Y99.508 E.01868
G1 X110.218 Y99.075 E.0203
G1 X110.218 Y98.512 E.01868
G1 X109.785 Y98.945 E.0203
G1 X109.785 Y98.381 E.01868
G1 X110.218 Y97.948 E.0203
G1 X110.218 Y97.385 E.01868
G1 X109.785 Y97.818 E.0203
G1 X109.785 Y97.254 E.01868
G1 X110.218 Y96.821 E.0203
G1 X110.218 Y96.257 E.01868
G1 X109.785 Y96.691 E.0203
G1 X109.785 Y96.127 E.01868
G1 X110.218 Y95.694 E.0203
G1 X110.218 Y95.13 E.01868
G1 X109.785 Y95.563 E.0203
G1 X109.785 Y95 E.01868
G1 X110.218 Y94.567 E.0203
G1 X110.218 Y94.003 E.01868
G1 X109.785 Y94.436 E.0203
G1 X109.785 Y93.873 E.01868
G1 X110.218 Y93.439 E.0203
G1 X110.218 Y92.876 E.01868
G1 X109.785 Y93.309 E.0203
G1 X109.785 Y92.745 E.01868
G1 X110.218 Y92.312 E.0203
G1 X110.218 Y91.749 E.01868
G1 X109.785 Y92.182 E.0203
G1 X109.785 Y91.618 E.01868
G1 X110.218 Y91.185 E.0203
G1 X110.218 Y90.622 E.01868
G1 X109.785 Y91.055 E.0203
G1 X109.785 Y90.491 E.01868
G1 X110.218 Y90.058 E.0203
G1 X110.218 Y89.494 E.01868
G1 X109.785 Y89.927 E.0203
G1 X109.785 Y89.364 E.01868
G1 X110.218 Y88.931 E.0203
G1 X110.218 Y88.367 E.01868
G1 X109.785 Y88.8 E.0203
G1 X109.785 Y88.237 E.01868
G1 X110.218 Y87.804 E.0203
G1 X110.218 Y87.24 E.01868
G1 X109.785 Y87.673 E.0203
G1 X109.785 Y87.11 E.01868
G1 X110.218 Y86.676 E.0203
G1 X110.218 Y86.113 E.01868
G1 X109.785 Y86.546 E.0203
G1 X109.785 Y85.982 E.01868
G1 X110.218 Y85.549 E.0203
G1 X110.218 Y84.986 E.01868
G1 X109.785 Y85.419 E.0203
G1 X109.785 Y84.855 E.01868
G1 X110.218 Y84.422 E.0203
G1 X110.218 Y83.858 E.01868
G1 X109.785 Y84.292 E.0203
G1 X109.785 Y83.728 E.01868
G1 X110.218 Y83.295 E.0203
G1 X110.218 Y82.731 E.01868
G1 X109.785 Y83.164 E.0203
G1 X109.785 Y82.601 E.01868
G1 X110.218 Y82.168 E.0203
G1 X110.218 Y81.604 E.01868
G1 X109.785 Y82.037 E.0203
G1 X109.785 Y81.474 E.01868
G1 X110.218 Y81.041 E.0203
G1 X110.218 Y80.477 E.01868
G1 X109.785 Y80.91 E.0203
G1 X109.785 Y80.347 E.01868
G1 X110.218 Y79.913 E.0203
G1 X110.218 Y79.35 E.01868
G1 X109.785 Y79.783 E.0203
G1 X109.785 Y79.219 E.01868
G1 X110.218 Y78.786 E.0203
G1 X110.218 Y78.223 E.01868
G1 X109.785 Y78.656 E.0203
G1 X109.785 Y78.092 E.01868
G1 X110.218 Y77.659 E.0203
G1 X110.218 Y77.095 E.01868
G1 X109.785 Y77.529 E.0203
G1 X109.785 Y76.965 E.01868
G1 X110.218 Y76.532 E.0203
G1 X110.218 Y75.968 E.01868
G1 X109.785 Y76.401 E.0203
G1 X109.785 Y75.838 E.01868
G1 X110.218 Y75.405 E.0203
G1 X110.218 Y74.841 E.01868
G1 X109.785 Y75.274 E.0203
G1 X109.785 Y74.711 E.01868
G1 X110.218 Y74.278 E.0203
G1 X110.218 Y73.714 E.01868
G1 X109.785 Y74.147 E.0203
G1 X109.785 Y73.584 E.01868
G1 X110.218 Y73.15 E.0203
G1 X110.218 Y72.587 E.01868
G1 X109.785 Y73.02 E.0203
G1 X109.785 Y72.456 E.01868
G1 X110.218 Y72.023 E.0203
G1 X110.218 Y71.46 E.01868
G1 X109.785 Y71.893 E.0203
G1 X109.785 Y71.329 E.01868
G1 X110.218 Y70.896 E.0203
G1 X110.218 Y70.332 E.01868
G1 X109.785 Y70.766 E.0203
G1 X109.785 Y70.202 E.01868
G1 X110.218 Y69.769 E.0203
G1 X110.218 Y69.205 E.01868
G1 X109.785 Y69.638 E.0203
G1 X109.785 Y69.075 E.01868
G1 X110.218 Y68.642 E.0203
G1 X110.218 Y68.078 E.01868
G1 X109.785 Y68.511 E.0203
G1 X109.785 Y67.948 E.01868
G1 X110.218 Y67.515 E.0203
G1 X110.218 Y66.951 E.01868
G1 X109.785 Y67.384 E.0203
G1 X109.785 Y66.82 E.01868
G1 X110.218 Y66.387 E.0203
G1 X110.218 Y65.824 E.01868
G1 X109.785 Y66.257 E.0203
G1 X109.785 Y65.693 E.01868
G1 X110.218 Y65.26 E.0203
G1 X110.218 Y64.697 E.01868
G1 X109.785 Y65.13 E.0203
G1 X109.785 Y64.566 E.01868
G1 X110.218 Y64.133 E.0203
G1 X110.218 Y63.569 E.01868
G1 X109.785 Y64.003 E.0203
G1 X109.785 Y63.439 E.01868
G1 X110.218 Y63.006 E.0203
G1 X110.218 Y62.442 E.01868
G1 X109.785 Y62.875 E.0203
G1 X109.785 Y62.312 E.01868
G1 X110.218 Y61.879 E.0203
G1 X110.218 Y61.315 E.01868
G1 X109.606 Y61.927 E.02867
;LAYER_CHANGE
;Z:0.6
;HEIGHT:0.2
;BEFORE_LAYER_CHANGE
G92 E0
;0.6


;WIPE_START
G1 F7200
G1 X110.218 Y61.315 E-.2055
G1 X110.218 Y61.879 E-.13385
G1 X109.785 Y62.312 E-.14549
G1 X109.785 Y62.875 E-.13385
G1 X110.206 Y62.455 E-.14131
;WIPE_END
G1 E-.04 F1800
G1 Z.6 F9000
;AFTER_LAYER_CHANGE
;0.6
G1 X110.94 Y159.006
G1 E.8 F1800
;TYPE:Perimeter
;WIDTH:0.439999
G1 F2400
G1 X109.06 Y159.006 E.06208
G1 X109.06 Y60.994 E3.23608
G1 X110.94 Y60.994 E.06208
G1 X110.94 Y158.946 E3.2341
G1 X111.337 Y159.403 F9000
G1 F2400
G1 X108.662 Y159.403 E.0883
G1 X108.662 Y60.597 E3.2623
G1 X111.337 Y60.597 E.0883
G1 X111.337 Y159.343 E3.26032
G1 X111.718 Y159.79 F9000
;TYPE:External perimeter
;WIDTH:0.419999
G1 F1500
G1 X108.285 Y159.79 E.10764
M204 S250
;TYPE:Overhang perimeter
;WIDTH:0.389872
;HEIGHT:0.389872
G1 X108.285 Y60.21 E4.94242
M204 S500
;TYPE:External perimeter
;WIDTH:0.419999
;HEIGHT:0.2
G1 X111.718 Y60.21 E.10764
M204 S250
;TYPE:Overhang perimeter
;WIDTH:0.389872
;HEIGHT:0.389872
G1 X111.724 Y61.934 E.08558
G1 X111.724 Y159.736 E4.85416
M204 S500
;WIPE_START
G1 F7200
G1 X108.524 Y159.786 E-.76
;WIPE_END
G1 E-.04 F1800
G1 X110.009 Y61.121 F9000
G1 E.8 F1800
;TYPE:Solid infill
;WIDTH:0.44027
;HEIGHT:0.2
G1 F2400
G1 X110.634 Y61.746 E.02918
G1 X110.634 Y62.308 E.01857
G1 X109.626 Y61.3 E.04709
G1 X109.365 Y61.3 E.00862
G1 X109.365 Y61.601 E.00995
G1 X110.634 Y62.87 E.05928
G1 X110.634 Y63.432 E.01857
G1 X109.365 Y62.163 E.05928
G1 X109.365 Y62.725 E.01857
G1 X110.634 Y63.994 E.05928
G1 X110.634 Y64.555 E.01857
G1 X109.365 Y63.287 E.05928
G1 X109.365 Y63.849 E.01857
G1 X110.634 Y65.117 E.05928
G1 X110.634 Y65.679 E.01857
G1 X109.365 Y64.411 E.05928
G1 X109.365 Y64.973 E.01857
G1 X110.634 Y66.241 E.05928
G1 X110.634 Y66.803 E.01857
G1 X109.365 Y65.534 E.05928
G1 X109.365 Y66.096 E.01857
G1 X110.634 Y67.365 E.05928
G1 X110.634 Y67.927 E.01857
G1 X109.365 Y66.658 E.05928
G1 X109.365 Y67.22 E.01857
