; generated by PrusaSlicer 2.5.0-beta1+win64 on 2025-10-15 at 18:12:26 UTC

; 

; external perimeters extrusion width = 0.42mm
; perimeters extrusion width = 0.44mm
; infill extrusion width = 0.44mm
; solid infill extrusion width = 0.44mm
; top infill extrusion width = 0.40mm
; support material extrusion width = 0.36mm
; first layer extrusion width = 0.42mm

M201 X500 Y500 Z100 E5000 ; sets maximum accelerations, mm/sec^2
M203 X500 Y500 Z10 E60 ; sets maximum feedrates, mm / sec
M204 P500 R1000 T500 ; sets acceleration (P, T) and retract acceleration (R), mm/sec^2
M205 X8.00 Y8.00 Z0.40 E5.00 ; sets the jerk limits, mm/sec
M205 S0 T0 ; sets the minimum extruding and travel feed rate, mm/sec
M107
;TYPE:Custom
G90 ; use absolute coordinates
M83 ; extruder relative mode
M104 S150 ; set temporary nozzle temp to prevent oozing during homing
M140 S60 ; set final bed temp
G4 S30 ; allow partial nozzle warmup
G28 ; home all axis and restore leveling
G1 Z50 F240
G1 X2.0 Y10 F3000
M104 S210 ; set final nozzle temp
M190 S60 ; wait for bed temp to stabilize
M109 S210 ; wait for nozzle temp to stabilize
G1 Z0.28 F240
G92 E0
G1 X2.0 Y140 E10 F1500 ; prime the nozzle
G1 X2.3 Y140 F5000
G92 E0
G1 X2.3 Y10 E10 F1200 ; prime the nozzle
G92 E0
G21 ; set units to millimeters
G90 ; use absolute coordinates
M83 ; use relative distances for extrusion
; Filament gcode
M107
;LAYER_CHANGE
;Z:0.2
;HEIGHT:0.2
;BEFORE_LAYER_CHANGE
G92 E0
;0.2


G1 E-.8 F1800
G1 Z.2 F9000
;AFTER_LAYER_CHANGE
;0.2
G1 X43.79 Y43.088
G1 E.8 F1800
M204 S500
;TYPE:Skirt/Brim
;WIDTH:0.42
G1 F1200
G1 X45.069 Y42.074 E.05115
G1 X46.466 Y41.772 E.04483
G1 X64.217 Y41.772 E.55656
G1 X65.8 Y42.166 E.05115
G1 X66.504 Y42.664 E.02704
G1 X182.407 Y149.348 E4.93916
G1 X183.305 Y150.71 E.05115
G1 X183.497 Y151.832 E.03571
G1 X183.497 Y166.949 E.47397
G1 X183.103 Y168.532 E.05115
G1 X182.012 Y169.746 E.05115
G1 X181.021 Y170.203 E.03422
G1 X166.402 Y174.254 E.47566
G1 X165.478 Y174.377 E.02921
G1 X162.277 Y174.336 E.1004
G1 X157.478 Y174.12 E.1506
G1 X152.735 Y173.725 E.14925
G1 X147.967 Y173.145 E.1506
G1 X143.224 Y172.382 E.1506
G1 X138.515 Y171.439 E.1506
G1 X135.355 Y170.699 E.10176
G1 X130.716 Y169.455 E.1506
G1 X126.127 Y168.034 E.1506
G1 X121.637 Y166.454 E.14925
G1 X118.612 Y165.279 E.10175
G1 X114.232 Y163.416 E.14925
G1 X111.288 Y162.051 E.10175
G1 X107.035 Y159.911 E.14925
G1 X104.184 Y158.361 E.10175
G1 X100.077 Y155.955 E.14925
G1 X97.331 Y154.225 E.10176
G1 X93.386 Y151.562 E.14925
G1 X90.756 Y149.661 E.10175
G1 X86.988 Y146.751 E.14925
G1 X84.485 Y144.686 E.10176
G1 X80.911 Y141.542 E.14925
G1 X78.544 Y139.322 E.10176
G1 X75.178 Y135.956 E.14925
G1 X72.958 Y133.589 E.10175
G1 X69.786 Y129.982 E.1506
G1 X65.802 Y125.024 E.19944
G1 X62.963 Y121.149 E.1506
G1 X60.251 Y117.133 E.15195
G1 X57.719 Y113.051 E.1506
G1 X54.609 Y107.503 E.19944
G1 X52.431 Y103.174 E.15195
G1 X50.439 Y98.803 E.1506
G1 X48.061 Y92.903 E.19944
G1 X46.466 Y88.373 E.1506
G1 X45.045 Y83.785 E.1506
G1 X43.791 Y79.103 E.15195
G1 X42.727 Y74.419 E.1506
G1 X41.843 Y69.698 E.1506
G1 X41.139 Y64.925 E.1513
G1 X40.493 Y58.619 E.19874
G1 X40.216 Y53.824 E.1506
G1 X40.123 Y49.022 E.1506
G1 X40.824 Y46.939 E.06889
G1 X43.754 Y43.136 E.15053
;WIPE_START
G1 F7200
G1 X45.069 Y42.074 E-.40131
G1 X46.466 Y41.772 E-.33958
G1 X46.546 Y41.772 E-.01911
;WIPE_END
G1 E-.04 F1800
G1 X64.217 Y48.538 F9000
G1 E.8 F1800
;TYPE:Support material
G1 F1200
G1 X60.308 Y48.538 E.12256
G1 X60.037 Y48.811 E.01206
G1 X60.048 Y50.455 E.05154
G1 X60.128 Y53.357 E.09102
G1 X60.198 Y54.811 E.04566
G1 X60.398 Y57.71 E.09112
G1 X60.678 Y60.6 E.09103
G1 X60.848 Y62.046 E.04566
G1 X61.247 Y64.922 E.09102
G1 X61.562 Y66.851 E.06127
G1 X52.362 Y66.851 E.28846
G1 X51.942 Y63.95 E.09189
G1 X51.756 Y62.462 E.04701
G1 X51.586 Y60.938 E.04809
G1 X51.315 Y57.987 E.09293
G1 X51.119 Y54.994 E.09402
G1 X51.05 Y53.497 E.04701
G1 X50.972 Y50.499 E.09401
G1 X50.961 Y48.806 E.05308
G1 X50.69 Y48.538 E.01194
G1 X46.466 Y48.538 E.13246
G1 X46.466 Y45.149 E.10626
G1 X64.217 Y45.149 E.55656
G1 X64.217 Y48.481 E.10449
G1 X63.494 Y48.368 F9000
G1 F1200
G1 X63.494 Y45.488 E.0903
G1 X63.075 Y45.488 E.01314
G1 X63.075 Y48.199 E.08498
G1 X62.656 Y48.199 E.01314
G1 X62.656 Y45.488 E.08498
G1 X62.237 Y45.488 E.01314
G1 X62.237 Y48.199 E.08498
G1 X61.818 Y48.199 E.01314
G1 X61.818 Y45.488 E.08498
G1 X61.399 Y45.488 E.01314
G1 X61.399 Y48.199 E.08498
G1 X60.98 Y48.199 E.01314
G1 X60.98 Y45.488 E.08498
G1 X60.561 Y45.488 E.01314
G1 X60.561 Y48.199 E.08498
G1 X60.166 Y48.199 E.01236
G1 X60.142 Y48.224 E.0011
G1 X60.142 Y45.488 E.08576
G1 X59.723 Y45.488 E.01314
G1 X59.723 Y66.511 E.65916
G1 X60.142 Y66.511 E.01314
G1 X60.142 Y58.648 E.24656
G1 X60.34 Y60.636 E.06267
G1 X60.561 Y62.464 E.05771
G1 X60.561 Y66.511 E.12691
G1 X60.98 Y66.511 E.01314
G1 X60.98 Y64.265 E.07042
G1 X59.304 Y66.681 F9000
G1 F1200
G1 X59.304 Y45.488 E.66448
G1 X58.885 Y45.488 E.01314
G1 X58.885 Y66.511 E.65916
G1 X58.466 Y66.511 E.01314
G1 X58.466 Y45.488 E.65916
G1 X58.047 Y45.488 E.01314
G1 X58.047 Y66.511 E.65916
G1 X57.628 Y66.511 E.01314
G1 X57.628 Y45.488 E.65916
G1 X57.209 Y45.488 E.01314
G1 X57.209 Y66.511 E.65916
G1 X56.79 Y66.511 E.01314
G1 X56.79 Y45.488 E.65916
G1 X56.371 Y45.488 E.01314
G1 X56.371 Y66.511 E.65916
G1 X55.952 Y66.511 E.01314
G1 X55.952 Y45.488 E.65916
G1 X55.533 Y45.488 E.01314
G1 X55.533 Y66.511 E.65916
G1 X55.114 Y66.511 E.01314
G1 X55.114 Y45.488 E.65916
G1 X54.695 Y45.488 E.01314
G1 X54.695 Y66.511 E.65916
G1 X54.276 Y66.511 E.01314
G1 X54.276 Y45.488 E.65916
G1 X53.857 Y45.488 E.01314
G1 X53.857 Y66.511 E.65916
G1 X53.438 Y66.511 E.01314
G1 X53.438 Y45.488 E.65916
G1 X53.019 Y45.488 E.01314
G1 X53.019 Y66.511 E.65916
G1 X52.654 Y66.511 E.01146
G1 X52.6 Y66.158 E.01121
G1 X52.6 Y45.488 E.64808
G1 X52.181 Y45.488 E.01314
G1 X52.181 Y63.128 E.55309
G1 X51.927 Y60.937 E.06917
G1 X51.762 Y59.235 E.05361
G1 X51.762 Y45.488 E.43103
G1 X51.343 Y45.488 E.01314
G1 X51.343 Y52.072 E.20643
G1 X51.299 Y48.664 E.10686
G1 X50.924 Y48.292 E.01657
G1 X50.924 Y45.488 E.08791
G1 X50.505 Y45.488 E.01314
G1 X50.505 Y48.199 E.08498
G1 X50.086 Y48.199 E.01314
G1 X50.086 Y45.488 E.08498
G1 X49.667 Y45.488 E.01314
G1 X49.667 Y48.199 E.08498
G1 X49.248 Y48.199 E.01314
G1 X49.248 Y45.488 E.08498
G1 X48.829 Y45.488 E.01314
G1 X48.829 Y48.199 E.08498
G1 X48.41 Y48.199 E.01314
G1 X48.41 Y45.488 E.08498
G1 X47.991 Y45.488 E.01314
G1 X47.991 Y48.199 E.08498
G1 X47.572 Y48.199 E.01314
G1 X47.572 Y45.488 E.08498
G1 X47.153 Y45.488 E.01314
G1 X47.153 Y48.368 E.0903
;WIPE_START
G1 F7200
G1 X47.153 Y45.488 E-.68403
G1 X47.473 Y45.488 E-.07597
;WIPE_END
G1 E-.04 F1800
G1 X169.583 Y151.832 F9000
G1 E.8 F1800
G1 F1200
G1 X180.12 Y151.832 E.33037
G1 X180.12 Y166.949 E.47397
G1 X170.271 Y166.949 E.30878
G1 X170.271 Y165.632 E.0413
G1 X169.583 Y165.632 E.02159
G1 X169.583 Y166.949 E.0413
G1 X165.962 Y166.949 E.11353
G1 X165.962 Y163.81 E.09843
G1 X165.694 Y163.539 E.01194
G1 X162.502 Y163.499 E.10008
G1 X159.735 Y163.392 E.08682
G1 X159.735 Y154.304 E.28493
G1 X162.596 Y154.422 E.08978
G1 X165.689 Y154.463 E.097
G1 X165.962 Y154.192 E.01206
G1 X165.962 Y150.515 E.11529
G1 X169.583 Y150.515 E.11353
G1 X169.583 Y151.776 E.03952
G1 X179.55 Y166.779 F9000
G1 F1200
G1 X179.55 Y152.172 E.458
G1 X179.131 Y152.172 E.01314
G1 X179.131 Y166.609 E.45268
G1 X178.712 Y166.609 E.01314
G1 X178.712 Y152.172 E.45268
G1 X178.293 Y152.172 E.01314
G1 X178.293 Y166.609 E.45268
G1 X177.874 Y166.609 E.01314
G1 X177.874 Y152.172 E.45268
G1 X177.455 Y152.172 E.01314
G1 X177.455 Y166.609 E.45268
G1 X177.036 Y166.609 E.01314
G1 X177.036 Y152.172 E.45268
G1 X176.617 Y152.172 E.01314
G1 X176.617 Y166.609 E.45268
G1 X176.198 Y166.609 E.01314
G1 X176.198 Y152.172 E.45268
G1 X175.779 Y152.172 E.01314
G1 X175.779 Y166.609 E.45268
G1 X175.36 Y166.609 E.01314
G1 X175.36 Y152.172 E.45268
G1 X174.941 Y152.172 E.01314
G1 X174.941 Y166.609 E.45268
G1 X174.522 Y166.609 E.01314
G1 X174.522 Y152.172 E.45268
G1 X174.103 Y152.172 E.01314
G1 X174.103 Y166.609 E.45268
G1 X173.684 Y166.609 E.01314
G1 X173.685 Y152.172 E.45268
G1 X173.266 Y152.172 E.01314
G1 X173.266 Y166.609 E.45268
G1 X172.847 Y166.609 E.01314
G1 X172.847 Y152.172 E.45268
G1 X172.428 Y152.172 E.01314
G1 X172.428 Y166.609 E.45268
G1 X172.009 Y166.609 E.01314
G1 X172.009 Y152.172 E.45268
G1 X171.59 Y152.172 E.01314
G1 X171.59 Y166.609 E.45268
G1 X171.171 Y166.609 E.01314
G1 X171.171 Y152.172 E.45268
G1 X170.752 Y152.172 E.01314
G1 X170.752 Y166.609 E.45268
G1 X170.611 Y166.609 E.00442
G1 X170.611 Y165.292 E.0413
G1 X170.333 Y165.292 E.00872
G1 X170.333 Y152.172 E.41139
G1 X169.914 Y152.172 E.01314
G1 X169.914 Y165.292 E.41139
G1 X169.495 Y165.292 E.01314
G1 X169.495 Y152.172 E.41139
G1 X169.244 Y152.172 E.00788
G1 X169.244 Y150.855 E.0413
G1 X169.076 Y150.855 E.00526
G1 X169.076 Y166.609 E.49398
G1 X168.657 Y166.609 E.01314
G1 X168.657 Y150.855 E.49398
G1 X168.238 Y150.855 E.01314
G1 X168.238 Y166.609 E.49398
G1 X167.819 Y166.609 E.01314
G1 X167.819 Y150.855 E.49398
G1 X167.4 Y150.855 E.01314
G1 X167.4 Y166.609 E.49398
G1 X166.981 Y166.609 E.01314
G1 X166.981 Y150.855 E.49398
G1 X166.562 Y150.855 E.01314
G1 X166.562 Y166.609 E.49398
G1 X166.301 Y166.609 E.00817
G1 X166.301 Y163.67 E.09217
G1 X166.143 Y163.51 E.00705
G1 X166.143 Y154.491 E.28279
G1 X165.828 Y154.804 E.01391
G1 X165.724 Y154.803 E.00326
G1 X165.724 Y163.2 E.26329
G1 X165.305 Y163.197 E.01314
G1 X165.305 Y154.8 E.26329
G1 X164.886 Y154.797 E.01314
G1 X164.886 Y163.195 E.2633
G1 X164.467 Y163.192 E.01314
G1 X164.467 Y154.794 E.2633
G1 X164.048 Y154.791 E.01314
G1 X164.048 Y163.189 E.2633
G1 X163.629 Y163.181 E.01314
G1 X163.629 Y154.783 E.26333
G1 X163.21 Y154.774 E.01314
G1 X163.21 Y163.173 E.26335
G1 X162.791 Y163.165 E.01314
G1 X162.791 Y154.765 E.26336
G1 X162.372 Y154.754 E.01314
G1 X162.372 Y163.155 E.26341
G1 X161.953 Y163.141 E.01314
G1 X161.953 Y154.739 E.26343
G1 X161.534 Y154.725 E.01314
G1 X161.534 Y163.128 E.26345
G1 X161.115 Y163.114 E.01314
G1 X161.115 Y154.71 E.26348
G1 X160.696 Y154.69 E.01315
G1 X160.696 Y163.096 E.26355
G1 X160.277 Y163.077 E.01315
G1 X160.277 Y154.5 E.26891
;WIPE_START
G1 F7200
G1 X160.277 Y157.7 E-.76
;WIPE_END
G1 E-.04 F1800
G1 X164.436 Y165.051 F9000
G1 E.8 F1800
;TYPE:Perimeter
;WIDTH:0.419999
G1 F1200
G1 X164.436 Y169.923 E.15275
G1 X162.412 Y169.896 E.06348
G1 X159.325 Y169.778 E.09685
G1 X156.242 Y169.581 E.09685
G1 X153.166 Y169.305 E.09685
G1 X150.098 Y168.951 E.09685
G1 X147.039 Y168.518 E.09685
G1 X143.993 Y168.008 E.09685
G1 X140.961 Y167.42 E.09684
G1 X137.944 Y166.755 E.09685
G1 X134.946 Y166.012 E.09684
G1 X131.968 Y165.194 E.09685
G1 X129.011 Y164.3 E.09685
G1 X126.078 Y163.33 E.09685
G1 X123.172 Y162.286 E.09684
G1 X120.292 Y161.168 E.09685
G1 X117.442 Y159.977 E.09685
G1 X114.624 Y158.714 E.09684
G1 X111.838 Y157.378 E.09685
G1 X109.085 Y155.971 E.09694
G1 X107.729 Y155.245 E.04823
G1 X105.032 Y153.733 E.09694
G1 X102.377 Y152.155 E.09685
G1 X99.763 Y150.509 E.09685
G1 X97.192 Y148.797 E.09684
G1 X94.666 Y147.02 E.09685
G1 X92.186 Y145.179 E.09685
G1 X89.753 Y143.276 E.09685
G1 X87.37 Y141.31 E.09685
G1 X85.038 Y139.285 E.09685
G1 X82.759 Y137.201 E.09684
G1 X80.533 Y135.059 E.09685
G1 X78.363 Y132.861 E.09684
G1 X76.25 Y130.608 E.09685
G1 X74.193 Y128.3 E.09694
G1 X73.192 Y127.132 E.04823
G1 X71.224 Y124.747 E.09694
G1 X69.321 Y122.314 E.09685
G1 X67.48 Y119.834 E.09685
G1 X65.703 Y117.308 E.09685
G1 X63.991 Y114.737 E.09685
G1 X62.345 Y112.123 E.09685
G1 X60.767 Y109.468 E.09685
G1 X59.255 Y106.771 E.09694
G1 X58.529 Y105.415 E.04823
G1 X57.122 Y102.662 E.09694
G1 X55.786 Y99.876 E.09685
G1 X54.523 Y97.058 E.09684
G1 X53.332 Y94.208 E.09685
G1 X52.214 Y91.329 E.09685
G1 X51.169 Y88.419 E.09694
G1 X50.201 Y85.492 E.09665
G1 X49.306 Y82.532 E.09696
G1 X48.587 Y79.925 E.08479
G1 X48.107 Y78.059 E.06041
G1 X47.402 Y75.047 E.097
G1 X47.081 Y73.542 E.04824
G1 X46.491 Y70.504 E.09703
G1 X45.982 Y67.464 E.09666
G1 X45.549 Y64.402 E.09694
G1 X45.194 Y61.331 E.09694
G1 X45.047 Y59.8 E.04823
G1 X44.81 Y56.714 E.09704
G1 X44.722 Y55.178 E.04823
G1 X44.604 Y52.088 E.09695
G1 X44.577 Y50.064 E.06348
G1 X49.444 Y50.064 E.15257
G1 X49.476 Y52.051 E.06229
G1 X49.595 Y55.079 E.09503
G1 X49.795 Y58.119 E.0955
G1 X50.073 Y61.142 E.09518
G1 X50.43 Y64.158 E.09525
G1 X50.867 Y67.169 E.09537
G1 X51.38 Y70.157 E.09507
G1 X51.665 Y71.637 E.04725
G1 X52.299 Y74.622 E.09568
G1 X53.01 Y77.582 E.09544
G1 X53.795 Y80.51 E.09507
G1 X54.217 Y81.969 E.04762
G1 X55.12 Y84.877 E.09548
G1 X56.082 Y87.711 E.09381
G1 X56.614 Y89.183 E.0491
G1 X57.703 Y92.02 E.09527
G1 X58.866 Y94.827 E.09527
G1 X60.092 Y97.58 E.09449
G1 X60.748 Y98.978 E.04841
G1 X62.08 Y101.681 E.09449
G1 X62.79 Y103.052 E.04841
G1 X64.241 Y105.722 E.09527
G1 X65.747 Y108.332 E.0945
G1 X67.335 Y110.923 E.09527
G1 X68.989 Y113.471 E.09527
G1 X70.724 Y115.996 E.09604
G1 X72.496 Y118.434 E.09449
G1 X74.345 Y120.845 E.09527
G1 X76.257 Y123.206 E.09527
G1 X77.883 Y125.111 E.07852
G1 X80.276 Y127.789 E.11259
G1 X81.306 Y128.889 E.04725
G1 X83.422 Y131.061 E.09507
G1 X84.516 Y132.141 E.04821
G1 X86.719 Y134.232 E.09525
G1 X88.977 Y136.265 E.09525
G1 X90.132 Y137.264 E.04789
G1 X92.468 Y139.207 E.09527
G1 X94.849 Y141.084 E.09507
G1 X97.306 Y142.917 E.0961
G1 X99.751 Y144.645 E.09387
G1 X102.277 Y146.333 E.09526
G1 X104.846 Y147.954 E.09527
G1 X107.457 Y149.508 E.09526
G1 X108.799 Y150.272 E.04842
G1 X111.464 Y151.718 E.09507
G1 X112.819 Y152.42 E.04784
G1 X115.522 Y153.752 E.09449
G1 X116.683 Y154.297 E.04022
G1 X119.327 Y155.482 E.09083
G1 X121.09 Y156.232 E.06006
G1 X122.5 Y156.805 E.04772
G1 X125.336 Y157.893 E.09525
G1 X128.198 Y158.907 E.09521
G1 X129.643 Y159.386 E.04773
G1 X131.548 Y159.985 E.06261
G1 X134.001 Y160.708 E.0802
G1 X135.472 Y161.112 E.04783
G1 X138.417 Y161.86 E.09527
G1 X141.381 Y162.53 E.09527
G1 X144.337 Y163.118 E.09449
G1 X147.331 Y163.633 E.09527
G1 X150.338 Y164.07 E.09526
G1 X151.87 Y164.261 E.04842
G1 X154.892 Y164.578 E.09526
G1 X157.921 Y164.816 E.09527
G1 X160.944 Y164.975 E.09491
G1 X162.474 Y165.025 E.04799
G1 X164.376 Y165.05 E.05964
G1 X164.813 Y164.679 F9000
G1 F1200
G1 X164.813 Y170.305 E.1764
G1 X162.402 Y170.273 E.0756
G1 X159.306 Y170.155 E.09715
G1 X156.214 Y169.957 E.09715
G1 X153.128 Y169.68 E.09715
G1 X150.05 Y169.325 E.09715
G1 X146.982 Y168.891 E.09715
G1 X143.926 Y168.379 E.09715
G1 X140.884 Y167.789 E.09714
G1 X137.858 Y167.122 E.09715
G1 X134.851 Y166.377 E.09715
G1 X131.863 Y165.556 E.09715
G1 X128.897 Y164.659 E.09715
G1 X125.956 Y163.687 E.09715
G1 X123.04 Y162.639 E.09715
G1 X120.151 Y161.518 E.09715
G1 X117.292 Y160.323 E.09715
G1 X114.465 Y159.056 E.09715
G1 X111.671 Y157.716 E.09715
G1 X108.91 Y156.305 E.09721
G1 X107.548 Y155.576 E.04846
G1 X104.844 Y154.06 E.09721
G1 X102.18 Y152.477 E.09715
G1 X99.558 Y150.826 E.09715
G1 X96.979 Y149.109 E.09715
G1 X94.445 Y147.326 E.09715
G1 X91.957 Y145.479 E.09715
G1 X89.517 Y143.57 E.09715
G1 X87.127 Y141.598 E.09715
G1 X84.787 Y139.566 E.09715
G1 X82.501 Y137.476 E.09714
G1 X80.268 Y135.327 E.09715
G1 X78.092 Y133.122 E.09715
G1 X75.972 Y130.863 E.09715
G1 X73.909 Y128.548 E.0972
G1 X72.903 Y127.375 E.04846
G1 X70.93 Y124.983 E.0972
G1 X69.021 Y122.543 E.09715
G1 X67.174 Y120.055 E.09715
G1 X65.391 Y117.521 E.09715
G1 X63.674 Y114.942 E.09715
G1 X62.023 Y112.32 E.09715
G1 X60.44 Y109.656 E.09715
G1 X58.924 Y106.952 E.09721
G1 X58.195 Y105.59 E.04846
G1 X56.784 Y102.829 E.09721
G1 X55.444 Y100.035 E.09715
G1 X54.177 Y97.208 E.09715
G1 X52.982 Y94.349 E.09715
G1 X51.861 Y91.46 E.09715
G1 X50.813 Y88.543 E.09721
G1 X49.841 Y85.604 E.09703
G1 X48.944 Y82.637 E.09722
G1 X48.223 Y80.022 E.08504
G1 X47.741 Y78.149 E.06064
G1 X47.034 Y75.129 E.09724
G1 X46.711 Y73.618 E.04846
G1 X46.121 Y70.573 E.09726
G1 X45.609 Y67.52 E.09703
G1 X45.175 Y64.45 E.09721
G1 X44.819 Y61.371 E.09721
G1 X44.672 Y59.832 E.04846
G1 X44.434 Y56.739 E.09726
G1 X44.345 Y55.196 E.04846
G1 X44.227 Y52.098 E.09721
G1 X44.195 Y49.687 E.0756
G1 X49.817 Y49.687 E.17627
G1 X49.853 Y52.036 E.07365
G1 X49.972 Y55.058 E.09482
G1 X50.169 Y58.069 E.09463
