; generated by PrusaSlicer 2.5.0-beta1+win64 on 2025-10-10 at 11:48:01 UTC

; 

; external perimeters extrusion width = 0.42mm
; perimeters extrusion width = 0.44mm
; infill extrusion width = 0.44mm
; solid infill extrusion width = 0.44mm
; top infill extrusion width = 0.40mm
; support material extrusion width = 0.36mm
; first layer extrusion width = 0.42mm

M201 X500 Y500 Z100 E5000 ; sets maximum accelerations, mm/sec^2
M203 X500 Y500 Z10 E60 ; sets maximum feedrates, mm / sec
M204 P500 R1000 T500 ; sets acceleration (P, T) and retract acceleration (R), mm/sec^2
M205 X8.00 Y8.00 Z0.40 E5.00 ; sets the jerk limits, mm/sec
M205 S0 T0 ; sets the minimum extruding and travel feed rate, mm/sec
M107
;TYPE:Custom
G90 ; use absolute coordinates
M83 ; extruder relative mode
M104 S150 ; set temporary nozzle temp to prevent oozing during homing
M140 S60 ; set final bed temp
G4 S30 ; allow partial nozzle warmup
G28 ; home all axis and restore leveling
G1 Z50 F240
G1 X2.0 Y10 F3000
M104 S210 ; set final nozzle temp
M190 S60 ; wait for bed temp to stabilize
M109 S210 ; wait for nozzle temp to stabilize
G1 Z0.28 F240
G92 E0
G1 X2.0 Y140 E10 F1500 ; prime the nozzle
G1 X2.3 Y140 F5000
G92 E0
G1 X2.3 Y10 E10 F1200 ; prime the nozzle
G92 E0
G21 ; set units to millimeters
G90 ; use absolute coordinates
M83 ; use relative distances for extrusion
; Filament gcode
M107
;LAYER_CHANGE
;Z:0.2
;HEIGHT:0.2
;BEFORE_LAYER_CHANGE
G92 E0
;0.2


G1 E-.8 F1800
G1 Z.2 F9000
;AFTER_LAYER_CHANGE
;0.2
G1 X88.996 Y74.401
G1 E.8 F1800
M204 S500
;TYPE:Skirt/Brim
;WIDTH:0.42
G1 F1200
G1 X92.759 Y70.472 E.17058
G1 X94.138 Y69.601 E.05115
G1 X95.198 Y69.43 E.03365
G1 X111.631 Y69.43 E.51526
G1 X113.215 Y69.824 E.05115
G1 X114.058 Y70.459 E.03308
G1 X117.862 Y74.388 E.17147
G1 X118.696 Y75.859 E.05304
G1 X134.649 Y135.15 E1.92512
G1 X134.765 Y136.027 E.02775
G1 X134.765 Y143.241 E.22619
G1 X134.371 Y144.824 E.05115
G1 X133.125 Y146.137 E.05674
G1 X126.54 Y150.088 E.2408
G1 X124.802 Y150.57 E.05653
G1 X116.271 Y150.57 E.26749
G1 X114.688 Y150.176 E.05115
G1 X113.758 Y149.449 E.03699
G1 X105.267 Y139.993 E.39847
G1 X104.845 Y139.407 E.02266
G1 X101.806 Y133.819 E.19944
G1 X99.037 Y128.044 E.20079
G1 X97.115 Y123.523 E.15404
G1 X94.899 Y117.586 E.1987
G1 X92.98 Y111.521 E.19944
G1 X91.726 Y106.84 E.15195
G1 X90.347 Y100.586 E.20079
G1 X89.296 Y94.313 E.19944
G1 X88.876 Y91.028 E.10384
G1 X88.424 Y86.313 E.1485
G1 X88.149 Y81.518 E.1506
G1 X88.058 Y76.758 E.14925
G1 X88.442 Y75.173 E.05115
G1 X88.961 Y74.45 E.0279
;WIPE_START
G1 F7200
G1 X91.171 Y72.135 E-.76
;WIPE_END
G1 E-.04 F1800
G1 X111.631 Y76.275 F9000
G1 E.8 F1800
;TYPE:Support material
G1 F1200
G1 X108.243 Y76.275 E.10624
G1 X107.972 Y76.548 E.01206
G1 X107.983 Y78.192 E.05154
G1 X108.063 Y81.094 E.09102
G1 X108.133 Y82.548 E.04566
G1 X108.334 Y85.447 E.09112
G1 X108.613 Y88.337 E.09103
G1 X108.783 Y89.783 E.04566
G1 X109.182 Y92.659 E.09102
G1 X109.484 Y94.509 E.05879
G1 X100.285 Y94.509 E.2884
G1 X99.877 Y91.687 E.08941
G1 X99.691 Y90.199 E.04701
G1 X99.521 Y88.675 E.04809
G1 X99.25 Y85.723 E.09293
G1 X99.054 Y82.731 E.09401
G1 X98.986 Y81.234 E.04701
G1 X98.907 Y78.236 E.09401
G1 X98.896 Y76.543 E.05308
G1 X98.626 Y76.275 E.01194
G1 X95.198 Y76.275 E.10748
G1 X95.198 Y72.807 E.10872
G1 X111.631 Y72.807 E.51526
G1 X111.631 Y76.218 E.10694
G1 X111.257 Y76.105 F9000
G1 F1200
G1 X111.257 Y73.147 E.09276
G1 X110.838 Y73.147 E.01314
G1 X110.838 Y75.935 E.08744
G1 X110.419 Y75.935 E.01314
G1 X110.419 Y73.147 E.08744
G1 X110 Y73.147 E.01314
G1 X110 Y75.935 E.08744
G1 X109.581 Y75.935 E.01314
G1 X109.581 Y73.147 E.08744
G1 X109.162 Y73.147 E.01314
G1 X109.162 Y75.935 E.08744
G1 X108.743 Y75.935 E.01314
G1 X108.743 Y73.147 E.08744
G1 X108.324 Y73.147 E.01314
G1 X108.324 Y75.935 E.08744
G1 X108.102 Y75.935 E.00697
G1 X107.905 Y76.133 E.00875
G1 X107.905 Y73.147 E.09364
G1 X107.486 Y73.147 E.01314
G1 X107.486 Y94.17 E.65916
G1 X107.905 Y94.17 E.01314
G1 X107.905 Y84.287 E.30987
G1 X108.125 Y86.923 E.08294
G1 X108.324 Y88.785 E.0587
G1 X108.324 Y94.17 E.16885
G1 X108.743 Y94.17 E.01314
G1 X108.743 Y90.778 E.10637
G1 X107.067 Y94.34 F9000
G1 F1200
G1 X107.067 Y73.147 E.66449
G1 X106.648 Y73.147 E.01314
G1 X106.648 Y94.17 E.65916
G1 X106.229 Y94.17 E.01314
G1 X106.229 Y73.147 E.65916
G1 X105.81 Y73.147 E.01314
G1 X105.81 Y94.17 E.65916
G1 X105.391 Y94.17 E.01314
G1 X105.391 Y73.147 E.65916
G1 X104.972 Y73.147 E.01314
G1 X104.972 Y94.17 E.65916
G1 X104.553 Y94.17 E.01314
G1 X104.553 Y73.147 E.65916
G1 X104.134 Y73.147 E.01314
G1 X104.134 Y94.17 E.65916
G1 X103.715 Y94.17 E.01314
G1 X103.715 Y73.147 E.65916
G1 X103.296 Y73.147 E.01314
G1 X103.296 Y94.17 E.65916
G1 X102.877 Y94.17 E.01314
G1 X102.877 Y73.147 E.65916
G1 X102.458 Y73.147 E.01314
G1 X102.458 Y94.17 E.65916
G1 X102.039 Y94.17 E.01314
G1 X102.039 Y73.147 E.65916
G1 X101.62 Y73.147 E.01314
G1 X101.62 Y94.17 E.65916
G1 X101.201 Y94.17 E.01314
G1 X101.201 Y73.147 E.65916
G1 X100.783 Y73.147 E.01314
G1 X100.783 Y94.17 E.65916
G1 X100.577 Y94.17 E.00644
G1 X100.364 Y92.727 E.04575
G1 X100.364 Y73.147 E.61391
G1 X99.945 Y73.147 E.01314
G1 X99.945 Y89.411 E.50994
G1 X99.716 Y87.186 E.07012
G1 X99.526 Y84.822 E.07437
G1 X99.526 Y73.147 E.36606
G1 X99.107 Y73.147 E.01314
G1 X99.107 Y76.274 E.09806
G1 X98.766 Y75.935 E.01507
G1 X98.688 Y75.935 E.00245
G1 X98.688 Y73.147 E.08744
G1 X98.269 Y73.147 E.01314
G1 X98.269 Y75.935 E.08744
G1 X97.85 Y75.935 E.01314
G1 X97.85 Y73.147 E.08744
G1 X97.431 Y73.147 E.01314
G1 X97.431 Y75.935 E.08744
G1 X97.012 Y75.935 E.01314
G1 X97.012 Y73.147 E.08744
G1 X96.593 Y73.147 E.01314
G1 X96.593 Y75.935 E.08744
G1 X96.174 Y75.935 E.01314
G1 X96.174 Y73.147 E.08744
G1 X95.755 Y73.147 E.01314
G1 X95.755 Y76.105 E.09276
;WIPE_START
G1 F7200
G1 X95.755 Y73.147 E-.7026
G1 X95.996 Y73.147 E-.0574
;WIPE_END
G1 E-.04 F1800
G1 X119.319 Y124.321 F9000
G1 E.8 F1800
G1 F1200
G1 X120.685 Y126.933 E.09241
G1 X122.196 Y129.632 E.097
G1 X122.567 Y129.733 E.01206
G1 X126.119 Y127.682 E.12861
G1 X126.119 Y130.759 E.09647
G1 X127.436 Y130.759 E.0413
G1 X127.436 Y132.076 E.0413
G1 X128.753 Y132.076 E.0413
G1 X128.753 Y133.393 E.0413
G1 X130.07 Y133.393 E.0413
G1 X130.07 Y136.027 E.08259
G1 X131.388 Y136.027 E.0413
G1 X131.388 Y143.241 E.22619
G1 X128.753 Y143.241 E.08259
G1 X128.753 Y144.558 E.0413
G1 X126.119 Y144.558 E.08259
G1 X126.119 Y145.875 E.0413
G1 X124.802 Y145.875 E.0413
G1 X124.802 Y147.193 E.0413
G1 X116.271 Y147.193 E.26749
G1 X116.271 Y144.558 E.08259
G1 X114.954 Y144.558 E.0413
G1 X114.954 Y140.607 E.12389
G1 X113.637 Y140.607 E.0413
G1 X113.637 Y137.973 E.08259
G1 X110.567 Y137.973 E.09627
G1 X110.262 Y136.837 E.03687
G1 X114.238 Y134.542 E.14395
G1 X114.338 Y134.174 E.01194
G1 X112.777 Y131.39 E.10008
G1 X112.071 Y130.067 E.04701
G1 X111.003 Y127.981 E.07348
G1 X111.003 Y126.808 E.0368
G1 X113.637 Y126.808 E.08259
G1 X113.637 Y125.491 E.0413
G1 X114.954 Y125.491 E.0413
G1 X114.954 Y124.174 E.0413
G1 X119.245 Y124.174 E.13455
G1 X119.294 Y124.271 E.0034
;WIPE_START
G1 F7200
G1 X119.245 Y124.174 E-.02573
G1 X116.154 Y124.174 E-.73427
;WIPE_END
G1 E-.04 F1800
G1 X130.949 Y143.072 F9000
G1 E.8 F1800
G1 F1200
G1 X130.949 Y136.367 E.21023
G1 X130.53 Y136.367 E.01314
G1 X130.53 Y142.902 E.20491
G1 X130.111 Y142.902 E.01314
G1 X130.111 Y136.367 E.20491
G1 X129.731 Y136.367 E.01191
G1 X129.731 Y133.733 E.08259
G1 X129.692 Y133.733 E.00123
G1 X129.692 Y142.902 E.2875
G1 X129.273 Y142.902 E.01314
G1 X129.273 Y133.733 E.2875
G1 X128.854 Y133.733 E.01314
G1 X128.854 Y142.902 E.2875
G1 X128.435 Y142.902 E.01314
G1 X128.435 Y133.733 E.2875
G1 X128.414 Y133.733 E.00066
G1 X128.414 Y132.415 E.0413
G1 X128.016 Y132.415 E.01248
G1 X128.016 Y144.219 E.37009
G1 X127.597 Y144.219 E.01314
G1 X127.597 Y132.415 E.37009
G1 X127.178 Y132.415 E.01314
G1 X127.178 Y144.219 E.37009
G1 X126.759 Y144.219 E.01314
G1 X126.759 Y131.098 E.41139
G1 X126.34 Y131.098 E.01314
G1 X126.34 Y144.219 E.41139
G1 X125.921 Y144.219 E.01314
G1 X125.921 Y131.098 E.41139
G1 X125.78 Y131.098 E.00443
G1 X125.78 Y128.27 E.08868
G1 X125.502 Y128.43 E.01006
G1 X125.502 Y145.536 E.53634
G1 X125.083 Y145.536 E.01314
G1 X125.083 Y128.672 E.52875
G1 X124.664 Y128.914 E.01517
G1 X124.664 Y145.536 E.52117
G1 X124.463 Y145.536 E.00631
G1 X124.463 Y146.853 E.0413
G1 X124.245 Y146.853 E.00682
G1 X124.245 Y129.156 E.55488
G1 X123.826 Y129.398 E.01517
G1 X123.826 Y146.853 E.54729
G1 X123.407 Y146.853 E.01314
G1 X123.407 Y129.64 E.53971
G1 X122.988 Y129.882 E.01517
G1 X122.988 Y146.853 E.53213
G1 X122.569 Y146.853 E.01314
G1 X122.569 Y130.085 E.52574
G1 X122.15 Y129.972 E.01361
G1 X122.15 Y146.853 E.52931
G1 X121.731 Y146.853 E.01314
G1 X121.731 Y129.502 E.54404
G1 X121.312 Y128.764 E.02659
G1 X121.312 Y146.853 E.56716
G1 X120.893 Y146.853 E.01314
G1 X120.893 Y128.016 E.59064
G1 X120.474 Y127.254 E.02726
G1 X120.474 Y146.853 E.61452
G1 X120.055 Y146.853 E.01314
G1 X120.055 Y126.472 E.63903
G1 X119.636 Y125.681 E.02807
G1 X119.636 Y146.853 E.66384
G1 X119.217 Y146.853 E.01314
G1 X119.217 Y124.867 E.68936
G1 X119.035 Y124.513 E.01249
G1 X118.799 Y124.513 E.00742
G1 X118.799 Y146.853 E.70046
G1 X118.38 Y146.853 E.01314
G1 X118.38 Y124.513 E.70046
G1 X117.961 Y124.513 E.01314
G1 X117.961 Y146.853 E.70046
G1 X117.542 Y146.853 E.01314
G1 X117.542 Y124.513 E.70046
G1 X117.123 Y124.513 E.01314
G1 X117.123 Y146.853 E.70046
G1 X116.704 Y146.853 E.01314
G1 X116.704 Y124.513 E.70046
G1 X116.285 Y124.513 E.01314
G1 X116.285 Y144.219 E.61787
G1 X115.866 Y144.219 E.01314
G1 X115.866 Y124.513 E.61787
G1 X115.447 Y124.513 E.01314
G1 X115.447 Y144.219 E.61787
G1 X115.293 Y144.219 E.00481
G1 X115.293 Y140.268 E.12389
G1 X115.028 Y140.268 E.00833
G1 X115.028 Y125.83 E.45268
G1 X114.609 Y125.83 E.01314
G1 X114.609 Y140.268 E.45268
G1 X114.19 Y140.268 E.01314
G1 X114.19 Y134.962 E.16637
G1 X113.771 Y135.204 E.01517
G1 X113.771 Y137.634 E.07619
G1 X113.352 Y137.634 E.01314
G1 X113.352 Y135.445 E.06861
G1 X112.933 Y135.687 E.01517
G1 X112.933 Y137.634 E.06103
G1 X112.514 Y137.634 E.01314
G1 X112.514 Y135.929 E.05344
G1 X112.095 Y136.171 E.01517
G1 X112.095 Y137.634 E.04586
G1 X111.676 Y137.634 E.01314
G1 X111.676 Y136.413 E.03827
G1 X111.257 Y136.655 E.01517
G1 X111.257 Y137.634 E.03069
G1 X110.838 Y137.634 E.01314
G1 X110.838 Y136.701 E.02925
;WIPE_START
G1 F7200
G1 X110.838 Y137.634 E-.22153
G1 X111.257 Y137.634 E-.09951
G1 X111.257 Y136.655 E-.23245
G1 X111.676 Y136.413 E-.1149
G1 X111.676 Y136.799 E-.09161
;WIPE_END
G1 E-.04 F1800
G1 X114.19 Y133.57 F9000
G1 E.8 F1800
G1 F1200
G1 X114.19 Y125.83 E.24268
G1 X113.976 Y125.83 E.00669
G1 X113.976 Y127.147 E.0413
G1 X113.771 Y127.147 E.00644
G1 X113.771 Y132.488 E.16747
G1 X113.352 Y131.729 E.0272
G1 X113.352 Y127.147 E.14365
G1 X112.933 Y127.147 E.01314
G1 X112.933 Y130.961 E.11957
G1 X112.514 Y130.177 E.02787
G1 X112.514 Y127.147 E.095
G1 X112.095 Y127.147 E.01314
G1 X112.095 Y129.376 E.0699
G1 X111.676 Y128.567 E.02858
G1 X111.676 Y126.977 E.04983
;WIPE_START
G1 F7200
G1 X111.676 Y128.567 E-.37745
G1 X112.095 Y129.376 E-.21651
G1 X112.095 Y128.677 E-.16604
;WIPE_END
G1 E-.04 F1800
G1 X112.4 Y133.841 F9000
G1 E.8 F1800
;TYPE:Perimeter
;WIDTH:0.419999
G1 F1200
G1 X108.181 Y136.277 E.15275
G1 X107.192 Y134.51 E.06347
G1 X105.751 Y131.778 E.09685
G1 X104.38 Y129.01 E.09684
G1 X103.081 Y126.208 E.09685
G1 X101.852 Y123.371 E.09694
G1 X101.268 Y121.948 E.04823
G1 X100.149 Y119.065 E.09694
G1 X99.105 Y116.158 E.09685
G1 X98.136 Y113.226 E.09684
G1 X97.241 Y110.269 E.09685
G1 X96.422 Y107.288 E.09694
G1 X96.043 Y105.797 E.04823
G1 X95.338 Y102.786 E.09694
G1 X94.712 Y99.762 E.09686
G1 X94.231 Y97.117 E.08427
G1 X93.917 Y95.199 E.06093
G1 X93.484 Y92.136 E.097
G1 X93.298 Y90.609 E.04823
G1 X92.982 Y87.53 E.09704
G1 X92.746 Y84.457 E.09665
G1 X92.588 Y81.366 E.09704
G1 X92.539 Y79.828 E.04824
G1 X92.513 Y77.801 E.06357
G1 X97.379 Y77.801 E.15257
G1 X97.411 Y79.766 E.06161
G1 X97.461 Y81.305 E.04828
G1 X97.62 Y84.332 E.09506
G1 X97.73 Y85.855 E.04788
G1 X98.006 Y88.857 E.09449
G1 X98.365 Y91.895 E.09594
G1 X98.801 Y94.898 E.09514
G1 X99.312 Y97.876 E.09473
G1 X99.603 Y99.387 E.04826
G1 X100.235 Y102.359 E.09525
G1 X100.933 Y105.27 E.09386
G1 X101.327 Y106.782 E.04902
G1 X101.732 Y108.253 E.04783
G1 X102.588 Y111.143 E.09449
G1 X103.527 Y114.033 E.09527
G1 X104.547 Y116.914 E.09585
G1 X105.085 Y118.342 E.04783
G1 X106.201 Y121.141 E.09449
G1 X107.249 Y123.587 E.08342
G1 X108.029 Y125.32 E.0596
G1 X109.335 Y128.06 E.09515
G1 X110.72 Y130.779 E.09568
G1 X111.442 Y132.129 E.04799
G1 X112.371 Y133.788 E.05964
G1 X112.911 Y133.981 F9000
G1 F1200
G1 X108.039 Y136.794 E.1764
G1 X106.86 Y134.69 E.0756
G1 X105.415 Y131.95 E.09715
G1 X104.04 Y129.173 E.09715
G1 X102.737 Y126.362 E.09715
G1 X101.505 Y123.517 E.09721
G1 X100.918 Y122.087 E.04846
G1 X99.796 Y119.197 E.0972
G1 X98.748 Y116.281 E.09715
G1 X97.776 Y113.34 E.09715
G1 X96.879 Y110.374 E.09716
G1 X96.057 Y107.384 E.09721
G1 X95.677 Y105.887 E.04845
G1 X94.97 Y102.868 E.09721
G1 X94.341 Y99.834 E.09716
G1 X93.859 Y97.181 E.08452
G1 X93.544 Y95.256 E.06116
G1 X93.11 Y92.185 E.09724
G1 X92.923 Y90.651 E.04846
G1 X92.607 Y87.565 E.09727
G1 X92.37 Y84.48 E.09703
G1 X92.211 Y81.382 E.09727
G1 X92.162 Y79.837 E.04846
G1 X92.131 Y77.424 E.07566
G1 X97.753 Y77.424 E.17627
G1 X97.788 Y79.76 E.07324
G1 X97.838 Y81.285 E.04787
G1 X97.996 Y84.306 E.09483
G1 X98.105 Y85.816 E.04748
G1 X98.381 Y88.822 E.09465
G1 X98.739 Y91.842 E.09536
G1 X99.174 Y94.842 E.09502
G1 X99.685 Y97.817 E.09466
G1 X99.972 Y99.311 E.04769
G1 X100.602 Y102.273 E.09495
G1 X101.299 Y105.177 E.09363
G1 X101.691 Y106.682 E.04879
G1 X102.094 Y108.146 E.0476
G1 X102.95 Y111.036 E.09449
G1 X103.89 Y113.93 E.09542
G1 X104.9 Y116.782 E.09484
G1 X105.433 Y118.197 E.04744
G1 X106.552 Y121.002 E.09466
G1 X107.596 Y123.438 E.08312
G1 X108.373 Y125.166 E.05939
G1 X109.675 Y127.897 E.09489
G1 X111.054 Y130.603 E.09521
G1 X111.771 Y131.944 E.04769
G1 X112.882 Y133.929 E.0713
G1 X113.422 Y134.122 F9000
;TYPE:External perimeter
G1 F1200
G1 X107.897 Y137.312 E.20004
G1 X106.529 Y134.871 E.08773
G1 X105.079 Y132.121 E.09745
G1 X103.7 Y129.336 E.09745
G1 X102.393 Y126.516 E.09745
G1 X101.157 Y123.664 E.09747
G1 X100.568 Y122.227 E.04869
G1 X99.443 Y119.329 E.09747
G1 X98.392 Y116.404 E.09745
G1 X97.416 Y113.453 E.09745
G1 X96.517 Y110.478 E.09746
G1 X95.693 Y107.481 E.09747
G1 X95.31 Y105.976 E.04868
G1 X94.602 Y102.949 E.09747
G1 X93.971 Y99.906 E.09745
G1 X93.488 Y97.246 E.08477
G1 X93.171 Y95.313 E.06139
G1 X92.736 Y92.235 E.09749
G1 X92.548 Y90.693 E.04868
G1 X92.231 Y87.6 E.09749
G1 X91.993 Y84.503 E.0974
G1 X91.835 Y81.397 E.0975
G1 X91.785 Y79.845 E.04869
G1 X91.749 Y77.047 E.08775
G1 X98.127 Y77.047 E.2
G1 X98.165 Y79.757 E.08497
G1 X98.214 Y81.266 E.04736
G1 X98.372 Y84.279 E.0946
G1 X98.481 Y85.785 E.04733
G1 X98.757 Y88.79 E.09461
G1 X99.112 Y91.79 E.09472
G1 X99.545 Y94.776 E.09462
G1 X100.056 Y97.75 E.0946
G1 X100.341 Y99.234 E.0474
G1 X100.969 Y102.187 E.09464
G1 X101.664 Y105.084 E.09341
G1 X102.054 Y106.58 E.04849
G1 X102.455 Y108.039 E.04744
G1 X103.311 Y110.929 E.09449
G1 X104.244 Y113.8 E.09465
G1 X105.252 Y116.646 E.09467
G1 X105.784 Y118.061 E.0474
G1 X106.902 Y120.864 E.09461
G1 X107.942 Y123.29 E.08278
G1 X108.717 Y125.013 E.05922
G1 X110.016 Y127.735 E.09456
G1 X111.387 Y130.427 E.09473
G1 X112.1 Y131.76 E.0474
G1 X113.393 Y134.069 E.08297
G1 X113.022 Y134.119 F9000
;WIPE_START
G1 F7200
G1 X110.636 Y135.695 E-.76
;WIPE_END
G1 E-.04 F1800
G1 X96.491 Y77.922 F9000
G1 E.8 F1800
;TYPE:Solid infill
;WIDTH:0.422934
G1 F1200
G1 X97.1 Y78.531 E.02721
G1 X97.109 Y79.077 E.01726
G1 X96.124 Y78.091 E.04404
G1 X95.586 Y78.091 E.01698
G1 X97.118 Y79.623 E.06845
G1 X97.134 Y80.176 E.01748
G1 X95.049 Y78.091 E.09317
G1 X94.511 Y78.091 E.01698
G1 X97.152 Y80.732 E.118
G1 X97.17 Y81.288 E.01757
G1 X93.974 Y78.091 E.14283
G1 X93.436 Y78.091 E.01698
G1 X97.199 Y81.854 E.16814
G1 X97.229 Y82.421 E.01795
G1 X92.899 Y78.091 E.19349
G1 X92.807 Y78.091 E.00291
G1 X92.813 Y78.542 E.01425
G1 X97.259 Y82.988 E.19868
G1 X97.288 Y83.556 E.01795
G1 X92.82 Y79.087 E.19969
