; generated by PrusaSlicer 2.5.0-beta1+win64 on 2025-10-15 at 18:02:04 UTC

; 

; external perimeters extrusion width = 0.42mm
; perimeters extrusion width = 0.44mm
; infill extrusion width = 0.44mm
; solid infill extrusion width = 0.44mm
; top infill extrusion width = 0.40mm
; first layer extrusion width = 0.42mm

M201 X500 Y500 Z100 E5000 ; sets maximum accelerations, mm/sec^2
M203 X500 Y500 Z10 E60 ; sets maximum feedrates, mm / sec
M204 P500 R1000 T500 ; sets acceleration (P, T) and retract acceleration (R), mm/sec^2
M205 X8.00 Y8.00 Z0.40 E5.00 ; sets the jerk limits, mm/sec
M205 S0 T0 ; sets the minimum extruding and travel feed rate, mm/sec
M107
;TYPE:Custom
G90 ; use absolute coordinates
M83 ; extruder relative mode
M104 S150 ; set temporary nozzle temp to prevent oozing during homing
M140 S60 ; set final bed temp
G4 S30 ; allow partial nozzle warmup
G28 ; home all axis and restore leveling
G1 Z50 F240
G1 X2.0 Y10 F3000
M104 S210 ; set final nozzle temp
M190 S60 ; wait for bed temp to stabilize
M109 S210 ; wait for nozzle temp to stabilize
G1 Z0.28 F240
G92 E0
G1 X2.0 Y140 E10 F1500 ; prime the nozzle
G1 X2.3 Y140 F5000
G92 E0
G1 X2.3 Y10 E10 F1200 ; prime the nozzle
G92 E0
G21 ; set units to millimeters
G90 ; use absolute coordinates
M83 ; use relative distances for extrusion
; Filament gcode
M107
;LAYER_CHANGE
;Z:0.2
;HEIGHT:0.2
;BEFORE_LAYER_CHANGE
G92 E0
;0.2


G1 E-.8 F1800
G1 Z.2 F9000
;AFTER_LAYER_CHANGE
;0.2
G1 X103.017 Y83.417
G1 E.8 F1800
M204 S500
;TYPE:Skirt/Brim
;WIDTH:0.42
G1 F1200
G1 X104.107 Y82.203 E.05115
G1 X106 Y81.623 E.06207
G1 X114 Y81.623 E.25083
G1 X115.583 Y82.017 E.05115
G1 X116.797 Y83.107 E.05115
G1 X117.377 Y85 E.06207
G1 X117.377 Y135 E1.56771
G1 X116.983 Y136.583 E.05115
G1 X115.893 Y137.797 E.05115
G1 X114 Y138.377 E.06207
G1 X106 Y138.377 E.25083
G1 X104.417 Y137.983 E.05115
G1 X103.203 Y136.893 E.05115
G1 X102.623 Y135 E.06207
G1 X102.623 Y85 E1.56771
G1 X103.003 Y83.475 E.04927
;WIPE_START
G1 F7200
G1 X104.107 Y82.203 E-.40011
G1 X105.556 Y81.759 E-.35989
;WIPE_END
G1 E-.04 F1800
G1 X107.064 Y86.064 F9000
G1 E.8 F1800
;TYPE:Perimeter
;WIDTH:0.419999
G1 F1200
G1 X112.936 Y86.064 E.1841
G1 X112.936 Y133.936 E1.50098
G1 X107.064 Y133.936 E.1841
G1 X107.064 Y86.124 E1.4991
G1 X106.687 Y85.687 F9000
G1 F1200
G1 X113.313 Y85.687 E.20775
G1 X113.313 Y134.313 E1.52463
G1 X106.687 Y134.313 E.20775
G1 X106.687 Y85.747 E1.52275
G1 X106.31 Y85.31 F9000
;TYPE:External perimeter
G1 F1200
G1 X113.69 Y85.31 E.23139
G1 X113.69 Y134.69 E1.54827
G1 X106.31 Y134.69 E.23139
G1 X106.31 Y85.37 E1.54639
G1 X106.666 Y85.493 F9000
;WIPE_START
G1 F7200
G1 X109.51 Y85.344 E-.76
;WIPE_END
G1 E-.04 F1800
G1 X112.053 Y86.185 F9000
G1 E.8 F1800
;TYPE:Solid infill
;WIDTH:0.420063
G1 F1200
G1 X112.646 Y86.778 E.02629
G1 X112.646 Y87.311 E.01673
G1 X111.689 Y86.354 E.04242
G1 X111.156 Y86.354 E.01673
G1 X112.646 Y87.844 E.06607
G1 X112.646 Y88.378 E.01673
G1 X110.622 Y86.354 E.08972
G1 X110.089 Y86.354 E.01673
G1 X112.646 Y88.911 E.11338
G1 X112.646 Y89.444 E.01673
G1 X109.556 Y86.354 E.13703
G1 X109.022 Y86.354 E.01673
G1 X112.646 Y89.978 E.16069
G1 X112.646 Y90.511 E.01673
G1 X108.489 Y86.354 E.18434
G1 X107.956 Y86.354 E.01673
G1 X112.646 Y91.044 E.20799
G1 X112.646 Y91.578 E.01673
G1 X107.422 Y86.354 E.23165
G1 X107.354 Y86.354 E.00212
G1 X107.354 Y86.82 E.0146
G1 X112.646 Y92.111 E.23465
G1 X112.646 Y92.644 E.01673
G1 X107.354 Y87.353 E.23465
G1 X107.354 Y87.887 E.01673
G1 X112.646 Y93.178 E.23465
G1 X112.646 Y93.711 E.01673
G1 X107.354 Y88.42 E.23465
G1 X107.354 Y88.954 E.01673
G1 X112.646 Y94.245 E.23465
G1 X112.646 Y94.778 E.01673
G1 X107.354 Y89.487 E.23465
G1 X107.354 Y90.02 E.01673
G1 X112.646 Y95.311 E.23465
G1 X112.646 Y95.845 E.01673
G1 X107.354 Y90.554 E.23465
G1 X107.354 Y91.087 E.01673
G1 X112.646 Y96.378 E.23465
G1 X112.646 Y96.911 E.01673
G1 X107.354 Y91.62 E.23465
G1 X107.354 Y92.154 E.01673
G1 X112.646 Y97.445 E.23465
G1 X112.646 Y97.978 E.01673
G1 X107.354 Y92.687 E.23465
G1 X107.354 Y93.22 E.01673
G1 X112.646 Y98.511 E.23465
G1 X112.646 Y99.045 E.01673
G1 X107.354 Y93.754 E.23465
G1 X107.354 Y94.287 E.01673
G1 X112.646 Y99.578 E.23465
G1 X112.646 Y100.112 E.01673
G1 X107.354 Y94.821 E.23465
G1 X107.354 Y95.354 E.01673
G1 X112.646 Y100.645 E.23465
G1 X112.646 Y101.178 E.01673
G1 X107.354 Y95.887 E.23465
G1 X107.354 Y96.421 E.01673
G1 X112.646 Y101.712 E.23465
G1 X112.646 Y102.245 E.01673
G1 X107.354 Y96.954 E.23465
G1 X107.354 Y97.487 E.01673
G1 X112.646 Y102.778 E.23465
G1 X112.646 Y103.312 E.01673
G1 X107.354 Y98.021 E.23465
G1 X107.354 Y98.554 E.01673
G1 X112.646 Y103.845 E.23465
G1 X112.646 Y104.378 E.01673
G1 X107.354 Y99.087 E.23465
G1 X107.354 Y99.621 E.01673
G1 X112.646 Y104.912 E.23465
G1 X112.646 Y105.445 E.01673
G1 X107.354 Y100.154 E.23465
G1 X107.354 Y100.688 E.01673
G1 X112.646 Y105.979 E.23465
G1 X112.646 Y106.512 E.01673
G1 X107.354 Y101.221 E.23465
G1 X107.354 Y101.754 E.01673
G1 X112.646 Y107.045 E.23465
G1 X112.646 Y107.579 E.01673
G1 X107.354 Y102.288 E.23465
G1 X107.354 Y102.821 E.01673
G1 X112.646 Y108.112 E.23465
G1 X112.646 Y108.645 E.01673
G1 X107.354 Y103.354 E.23465
G1 X107.354 Y103.888 E.01673
G1 X112.646 Y109.179 E.23465
G1 X112.646 Y109.712 E.01673
G1 X107.354 Y104.421 E.23465
G1 X107.354 Y104.954 E.01673
G1 X112.646 Y110.245 E.23465
G1 X112.646 Y110.779 E.01673
G1 X107.354 Y105.488 E.23465
G1 X107.354 Y106.021 E.01673
G1 X112.646 Y111.312 E.23465
G1 X112.646 Y111.845 E.01673
G1 X107.354 Y106.554 E.23465
G1 X107.354 Y107.088 E.01673
G1 X112.646 Y112.379 E.23465
G1 X112.646 Y112.912 E.01673
G1 X107.354 Y107.621 E.23465
G1 X107.354 Y108.155 E.01673
G1 X112.646 Y113.446 E.23465
G1 X112.646 Y113.979 E.01673
G1 X107.354 Y108.688 E.23465
G1 X107.354 Y109.221 E.01673
G1 X112.646 Y114.512 E.23465
G1 X112.646 Y115.046 E.01673
G1 X107.354 Y109.755 E.23465
G1 X107.354 Y110.288 E.01673
G1 X112.646 Y115.579 E.23465
G1 X112.646 Y116.112 E.01673
G1 X107.354 Y110.821 E.23465
G1 X107.354 Y111.355 E.01673
G1 X112.646 Y116.646 E.23465
G1 X112.646 Y117.179 E.01673
G1 X107.354 Y111.888 E.23465
G1 X107.354 Y112.421 E.01673
G1 X112.646 Y117.712 E.23465
G1 X112.646 Y118.246 E.01673
G1 X107.354 Y112.955 E.23465
G1 X107.354 Y113.488 E.01673
G1 X112.646 Y118.779 E.23465
G1 X112.646 Y119.313 E.01673
G1 X107.354 Y114.022 E.23465
G1 X107.354 Y114.555 E.01673
G1 X112.646 Y119.846 E.23465
G1 X112.646 Y120.379 E.01673
G1 X107.354 Y115.088 E.23465
G1 X107.354 Y115.622 E.01673
G1 X112.646 Y120.913 E.23465
G1 X112.646 Y121.446 E.01673
G1 X107.354 Y116.155 E.23465
G1 X107.354 Y116.688 E.01673
G1 X112.646 Y121.979 E.23465
G1 X112.646 Y122.513 E.01673
G1 X107.354 Y117.222 E.23465
G1 X107.354 Y117.755 E.01673
G1 X112.646 Y123.046 E.23465
G1 X112.646 Y123.579 E.01673
G1 X107.354 Y118.288 E.23465
G1 X107.354 Y118.822 E.01673
G1 X112.646 Y124.113 E.23465
G1 X112.646 Y124.646 E.01673
G1 X107.354 Y119.355 E.23465
G1 X107.354 Y119.888 E.01673
G1 X112.646 Y125.18 E.23465
G1 X112.646 Y125.713 E.01673
G1 X107.354 Y120.422 E.23465
G1 X107.354 Y120.955 E.01673
G1 X112.646 Y126.246 E.23465
G1 X112.646 Y126.78 E.01673
G1 X107.354 Y121.489 E.23465
G1 X107.354 Y122.022 E.01673
G1 X112.646 Y127.313 E.23465
G1 X112.646 Y127.846 E.01673
G1 X107.354 Y122.555 E.23465
G1 X107.354 Y123.089 E.01673
G1 X112.646 Y128.38 E.23465
G1 X112.646 Y128.913 E.01673
G1 X107.354 Y123.622 E.23465
G1 X107.354 Y124.155 E.01673
G1 X112.646 Y129.446 E.23465
G1 X112.646 Y129.98 E.01673
G1 X107.354 Y124.689 E.23465
G1 X107.354 Y125.222 E.01673
G1 X112.646 Y130.513 E.23465
G1 X112.646 Y131.046 E.01673
G1 X107.354 Y125.755 E.23465
G1 X107.354 Y126.289 E.01673
G1 X112.646 Y131.58 E.23465
G1 X112.646 Y132.113 E.01673
G1 X107.354 Y126.822 E.23465
G1 X107.354 Y127.356 E.01673
G1 X112.646 Y132.647 E.23465
G1 X112.646 Y133.18 E.01673
G1 X107.354 Y127.889 E.23465
G1 X107.354 Y128.422 E.01673
G1 X112.578 Y133.646 E.23165
G1 X112.044 Y133.646 E.01673
G1 X107.354 Y128.956 E.20799
G1 X107.354 Y129.489 E.01673
G1 X111.511 Y133.646 E.18434
G1 X110.978 Y133.646 E.01673
G1 X107.354 Y130.022 E.16068
G1 X107.354 Y130.556 E.01673
G1 X110.444 Y133.646 E.13703
G1 X109.911 Y133.646 E.01673
G1 X107.354 Y131.089 E.11338
G1 X107.354 Y131.622 E.01673
G1 X109.378 Y133.646 E.08972
G1 X108.844 Y133.646 E.01673
G1 X107.354 Y132.156 E.06607
G1 X107.354 Y132.689 E.01673
G1 X108.311 Y133.646 E.04241
G1 X107.777 Y133.646 E.01673
G1 X107.185 Y133.053 E.02628
M106 S255
;LAYER_CHANGE
;Z:0.4
;HEIGHT:0.2
;BEFORE_LAYER_CHANGE
G92 E0
;0.4


;WIPE_START
G1 F7200
G1 X107.777 Y133.646 E-.19907
G1 X108.311 Y133.646 E-.12667
G1 X107.354 Y132.689 E-.32121
G1 X107.354 Y132.213 E-.11305
;WIPE_END
G1 E-.04 F1800
G1 Z.4 F9000
;AFTER_LAYER_CHANGE
;0.4
M104 S205 ; set temperature
G1 X102.623 Y132.213
G1 E.8 F1800
;TYPE:Skirt/Brim
;WIDTH:0.42
G1 F2400
G1 X102.623 Y85 E1.48034
G1 X103.017 Y83.417 E.05115
G1 X104.107 Y82.203 E.05115
G1 X106 Y81.623 E.06207
G1 X114 Y81.623 E.25083
G1 X115.583 Y82.017 E.05115
G1 X116.797 Y83.107 E.05115
G1 X117.377 Y85 E.06207
G1 X117.377 Y135 E1.56771
G1 X116.983 Y136.583 E.05115
G1 X115.893 Y137.797 E.05115
G1 X114 Y138.377 E.06207
G1 X106 Y138.377 E.25083
G1 X104.417 Y137.983 E.05115
G1 X103.203 Y136.893 E.05115
G1 X102.623 Y135 E.06207
G1 X102.623 Y132.273 E.0855
;WIPE_START
G1 F7200
G1 X102.623 Y129.073 E-.76
;WIPE_END
G1 E-.04 F1800
G1 X106.994 Y134.006 F9000
G1 E.8 F1800
;TYPE:Perimeter
;WIDTH:0.439999
G1 F2400
G1 X106.994 Y85.994 E1.58521
G1 X113.006 Y85.994 E.19849
G1 X113.006 Y134.006 E1.58521
G1 X107.054 Y134.006 E.19651
G1 X106.597 Y134.403 F9000
G1 F2400
G1 X106.597 Y85.597 E1.61143
G1 X113.403 Y85.597 E.22471
G1 X113.403 Y134.403 E1.61143
G1 X106.657 Y134.403 E.22273
G1 X106.21 Y134.79 F9000
;TYPE:External perimeter
;WIDTH:0.419999
G1 F1500
G1 X106.21 Y85.21 E1.55454
G1 X113.79 Y85.21 E.23767
G1 X113.79 Y134.79 E1.55454
G1 X106.27 Y134.79 E.23578
G1 X106.23 Y134.391 F9000
;WIPE_START
G1 F7200
G1 X106.266 Y131.59 E-.76
;WIPE_END
G1 E-.04 F1800
G1 X112.879 Y133.072 F9000
G1 E.8 F1800
;TYPE:Solid infill
;WIDTH:0.441836
G1 F2400
G1 X112.251 Y133.7 E.02945
G1 X111.687 Y133.7 E.01871
G1 X112.7 Y132.687 E.04754
G1 X112.7 Y132.123 E.01871
G1 X111.123 Y133.7 E.074
G1 X110.558 Y133.7 E.01871
G1 X112.7 Y131.558 E.10047
G1 X112.7 Y130.994 E.01871
G1 X109.994 Y133.7 E.12693
G1 X109.43 Y133.7 E.01871
G1 X112.7 Y130.43 E.15339
G1 X112.7 Y129.866 E.01871
G1 X108.866 Y133.7 E.17986
G1 X108.302 Y133.7 E.01871
G1 X112.7 Y129.302 E.20632
G1 X112.7 Y128.738 E.01871
G1 X107.738 Y133.7 E.23279
G1 X107.3 Y133.7 E.01452
G1 X107.3 Y133.574 E.00419
G1 X112.7 Y128.174 E.25332
G1 X112.7 Y127.609 E.01871
G1 X107.3 Y133.01 E.25332
G1 X107.3 Y132.445 E.01871
G1 X112.7 Y127.045 E.25332
G1 X112.7 Y126.481 E.01871
G1 X107.3 Y131.881 E.25332
G1 X107.3 Y131.317 E.01871
G1 X112.7 Y125.917 E.25332
G1 X112.7 Y125.353 E.01871
G1 X107.3 Y130.753 E.25332
G1 X107.3 Y130.189 E.01871
G1 X112.7 Y124.789 E.25332
G1 X112.7 Y124.224 E.01871
G1 X107.3 Y129.625 E.25332
G1 X107.3 Y129.06 E.01871
G1 X112.7 Y123.66 E.25332
G1 X112.7 Y123.096 E.01871
G1 X107.3 Y128.496 E.25332
G1 X107.3 Y127.932 E.01871
G1 X112.7 Y122.532 E.25332
G1 X112.7 Y121.968 E.01871
G1 X107.3 Y127.368 E.25332
G1 X107.3 Y126.804 E.01871
G1 X112.7 Y121.404 E.25332
G1 X112.7 Y120.84 E.01871
G1 X107.3 Y126.24 E.25332
G1 X107.3 Y125.676 E.01871
G1 X112.7 Y120.275 E.25332
G1 X112.7 Y119.711 E.01871
G1 X107.3 Y125.111 E.25332
G1 X107.3 Y124.547 E.01871
G1 X112.7 Y119.147 E.25332
G1 X112.7 Y118.583 E.01871
G1 X107.3 Y123.983 E.25332
G1 X107.3 Y123.419 E.01871
G1 X112.7 Y118.019 E.25332
G1 X112.7 Y117.455 E.01871
G1 X107.3 Y122.855 E.25332
G1 X107.3 Y122.291 E.01871
G1 X112.7 Y116.89 E.25332
G1 X112.7 Y116.326 E.01871
G1 X107.3 Y121.727 E.25332
G1 X107.3 Y121.162 E.01871
G1 X112.7 Y115.762 E.25332
G1 X112.7 Y115.198 E.01871
G1 X107.3 Y120.598 E.25332
G1 X107.3 Y120.034 E.01871
G1 X112.7 Y114.634 E.25332
G1 X112.7 Y114.07 E.01871
G1 X107.3 Y119.47 E.25332
G1 X107.3 Y118.906 E.01871
G1 X112.7 Y113.506 E.25332
G1 X112.7 Y112.941 E.01871
G1 X107.3 Y118.342 E.25332
G1 X107.3 Y117.777 E.01871
G1 X112.7 Y112.377 E.25332
G1 X112.7 Y111.813 E.01871
G1 X107.3 Y117.213 E.25332
G1 X107.3 Y116.649 E.01871
G1 X112.7 Y111.249 E.25332
G1 X112.7 Y110.685 E.01871
G1 X107.3 Y116.085 E.25332
G1 X107.3 Y115.521 E.01871
G1 X112.7 Y110.121 E.25332
G1 X112.7 Y109.556 E.01871
G1 X107.3 Y114.957 E.25332
G1 X107.3 Y114.393 E.01871
G1 X112.7 Y108.992 E.25332
G1 X112.7 Y108.428 E.01871
G1 X107.3 Y113.828 E.25332
G1 X107.3 Y113.264 E.01871
G1 X112.7 Y107.864 E.25332
G1 X112.7 Y107.3 E.01871
G1 X107.3 Y112.7 E.25332
G1 X107.3 Y112.136 E.01871
G1 X112.7 Y106.736 E.25332
G1 X112.7 Y106.172 E.01871
G1 X107.3 Y111.572 E.25332
G1 X107.3 Y111.008 E.01871
G1 X112.7 Y105.607 E.25332
G1 X112.7 Y105.043 E.01871
G1 X107.3 Y110.443 E.25332
G1 X107.3 Y109.879 E.01871
G1 X112.7 Y104.479 E.25332
G1 X112.7 Y103.915 E.01871
G1 X107.3 Y109.315 E.25332
G1 X107.3 Y108.751 E.01871
G1 X112.7 Y103.351 E.25332
G1 X112.7 Y102.787 E.01871
G1 X107.3 Y108.187 E.25332
G1 X107.3 Y107.623 E.01871
G1 X112.7 Y102.223 E.25332
G1 X112.7 Y101.658 E.01871
G1 X107.3 Y107.059 E.25332
G1 X107.3 Y106.494 E.01871
G1 X112.7 Y101.094 E.25332
G1 X112.7 Y100.53 E.01871
G1 X107.3 Y105.93 E.25332
G1 X107.3 Y105.366 E.01871
G1 X112.7 Y99.966 E.25332
G1 X112.7 Y99.402 E.01871
G1 X107.3 Y104.802 E.25332
G1 X107.3 Y104.238 E.01871
G1 X112.7 Y98.838 E.25332
G1 X112.7 Y98.273 E.01871
G1 X107.3 Y103.674 E.25332
G1 X107.3 Y103.109 E.01871
G1 X112.7 Y97.709 E.25332
G1 X112.7 Y97.145 E.01871
G1 X107.3 Y102.545 E.25332
G1 X107.3 Y101.981 E.01871
G1 X112.7 Y96.581 E.25332
G1 X112.7 Y96.017 E.01871
G1 X107.3 Y101.417 E.25332
G1 X107.3 Y100.853 E.01871
G1 X112.7 Y95.453 E.25332
G1 X112.7 Y94.889 E.01871
G1 X107.3 Y100.289 E.25332
G1 X107.3 Y99.725 E.01871
G1 X112.7 Y94.324 E.25332
G1 X112.7 Y93.76 E.01871
G1 X107.3 Y99.16 E.25332
G1 X107.3 Y98.596 E.01871
G1 X112.7 Y93.196 E.25332
G1 X112.7 Y92.632 E.01871
G1 X107.3 Y98.032 E.25332
G1 X107.3 Y97.468 E.01871
G1 X112.7 Y92.068 E.25332
G1 X112.7 Y91.504 E.01871
G1 X107.3 Y96.904 E.25332
G1 X107.3 Y96.34 E.01871
G1 X112.7 Y90.939 E.25332
G1 X112.7 Y90.375 E.01871
G1 X107.3 Y95.776 E.25332
G1 X107.3 Y95.211 E.01871
G1 X112.7 Y89.811 E.25332
G1 X112.7 Y89.247 E.01871
G1 X107.3 Y94.647 E.25332
G1 X107.3 Y94.083 E.01871
G1 X112.7 Y88.683 E.25332
G1 X112.7 Y88.119 E.01871
G1 X107.3 Y93.519 E.25332
G1 X107.3 Y92.955 E.01871
G1 X112.7 Y87.555 E.25332
G1 X112.7 Y86.99 E.01871
G1 X107.3 Y92.391 E.25332
G1 X107.3 Y91.826 E.01871
G1 X112.7 Y86.426 E.25332
G1 X112.7 Y86.3 E.00419
G1 X112.262 Y86.3 E.01452
G1 X107.3 Y91.262 E.23278
G1 X107.3 Y90.698 E.01871
G1 X111.698 Y86.3 E.20632
G1 X111.134 Y86.3 E.01871
G1 X107.3 Y90.134 E.17986
G1 X107.3 Y89.57 E.01871
G1 X110.57 Y86.3 E.15339
G1 X110.006 Y86.3 E.01871
G1 X107.3 Y89.006 E.12693
G1 X107.3 Y88.442 E.01871
G1 X109.442 Y86.3 E.10046
G1 X108.877 Y86.3 E.01871
G1 X107.3 Y87.877 E.074
G1 X107.3 Y87.313 E.01871
G1 X108.313 Y86.3 E.04753
G1 X107.749 Y86.3 E.01871
G1 X107.121 Y86.928 E.02945
;LAYER_CHANGE
;Z:0.6
;HEIGHT:0.2
;BEFORE_LAYER_CHANGE
G92 E0
;0.6


;WIPE_START
G1 F7200
G1 X107.749 Y86.3 E-.21088
G1 X108.313 Y86.3 E-.13399
G1 X107.3 Y87.313 E-.34035
G1 X107.3 Y87.628 E-.07478
;WIPE_END
G1 E-.04 F1800
G1 Z.6 F9000
;AFTER_LAYER_CHANGE
;0.6
G1 X106.994 Y85.994
G1 E.8 F1800
;TYPE:Perimeter
;WIDTH:0.439999
G1 F2400
G1 X113.006 Y85.994 E.19849
G1 X113.006 Y134.006 E1.58521
G1 X106.994 Y134.006 E.19849
G1 X106.994 Y86.054 E1.58323
G1 X106.597 Y85.597 F9000
G1 F2400
G1 X113.403 Y85.597 E.22471
G1 X113.403 Y134.403 E1.61143
G1 X106.597 Y134.403 E.22471
G1 X106.597 Y85.657 E1.60945
G1 X106.21 Y85.21 F9000
;TYPE:External perimeter
;WIDTH:0.419999
G1 F1500
G1 X113.79 Y85.21 E.23767
G1 X113.79 Y134.79 E1.55454
G1 X106.21 Y134.79 E.23767
G1 X106.21 Y85.27 E1.55266
G1 X106.566 Y85.392 F9000
;WIPE_START
G1 F7200
G1 X109.41 Y85.245 E-.76
;WIPE_END
G1 E-.04 F1800
G1 X112.072 Y86.121 F9000
G1 E.8 F1800
;TYPE:Solid infill
;WIDTH:0.441836
G1 F2400
G1 X112.7 Y86.749 E.02945
G1 X112.7 Y87.313 E.01871
G1 X111.687 Y86.3 E.04754
