; generated by PrusaSlicer 2.5.0-beta1+win64 on 2025-10-10 at 14:29:34 UTC

; 

; external perimeters extrusion width = 0.42mm
; perimeters extrusion width = 0.44mm
; infill extrusion width = 0.44mm
; solid infill extrusion width = 0.44mm
; top infill extrusion width = 0.40mm
; support material extrusion width = 0.36mm
; first layer extrusion width = 0.42mm

; external perimeters extrusion width = 0.42mm
; perimeters extrusion width = 0.44mm
; infill extrusion width = 0.44mm
; solid infill extrusion width = 0.44mm
; top infill extrusion width = 0.40mm
; support material extrusion width = 0.36mm
; first layer extrusion width = 0.42mm

; external perimeters extrusion width = 0.42mm
; perimeters extrusion width = 0.44mm
; infill extrusion width = 0.44mm
; solid infill extrusion width = 0.44mm
; top infill extrusion width = 0.40mm
; support material extrusion width = 0.36mm
; first layer extrusion width = 0.42mm

; external perimeters extrusion width = 0.42mm
; perimeters extrusion width = 0.44mm
; infill extrusion width = 0.44mm
; solid infill extrusion width = 0.44mm
; top infill extrusion width = 0.40mm
; support material extrusion width = 0.36mm
; first layer extrusion width = 0.42mm

; external perimeters extrusion width = 0.42mm
; perimeters extrusion width = 0.44mm
; infill extrusion width = 0.44mm
; solid infill extrusion width = 0.44mm
; top infill extrusion width = 0.40mm
; support material extrusion width = 0.36mm
; first layer extrusion width = 0.42mm

; external perimeters extrusion width = 0.42mm
; perimeters extrusion width = 0.44mm
; infill extrusion width = 0.44mm
; solid infill extrusion width = 0.44mm
; top infill extrusion width = 0.40mm
; support material extrusion width = 0.36mm
; first layer extrusion width = 0.42mm

; external perimeters extrusion width = 0.42mm
; perimeters extrusion width = 0.44mm
; infill extrusion width = 0.44mm
; solid infill extrusion width = 0.44mm
; top infill extrusion width = 0.40mm
; support material extrusion width = 0.36mm
; first layer extrusion width = 0.42mm

M201 X500 Y500 Z100 E5000 ; sets maximum accelerations, mm/sec^2
M203 X500 Y500 Z10 E60 ; sets maximum feedrates, mm / sec
M204 P500 R1000 T500 ; sets acceleration (P, T) and retract acceleration (R), mm/sec^2
M205 X8.00 Y8.00 Z0.40 E5.00 ; sets the jerk limits, mm/sec
M205 S0 T0 ; sets the minimum extruding and travel feed rate, mm/sec
M107
;TYPE:Custom
G90 ; use absolute coordinates
M83 ; extruder relative mode
M104 S150 ; set temporary nozzle temp to prevent oozing during homing
M140 S60 ; set final bed temp
G4 S30 ; allow partial nozzle warmup
G28 ; home all axis and restore leveling
G1 Z50 F240
G1 X2.0 Y10 F3000
M104 S210 ; set final nozzle temp
M190 S60 ; wait for bed temp to stabilize
M109 S210 ; wait for nozzle temp to stabilize
G1 Z0.28 F240
G92 E0
G1 X2.0 Y140 E10 F1500 ; prime the nozzle
G1 X2.3 Y140 F5000
G92 E0
G1 X2.3 Y10 E10 F1200 ; prime the nozzle
G92 E0
G21 ; set units to millimeters
G90 ; use absolute coordinates
M83 ; use relative distances for extrusion
; Filament gcode
M107
;LAYER_CHANGE
;Z:0.2
;HEIGHT:0.2
;BEFORE_LAYER_CHANGE
G92 E0
;0.2


G1 E-.8 F1800
G1 Z.2 F9000
;AFTER_LAYER_CHANGE
;0.2
G1 X41.933 Y19.203
G1 E.8 F1800
M204 S500
;TYPE:Skirt/Brim
;WIDTH:0.42
G1 F1200
G1 X43.023 Y17.989 E.05115
G1 X44.35 Y17.457 E.04482
G1 X107.347 Y6.744 E2.0036
G1 X113.084 Y6.696 E.17988
G1 X114.667 Y7.09 E.05115
G1 X115.735 Y7.981 E.0436
G1 X177.735 Y86.542 E3.1379
G1 X178.461 Y88.634 E.06944
G1 X178.461 Y209.878 E3.80152
G1 X178.067 Y211.461 E.05115
G1 X176.977 Y212.675 E.05115
G1 X175.084 Y213.255 E.06207
G1 X169.785 Y213.253 E.16615
G1 X44.788 Y208.502 E3.92204
G1 X43.221 Y208.048 E.05115
G1 X42.049 Y206.913 E.05115
G1 X41.539 Y205.127 E.05822
G1 X41.539 Y20.786 E5.7799
G1 X41.918 Y19.261 E.04927
;WIPE_START
G1 F7200
G1 X43.023 Y17.989 E-.40011
G1 X44.35 Y17.457 E-.3395
G1 X44.434 Y17.442 E-.02038
;WIPE_END
G1 E-.04 F1800
G1 X107.773 Y89.753 F9000
G1 E.8 F1800
;TYPE:Support material interface
;WIDTH:0.36
G1 F1200
G1 X107.415 Y89.753 E.00945
G1 X107.415 Y191.168 E2.67384
G1 X107.773 Y191.168 E.00945
G1 X108.185 Y190.381 F9000
G1 F1200
G1 X108.319 Y190.579 E.00628
G1 X108.449 Y190.631 E.00369
G1 X108.449 Y191.168 E.01418
G1 X107.932 Y191.168 E.01363
G1 X107.932 Y89.753 E2.67384
G1 X108.449 Y89.753 E.01363
G1 X108.449 Y89.834 E.00212
G1 X108.418 Y89.834 E.00081
G1 X108.178 Y90.074 E.00897
G1 X108.178 Y90.23 E.00412
;WIPE_START
G1 F7200
G1 X108.178 Y90.074 E-.03709
G1 X108.418 Y89.834 E-.08077
G1 X108.449 Y89.834 E-.00726
G1 X108.449 Y89.753 E-.01913
G1 X107.932 Y89.753 E-.12281
G1 X107.932 Y91.829 E-.49293
;WIPE_END
G1 E-.04 F1800
G1 X111.393 Y89.753 F9000
G1 E.8 F1800
G1 F1200
G1 X111.317 Y89.753 E.00199
G1 X111.317 Y89.834 E.00212
G1 X111.551 Y89.834 E.00617
G1 X111.551 Y89.753 E.00212
G1 X112.068 Y89.753 E.01363
G1 X112.068 Y191.168 E2.67384
G1 X112.585 Y191.168 E.01363
G1 X112.585 Y89.753 E2.67384
;WIPE_START
G1 F7200
G1 X112.585 Y92.953 E-.76
;WIPE_END
G1 E-.04 F1800
G1 X111.815 Y190.381 F9000
G1 E.8 F1800
G1 F1200
G1 X111.681 Y190.579 E.00628
G1 X111.551 Y190.631 E.00369
G1 X111.551 Y191.168 E.01418
G1 X111.317 Y191.168 E.00617
G1 X111.317 Y190.719 E.01185
G1 X111.404 Y190.689 E.00242
;WIPE_START
G1 F7200
G1 X111.317 Y190.719 E-.0218
G1 X111.317 Y191.168 E-.10675
G1 X111.551 Y191.168 E-.05561
G1 X111.551 Y190.631 E-.1277
G1 X111.681 Y190.579 E-.03322
G1 X111.815 Y190.381 E-.05657
;WIPE_END
G1 E-.39834 F1800
G1 X110.163 Y189.666 F9000
G1 E.8 F1800
;TYPE:Perimeter
;WIDTH:0.368913
G1 F1200
G1 X109.837 Y189.656 E.00884
G1 X109.837 Y90.906 E2.67677
G1 X110.163 Y90.906 E.00884
G1 X110.163 Y189.606 E2.67541
G1 X110.515 Y189.979 F9000
;TYPE:External perimeter
;WIDTH:0.419999
G1 F1200
G1 X110.064 Y190.031 E.01423
G1 X109.485 Y189.975 E.01821
G1 X109.485 Y90.554 E3.11726
G1 X110.515 Y90.554 E.03227
G1 X110.515 Y189.919 E3.11551
G1 X110.153 Y189.807 F9000
M106 S255
;LAYER_CHANGE
;Z:0.4
;HEIGHT:0.2
;BEFORE_LAYER_CHANGE
G92 E0
;0.4


;WIPE_START
G1 F7200
G1 X110.064 Y190.031 E-.11036
G1 X109.485 Y189.975 E-.13796
G1 X109.485 Y187.821 E-.51167
;WIPE_END
G1 E-.04 F1800
G1 Z.4 F9000
;AFTER_LAYER_CHANGE
;0.4
M104 S205 ; set temperature
G1 X108.607 Y210.928
G1 E.8 F1800
;TYPE:Skirt/Brim
;WIDTH:0.42
G1 F2400
G1 X44.788 Y208.502 E2.00247
G1 X43.221 Y208.048 E.05115
G1 X42.049 Y206.913 E.05115
G1 X41.539 Y205.127 E.05822
G1 X41.539 Y20.786 E5.7799
G1 X41.933 Y19.203 E.05115
G1 X43.023 Y17.989 E.05115
G1 X44.35 Y17.457 E.04482
G1 X107.347 Y6.744 E2.0036
G1 X113.084 Y6.696 E.17988
G1 X114.667 Y7.09 E.05115
G1 X115.735 Y7.981 E.0436
G1 X177.735 Y86.542 E3.1379
G1 X178.461 Y88.634 E.06944
G1 X178.461 Y209.878 E3.80152
G1 X178.067 Y211.461 E.05115
G1 X176.977 Y212.675 E.05115
G1 X175.084 Y213.255 E.06207
G1 X169.785 Y213.253 E.16615
G1 X108.667 Y210.93 E1.91769
;WIPE_START
G1 F7200
G1 X105.47 Y210.808 E-.76
;WIPE_END
G1 E-.04 F1800
G1 X110.418 Y189.495 F9000
G1 E.8 F1800
;TYPE:Perimeter
;WIDTH:0.439999
G1 F2400
G1 X110.088 Y189.54 E.011
G1 X109.582 Y189.507 E.01671
G1 X109.582 Y91.238 E3.24455
G1 X110.418 Y91.238 E.02758
G1 X110.418 Y189.435 E3.24219
G1 X110.682 Y189.856 F9000
G1 F2400
G1 X110.14 Y189.94 E.01812
G1 X109.6 Y189.911 E.01785
G1 X109.185 Y189.818 E.01405
G1 X109.185 Y90.841 E3.26795
G1 X110.815 Y90.841 E.0538
G1 X110.815 Y189.814 E3.26781
G1 X110.74 Y189.839 E.00261
G1 X110.742 Y190.238 F9000
;TYPE:External perimeter
;WIDTH:0.419999
G1 F1500
G1 X110.046 Y190.323 E.02199
G1 X109.448 Y190.28 E.01878
G1 X108.975 Y190.145 E.01541
M204 S250
;TYPE:Overhang perimeter
;WIDTH:0.389872
;HEIGHT:0.389872
G1 X108.798 Y190.094 E.00915
G1 X108.798 Y90.454 E4.94541
G1 X108.975 Y90.454 E.0088
M204 S500
;TYPE:External perimeter
;WIDTH:0.419999
;HEIGHT:0.2
G1 X111.025 Y90.454 E.06425
M204 S250
;TYPE:Overhang perimeter
;WIDTH:0.389872
;HEIGHT:0.389872
G1 X111.202 Y90.454 E.0088
G1 X111.202 Y91.656 E.05965
G1 X111.202 Y190.093 E4.88569
G1 X111.025 Y190.149 E.00923
M204 S500
;TYPE:External perimeter
;WIDTH:0.419999
;HEIGHT:0.2
G1 X110.799 Y190.22 E.00741
;WIPE_START
G1 F7200
G1 X110.046 Y190.323 E-.18061
G1 X109.448 Y190.28 E-.14229
G1 X108.975 Y190.145 E-.11672
;WIPE_END
G1 E-.36039 F1800
G1 X110.291 Y188.618 F9000
G1 E.8 F1800
;TYPE:Solid infill
;WIDTH:0.441807
G1 F2400
G1 X109.888 Y189.02 E.01888
G1 X109.888 Y188.456 E.01871
G1 X110.112 Y188.232 E.01049
G1 X110.112 Y187.668 E.01871
G1 X109.888 Y187.892 E.01049
G1 X109.888 Y187.328 E.01871
G1 X110.112 Y187.104 E.01049
G1 X110.112 Y186.54 E.01871
G1 X109.888 Y186.764 E.01049
G1 X109.888 Y186.2 E.01871
G1 X110.112 Y185.976 E.01049
G1 X110.112 Y185.412 E.01871
G1 X109.888 Y185.636 E.01049
G1 X109.888 Y185.072 E.01871
G1 X110.112 Y184.848 E.01049
G1 X110.112 Y184.284 E.01871
G1 X109.888 Y184.507 E.01049
G1 X109.888 Y183.943 E.01871
G1 X110.112 Y183.72 E.01049
G1 X110.112 Y183.155 E.01871
G1 X109.888 Y183.379 E.01049
G1 X109.888 Y182.815 E.01871
G1 X110.112 Y182.591 E.01049
G1 X110.112 Y182.027 E.01871
G1 X109.888 Y182.251 E.01049
G1 X109.888 Y181.687 E.01871
G1 X110.112 Y181.463 E.01049
G1 X110.112 Y180.899 E.01871
G1 X109.888 Y181.123 E.01049
G1 X109.888 Y180.559 E.01871
G1 X110.112 Y180.335 E.01049
G1 X110.112 Y179.771 E.01871
G1 X109.888 Y179.995 E.01049
G1 X109.888 Y179.43 E.01871
G1 X110.112 Y179.207 E.01049
G1 X110.112 Y178.643 E.01871
G1 X109.888 Y178.866 E.01049
G1 X109.888 Y178.302 E.01871
G1 X110.112 Y178.078 E.01049
G1 X110.112 Y177.514 E.01871
G1 X109.888 Y177.738 E.01049
G1 X109.888 Y177.174 E.01871
G1 X110.112 Y176.95 E.01049
G1 X110.112 Y176.386 E.01871
G1 X109.888 Y176.61 E.01049
G1 X109.888 Y176.046 E.01871
G1 X110.112 Y175.822 E.01049
G1 X110.112 Y175.258 E.01871
G1 X109.888 Y175.482 E.01049
G1 X109.888 Y174.918 E.01871
G1 X110.112 Y174.694 E.01049
G1 X110.112 Y174.13 E.01871
G1 X109.888 Y174.353 E.01049
G1 X109.888 Y173.789 E.01871
G1 X110.112 Y173.566 E.01049
G1 X110.112 Y173.001 E.01871
G1 X109.888 Y173.225 E.01049
G1 X109.888 Y172.661 E.01871
G1 X110.112 Y172.437 E.01049
G1 X110.112 Y171.873 E.01871
G1 X109.888 Y172.097 E.01049
G1 X109.888 Y171.533 E.01871
G1 X110.112 Y171.309 E.01049
G1 X110.112 Y170.745 E.01871
G1 X109.888 Y170.969 E.01049
G1 X109.888 Y170.405 E.01871
G1 X110.112 Y170.181 E.01049
G1 X110.112 Y169.617 E.01871
G1 X109.888 Y169.841 E.01049
G1 X109.888 Y169.276 E.01871
G1 X110.112 Y169.053 E.01049
G1 X110.112 Y168.489 E.01871
G1 X109.888 Y168.712 E.01049
G1 X109.888 Y168.148 E.01871
G1 X110.112 Y167.924 E.01049
G1 X110.112 Y167.36 E.01871
G1 X109.888 Y167.584 E.01049
G1 X109.888 Y167.02 E.01871
G1 X110.112 Y166.796 E.01049
G1 X110.112 Y166.232 E.01871
G1 X109.888 Y166.456 E.01049
G1 X109.888 Y165.892 E.01871
G1 X110.112 Y165.668 E.01049
G1 X110.112 Y165.104 E.01871
G1 X109.888 Y165.328 E.01049
G1 X109.888 Y164.764 E.01871
G1 X110.112 Y164.54 E.01049
G1 X110.112 Y163.976 E.01871
G1 X109.888 Y164.199 E.01049
G1 X109.888 Y163.635 E.01871
G1 X110.112 Y163.412 E.01049
G1 X110.112 Y162.847 E.01871
G1 X109.888 Y163.071 E.01049
G1 X109.888 Y162.507 E.01871
G1 X110.112 Y162.283 E.01049
G1 X110.112 Y161.719 E.01871
G1 X109.888 Y161.943 E.01049
G1 X109.888 Y161.379 E.01871
G1 X110.112 Y161.155 E.01049
G1 X110.112 Y160.591 E.01871
G1 X109.888 Y160.815 E.01049
G1 X109.888 Y160.251 E.01871
G1 X110.112 Y160.027 E.01049
G1 X110.112 Y159.463 E.01871
G1 X109.888 Y159.687 E.01049
G1 X109.888 Y159.122 E.01871
G1 X110.112 Y158.899 E.01049
G1 X110.112 Y158.335 E.01871
G1 X109.888 Y158.558 E.01049
G1 X109.888 Y157.994 E.01871
G1 X110.112 Y157.77 E.01049
G1 X110.112 Y157.206 E.01871
G1 X109.888 Y157.43 E.01049
G1 X109.888 Y156.866 E.01871
G1 X110.112 Y156.642 E.01049
G1 X110.112 Y156.078 E.01871
G1 X109.888 Y156.302 E.01049
G1 X109.888 Y155.738 E.01871
G1 X110.112 Y155.514 E.01049
G1 X110.112 Y154.95 E.01871
G1 X109.888 Y155.174 E.01049
G1 X109.888 Y154.61 E.01871
G1 X110.112 Y154.386 E.01049
G1 X110.112 Y153.822 E.01871
G1 X109.888 Y154.045 E.01049
G1 X109.888 Y153.481 E.01871
G1 X110.112 Y153.258 E.01049
G1 X110.112 Y152.693 E.01871
G1 X109.888 Y152.917 E.01049
G1 X109.888 Y152.353 E.01871
G1 X110.112 Y152.129 E.01049
G1 X110.112 Y151.565 E.01871
G1 X109.888 Y151.789 E.01049
G1 X109.888 Y151.225 E.01871
G1 X110.112 Y151.001 E.01049
G1 X110.112 Y150.437 E.01871
G1 X109.888 Y150.661 E.01049
G1 X109.888 Y150.097 E.01871
G1 X110.112 Y149.873 E.01049
G1 X110.112 Y149.309 E.01871
G1 X109.888 Y149.533 E.01049
G1 X109.888 Y148.968 E.01871
G1 X110.112 Y148.745 E.01049
G1 X110.112 Y148.181 E.01871
G1 X109.888 Y148.404 E.01049
G1 X109.888 Y147.84 E.01871
G1 X110.112 Y147.616 E.01049
G1 X110.112 Y147.052 E.01871
G1 X109.888 Y147.276 E.01049
G1 X109.888 Y146.712 E.01871
G1 X110.112 Y146.488 E.01049
G1 X110.112 Y145.924 E.01871
G1 X109.888 Y146.148 E.01049
G1 X109.888 Y145.584 E.01871
G1 X110.112 Y145.36 E.01049
G1 X110.112 Y144.796 E.01871
G1 X109.888 Y145.02 E.01049
G1 X109.888 Y144.456 E.01871
G1 X110.112 Y144.232 E.01049
G1 X110.112 Y143.668 E.01871
G1 X109.888 Y143.891 E.01049
G1 X109.888 Y143.327 E.01871
G1 X110.112 Y143.104 E.01049
G1 X110.112 Y142.539 E.01871
G1 X109.888 Y142.763 E.01049
G1 X109.888 Y142.199 E.01871
G1 X110.112 Y141.975 E.01049
G1 X110.112 Y141.411 E.01871
G1 X109.888 Y141.635 E.01049
G1 X109.888 Y141.071 E.01871
G1 X110.112 Y140.847 E.01049
G1 X110.112 Y140.283 E.01871
G1 X109.888 Y140.507 E.01049
G1 X109.888 Y139.943 E.01871
G1 X110.112 Y139.719 E.01049
G1 X110.112 Y139.155 E.01871
G1 X109.888 Y139.379 E.01049
G1 X109.888 Y138.814 E.01871
G1 X110.112 Y138.591 E.01049
G1 X110.112 Y138.027 E.01871
G1 X109.888 Y138.25 E.01049
G1 X109.888 Y137.686 E.01871
G1 X110.112 Y137.462 E.01049
G1 X110.112 Y136.898 E.01871
G1 X109.888 Y137.122 E.01049
G1 X109.888 Y136.558 E.01871
G1 X110.112 Y136.334 E.01049
G1 X110.112 Y135.77 E.01871
G1 X109.888 Y135.994 E.01049
G1 X109.888 Y135.43 E.01871
G1 X110.112 Y135.206 E.01049
G1 X110.112 Y134.642 E.01871
G1 X109.888 Y134.866 E.01049
G1 X109.888 Y134.302 E.01871
G1 X110.112 Y134.078 E.01049
G1 X110.112 Y133.514 E.01871
G1 X109.888 Y133.737 E.01049
G1 X109.888 Y133.173 E.01871
G1 X110.112 Y132.95 E.01049
G1 X110.112 Y132.385 E.01871
G1 X109.888 Y132.609 E.01049
G1 X109.888 Y132.045 E.01871
G1 X110.112 Y131.821 E.01049
G1 X110.112 Y131.257 E.01871
G1 X109.888 Y131.481 E.01049
G1 X109.888 Y130.917 E.01871
G1 X110.112 Y130.693 E.01049
G1 X110.112 Y130.129 E.01871
G1 X109.888 Y130.353 E.01049
G1 X109.888 Y129.789 E.01871
G1 X110.112 Y129.565 E.01049
G1 X110.112 Y129.001 E.01871
G1 X109.888 Y129.225 E.01049
G1 X109.888 Y128.66 E.01871
G1 X110.112 Y128.437 E.01049
G1 X110.112 Y127.873 E.01871
G1 X109.888 Y128.096 E.01049
G1 X109.888 Y127.532 E.01871
G1 X110.112 Y127.308 E.01049
G1 X110.112 Y126.744 E.01871
G1 X109.888 Y126.968 E.01049
G1 X109.888 Y126.404 E.01871
G1 X110.112 Y126.18 E.01049
G1 X110.112 Y125.616 E.01871
G1 X109.888 Y125.84 E.01049
G1 X109.888 Y125.276 E.01871
G1 X110.112 Y125.052 E.01049
G1 X110.112 Y124.488 E.01871
G1 X109.888 Y124.712 E.01049
G1 X109.888 Y124.148 E.01871
G1 X110.112 Y123.924 E.01049
G1 X110.112 Y123.36 E.01871
G1 X109.888 Y123.583 E.01049
G1 X109.888 Y123.019 E.01871
G1 X110.112 Y122.796 E.01049
G1 X110.112 Y122.231 E.01871
G1 X109.888 Y122.455 E.01049
G1 X109.888 Y121.891 E.01871
G1 X110.112 Y121.667 E.01049
G1 X110.112 Y121.103 E.01871
G1 X109.888 Y121.327 E.01049
G1 X109.888 Y120.763 E.01871
G1 X110.112 Y120.539 E.01049
G1 X110.112 Y119.975 E.01871
G1 X109.888 Y120.199 E.01049
G1 X109.888 Y119.635 E.01871
G1 X110.112 Y119.411 E.01049
G1 X110.112 Y118.847 E.01871
G1 X109.888 Y119.071 E.01049
G1 X109.888 Y118.506 E.01871
G1 X110.112 Y118.283 E.01049
G1 X110.112 Y117.719 E.01871
G1 X109.888 Y117.942 E.01049
G1 X109.888 Y117.378 E.01871
G1 X110.112 Y117.154 E.01049
G1 X110.112 Y116.59 E.01871
G1 X109.888 Y116.814 E.01049
G1 X109.888 Y116.25 E.01871
G1 X110.112 Y116.026 E.01049
G1 X110.112 Y115.462 E.01871
G1 X109.888 Y115.686 E.01049
G1 X109.888 Y115.122 E.01871
G1 X110.112 Y114.898 E.01049
G1 X110.112 Y114.334 E.01871
G1 X109.888 Y114.558 E.01049
G1 X109.888 Y113.994 E.01871
G1 X110.112 Y113.77 E.01049
G1 X110.112 Y113.206 E.01871
G1 X109.888 Y113.429 E.01049
