; generated by PrusaSlicer 2.8.1+linux-x64-GTK3 on 2025-10-14 at 10:24:07 UTC

; 

; external perimeters extrusion width = 0.42mm
; perimeters extrusion width = 0.44mm
; infill extrusion width = 0.44mm
; solid infill extrusion width = 0.44mm
; top infill extrusion width = 0.40mm
; support material extrusion width = 0.36mm
; first layer extrusion width = 0.42mm

; external perimeters extrusion width = 0.42mm
; perimeters extrusion width = 0.44mm
; infill extrusion width = 0.44mm
; solid infill extrusion width = 0.44mm
; top infill extrusion width = 0.40mm
; support material extrusion width = 0.36mm
; first layer extrusion width = 0.42mm

; external perimeters extrusion width = 0.42mm
; perimeters extrusion width = 0.44mm
; infill extrusion width = 0.44mm
; solid infill extrusion width = 0.44mm
; top infill extrusion width = 0.40mm
; support material extrusion width = 0.36mm
; first layer extrusion width = 0.42mm

; external perimeters extrusion width = 0.42mm
; perimeters extrusion width = 0.44mm
; infill extrusion width = 0.44mm
; solid infill extrusion width = 0.44mm
; top infill extrusion width = 0.40mm
; support material extrusion width = 0.36mm
; first layer extrusion width = 0.42mm

M201 X500 Y500 Z100 E5000 ; sets maximum accelerations, mm/sec^2
M203 X500 Y500 Z10 E60 ; sets maximum feedrates, mm / sec
M204 S500 T1000 ; sets acceleration (S) and retract acceleration (R), mm/sec^2
M205 X8.00 Y8.00 Z0.40 E5.00 ; sets the jerk limits, mm/sec
M205 S0 T0 ; sets the minimum extruding and travel feed rate, mm/sec
;TYPE:Custom
G90 ; use absolute coordinates
M83 ; extruder relative mode
M104 S150 ; set temporary nozzle temp to prevent oozing during homing
M140 S60 ; set final bed temp
G4 S30 ; allow partial nozzle warmup
G28 ; home all axis and restore leveling
G1 Z50 F240
G1 X2.0 Y10 F3000
M104 S210 ; set final nozzle temp
M190 S60 ; wait for bed temp to stabilize
M109 S210 ; wait for nozzle temp to stabilize
G1 Z0.28 F240
G92 E0
G1 X2.0 Y140 E10 F1500 ; prime the nozzle
G1 X2.3 Y140 F5000
G92 E0
G1 X2.3 Y10 E10 F1200 ; prime the nozzle
G92 E0
G21 ; set units to millimeters
G90 ; use absolute coordinates
M83 ; use relative distances for extrusion
; Filament gcode
M107
;LAYER_CHANGE
;Z:0.2
;HEIGHT:0.2
G1 E-.8 F1800
G1 Z.2 F9000
G1 X73.121 Y47.843
G1 Z.2
G1 E.8 F1800
M204 S500
;TYPE:Skirt/Brim
;WIDTH:0.42
G1 F1200
G1 X74.205 Y46.687 E.04969
G1 X75.916 Y46.189 E.05587
G1 X144.084 Y46.189 E2.13736
G1 X145.619 Y46.583 E.04969
G1 X146.775 Y47.667 E.04969
G1 X147.273 Y49.378 E.05587
G1 X147.273 Y170.622 E3.80152
G1 X146.879 Y172.157 E.04969
G1 X145.795 Y173.313 E.04969
G1 X144.084 Y173.811 E.05587
G1 X75.916 Y173.811 E2.13736
G1 X74.381 Y173.417 E.04969
G1 X73.225 Y172.333 E.04969
G1 X72.727 Y170.622 E.05587
G1 X72.727 Y49.378 E3.80152
G1 X73.106 Y47.901 E.04781
;WIPE_START
G1 F7200
G1 X73.121 Y47.843 E-.01423
G1 X74.205 Y46.687 E-.37638
G1 X75.86 Y46.206 E-.40939
;WIPE_END
G1 X144.084 Y136.378 F9000
G1 E.8 F1800
;TYPE:Support material interface
;WIDTH:0.36
G1 F1200
G1 X144.084 Y170.622 E.90285
G1 X143.567 Y170.622 E.01363
G1 X143.567 Y136.378 E.90285
G1 X143.05 Y136.378 E.01363
G1 X143.05 Y137.089 E.01875
G1 X142.816 Y137.089 E.00617
G1 X142.816 Y136.378 E.01875
G1 X142.891 Y136.378 E.00198
;WIPE_START
G1 F7200
G1 X142.816 Y136.378 E-.01781
G1 X142.816 Y137.089 E-.16886
G1 X143.05 Y137.089 E-.05558
G1 X143.05 Y136.378 E-.16886
G1 X143.567 Y136.378 E-.12279
G1 X143.567 Y137.498 E-.2661
;WIPE_END
G1 X143.313 Y169.784 F9000
G1 E.8 F1800
G1 F1200
G1 X143.187 Y169.911 E.00472
G1 X143.05 Y169.911 E.00361
G1 X143.05 Y170.622 E.01875
G1 X142.816 Y170.622 E.00617
G1 X142.816 Y169.911 E.01875
G1 X142.891 Y169.911 E.00198
;WIPE_START
G1 F7200
G1 X142.816 Y169.911 E-.01781
G1 X142.816 Y170.622 E-.16886
G1 X143.05 Y170.622 E-.05558
G1 X143.05 Y169.911 E-.16886
G1 X143.187 Y169.911 E-.03254
G1 X143.313 Y169.784 E-.04249
;WIPE_END
G1 E-.31386 F1800
G1 X139.684 Y169.781 F9000
G1 E.8 F1800
G1 F1200
G1 X139.814 Y169.911 E.00485
G1 X139.948 Y169.911 E.00353
G1 X139.948 Y170.622 E.01875
G1 X139.43 Y170.622 E.01366
G1 X139.43 Y136.378 E.90285
G1 X139.948 Y136.378 E.01366
G1 X139.948 Y137.089 E.01875
G1 X139.814 Y137.089 E.00353
G1 X139.684 Y137.219 E.00485
G1 X139.684 Y137.219 F9000
G1 X139.272 Y136.378
G1 F1200
G1 X138.913 Y136.378 E.00947
G1 X138.913 Y170.622 E.90285
G1 X139.272 Y170.622 E.00947
;WIPE_START
G1 F7200
G1 X138.913 Y170.622 E-.08526
G1 X138.913 Y167.613 E-.71474
;WIPE_END
G1 X141.303 Y138.192 F9000
G1 E.8 F1800
;TYPE:Perimeter
;WIDTH:0.428953
G1 F1200
G1 X141.689 Y138.192 E.01239
G1 X141.689 Y138.385 E.0062
G1 X141.689 Y168.808 E.97654
G1 X141.303 Y168.808 E.01239
G1 X141.303 Y138.252 E.98081
G1 X141.303 Y138.252 F9000
G1 X140.922 Y137.81
;TYPE:External perimeter
;WIDTH:0.419999
G1 F1200
G1 X142.071 Y137.81 E.03603
G1 X142.071 Y138.385 E.01803
G1 X142.071 Y169.19 E.96587
G1 X140.922 Y169.19 E.03603
G1 X140.922 Y137.87 E.98201
M106 S255
;LAYER_CHANGE
;Z:0.4
;HEIGHT:0.2
;BEFORE_LAYER_CHANGE
G92 E0
;0.4


;WIPE_START
G1 F7200
G1 X140.922 Y137.81 E-.01425
G1 X142.071 Y137.81 E-.27289
G1 X142.071 Y138.385 E-.13656
G1 X142.071 Y139.969 E-.3763
;WIPE_END
G1 Z.4 F9000
;AFTER_LAYER_CHANGE
;0.4
M104 S205 ; set temperature
G1 Z.4
G1 X147.273 Y137.87
G1 E.8 F1800
;TYPE:Skirt/Brim
;WIDTH:0.42
G1 F2075
G1 X147.273 Y170.622 E1.02692
G1 X146.879 Y172.157 E.04969
G1 X145.795 Y173.313 E.04969
G1 X144.084 Y173.811 E.05587
G1 X75.916 Y173.811 E2.13736
G1 X74.381 Y173.417 E.04969
G1 X73.225 Y172.333 E.04969
G1 X72.727 Y170.622 E.05587
G1 X72.727 Y49.378 E3.80152
G1 X73.121 Y47.843 E.04969
G1 X74.205 Y46.687 E.04969
G1 X75.916 Y46.189 E.05587
G1 X144.084 Y46.189 E2.13736
G1 X145.619 Y46.583 E.04969
G1 X146.775 Y47.667 E.04969
G1 X147.273 Y49.378 E.05587
G1 X147.273 Y137.81 E2.77272
;WIPE_START
G1 F7200
G1 X147.273 Y137.87 E-.01425
G1 X147.273 Y141.178 E-.78575
;WIPE_END
G1 X142.022 Y138.494 F9000
G1 E.8 F1800
;TYPE:Perimeter
;WIDTH:0.439999
G1 F2075
G1 X142.022 Y139.016 E.01724
G1 X142.022 Y168.506 E.97368
G1 X140.978 Y168.506 E.03447
G1 X140.978 Y138.494 E.99091
G1 X141.962 Y138.494 E.03249
G1 X141.962 Y138.494 F9000
G1 X142.42 Y138.097
G1 F2075
G1 X142.42 Y139.016 E.03034
G1 X142.42 Y168.903 E.98679
G1 X140.581 Y168.903 E.06072
G1 X140.581 Y138.097 E1.01713
G1 X142.36 Y138.097 E.05874
G1 X142.36 Y138.097 F9000
G1 X142.807 Y137.71
M204 S250
;TYPE:Overhang perimeter
;WIDTH:0.389872
;HEIGHT:0.389872
G1 F1500
G1 X142.807 Y139.016 E.06482
G1 X142.807 Y169.29 E1.50258
G1 X142.581 Y169.29 E.01122
M204 S500
;TYPE:External perimeter
;WIDTH:0.419999
;HEIGHT:0.2
G1 X140.412 Y169.29 E.06801
M204 S250
;TYPE:Overhang perimeter
;WIDTH:0.389872
;HEIGHT:0.389872
G1 X140.194 Y169.29 E.01082
G1 X140.194 Y137.71 E1.5674
G1 X140.412 Y137.71 E.01082
M204 S500
;TYPE:External perimeter
;WIDTH:0.419999
;HEIGHT:0.2
G1 X142.581 Y137.71 E.06801
M204 S250
;TYPE:Overhang perimeter
;WIDTH:0.389872
;HEIGHT:0.389872
G1 X142.747 Y137.71 E.00824
M204 S500
;WIPE_START
G1 F7200
G1 X142.807 Y137.71 E-.01425
G1 X142.807 Y139.016 E-.31017
;WIPE_END
G1 E-.47558 F1800
G1 X141.293 Y138.809 F9000
G1 E.8 F1800
;TYPE:Solid infill
;WIDTH:0.458023
;HEIGHT:0.2
G1 F2075
G1 X141.708 Y138.809 E.01432
G1 X141.708 Y168.191 E1.01415
G1 X141.293 Y168.191 E.01432
G1 X141.293 Y139.007 E1.00731
;LAYER_CHANGE
;Z:0.45
;HEIGHT:0.05
;BEFORE_LAYER_CHANGE
G92 E0
;0.45


;WIPE_START
G1 F7200
G1 X141.293 Y142.375 E-.8
;WIPE_END
G1 Z.45 F9000
;AFTER_LAYER_CHANGE
;0.45
G1 Z.45
G1 X142.891 Y169.911
G1 E.8 F1800
;TYPE:Support material interface
;WIDTH:0.36
;HEIGHT:0.25
G1 F1251
G1 X142.816 Y169.911 E.00239
G1 X142.816 Y170.622 E.02264
G1 X143.05 Y170.622 E.00745
G1 X143.05 Y169.911 E.02264
G1 X143.567 Y169.911 E.01646
G1 X143.567 Y170.622 E.02264
G1 X144.084 Y170.622 E.01646
G1 X144.084 Y136.378 E1.09037
G1 X143.567 Y136.378 E.01646
G1 X143.567 Y137.089 E.02264
G1 X143.05 Y137.089 E.01646
G1 X143.05 Y136.378 E.02264
G1 X142.816 Y136.378 E.00745
G1 X142.816 Y137.089 E.02264
G1 X142.891 Y137.089 E.00239
;WIPE_START
G1 F7200
G1 X142.816 Y137.089 E-.01781
G1 X142.816 Y136.378 E-.16886
G1 X143.05 Y136.378 E-.05558
G1 X143.05 Y137.089 E-.16886
G1 X143.567 Y137.089 E-.12279
G1 X143.567 Y136.378 E-.16886
G1 X143.977 Y136.378 E-.09724
;WIPE_END
G1 X140.106 Y137.089 F9000
G1 E.8 F1800
G1 F1251
G1 X140.182 Y137.089 E.00242
G1 X140.182 Y136.378 E.02264
G1 X139.948 Y136.378 E.00745
G1 X139.948 Y137.089 E.02264
G1 X139.43 Y137.089 E.01649
G1 X139.43 Y136.378 E.02264
G1 X138.913 Y136.378 E.01646
G1 X138.913 Y170.622 E1.09037
G1 X139.272 Y170.622 E.01143
G1 X140.106 Y170.622 F9000
G1 F1251
G1 X140.182 Y170.622 E.00242
G1 X140.182 Y169.911 E.02264
G1 X139.948 Y169.911 E.00745
G1 X139.948 Y170.622 E.02264
G1 X139.43 Y170.622 E.01649
G1 X139.43 Y169.911 E.02264
G1 X139.167 Y169.683 E.01108
;LAYER_CHANGE
;Z:0.6
;HEIGHT:0.15
;BEFORE_LAYER_CHANGE
G92 E0
;0.6


;WIPE_START
G1 F7200
G1 X139.43 Y169.911 E-.08267
G1 X139.43 Y170.622 E-.16886
G1 X139.948 Y170.622 E-.12303
G1 X139.948 Y169.911 E-.16886
G1 X140.182 Y169.911 E-.05558
G1 X140.182 Y170.622 E-.16886
G1 X140.106 Y170.622 E-.01805
;WIPE_END
G1 E-.01409 F1800
G1 Z.6 F9000
;AFTER_LAYER_CHANGE
;0.6
G1 Z.6
G1 X140.558 Y168.506
G1 E.8 F1800
;TYPE:Perimeter
;WIDTH:0.439999
;HEIGHT:0.2
G1 F1251
G1 X140.558 Y138.494 E.99091
G1 X142.439 Y138.494 E.06211
G1 X142.439 Y139.434 E.03104
G1 X142.439 Y168.506 E.95988
G1 X140.618 Y168.506 E.06012
G1 X140.618 Y168.506 F9000
G1 X140.161 Y168.903
G1 F1251
G1 X140.161 Y138.097 E1.01713
G1 X142.836 Y138.097 E.08832
G1 X142.836 Y139.434 E.04414
G1 X142.836 Y168.903 E.97299
G1 X140.221 Y168.903 E.08634
G1 X140.221 Y168.903 F9000
G1 X139.784 Y169.29
M204 S250
;TYPE:Overhang perimeter
;WIDTH:0.389872
;HEIGHT:0.389872
G1 F1500
G1 X139.784 Y137.71 E1.5674
M204 S500
;TYPE:External perimeter
;WIDTH:0.419999
;HEIGHT:0.2
G1 F1251
G1 X143.217 Y137.71 E.10764
M204 S250
;TYPE:Overhang perimeter
;WIDTH:0.389872
;HEIGHT:0.389872
G1 F1500
G1 X143.223 Y139.434 E.08557
G1 X143.217 Y169.29 E1.48183
M204 S500
;TYPE:External perimeter
;WIDTH:0.419999
;HEIGHT:0.2
G1 F1251
G1 X139.844 Y169.29 E.10576
;WIPE_START
G1 F7200
G1 X139.784 Y169.29 E-.01425
G1 X139.784 Y165.982 E-.78575
;WIPE_END
G1 X140.864 Y138.998 F9000
G1 E.8 F1800
;TYPE:Solid infill
;WIDTH:0.439999
G1 F1251
G1 X140.864 Y168.2 E.96417
G1 X142.133 Y168.2 E.0419
G1 X142.133 Y138.8 E.97071
G1 X140.864 Y138.8 E.0419
;WIPE_START
G1 F7200
G1 X142.133 Y138.8 E-.30139
G1 X142.133 Y140.899 E-.49861
;WIPE_END
G1 X141.28 Y167.784 F9000
G1 E.8 F1800
;WIDTH:0.47876
G1 F1251
G1 X141.28 Y139.216 E1.03531
G1 X141.716 Y139.216 E.0158
G1 X141.716 Y167.784 E1.03531
G1 X141.479 Y167.784 E.00859
;LAYER_CHANGE
;Z:0.65
;HEIGHT:0.05
;BEFORE_LAYER_CHANGE
G92 E0
;0.65


;WIPE_START
G1 F7200
G1 X141.716 Y167.784 E-.05629
G1 X141.716 Y164.653 E-.74371
;WIPE_END
G1 Z.65 F9000
;AFTER_LAYER_CHANGE
;0.65
G1 Z.65
G1 X138.913 Y170.622
G1 E.8 F1800
;TYPE:Support material interface
;WIDTH:0.36
;HEIGHT:0.2
G1 F1260
G1 X138.913 Y169.752 E.02294
G1 X139.072 Y169.911 E.00593
G1 X139.43 Y169.911 E.00944
G1 X139.43 Y170.622 E.01875
G1 X139.948 Y170.622 E.01366
G1 X139.948 Y169.911 E.01875
G1 X140.182 Y169.911 E.00617
G1 X140.182 Y170.622 E.01875
G1 X140.106 Y170.622 E.002
;WIPE_START
G1 F7200
G1 X140.182 Y170.622 E-.01805
G1 X140.182 Y169.911 E-.16886
G1 X139.948 Y169.911 E-.05558
G1 X139.948 Y170.622 E-.16886
G1 X139.43 Y170.622 E-.12303
G1 X139.43 Y169.911 E-.16886
G1 X139.072 Y169.911 E-.08503
G1 X139.037 Y169.876 E-.01173
;WIPE_END
G1 X142.891 Y169.911 F9000
G1 E.8 F1800
G1 F1260
G1 X142.816 Y169.911 E.00198
G1 X142.816 Y170.622 E.01875
G1 X143.05 Y170.622 E.00617
G1 X143.05 Y169.911 E.01875
G1 X143.567 Y169.911 E.01363
G1 X143.567 Y170.622 E.01875
G1 X144.084 Y170.622 E.01363
G1 X144.084 Y169.755 E.02286
;WIPE_START
G1 F7200
G1 X144.084 Y170.622 E-.20591
G1 X143.567 Y170.622 E-.12279
G1 X143.567 Y169.911 E-.16886
G1 X143.05 Y169.911 E-.12279
G1 X143.05 Y170.622 E-.16886
G1 X143.005 Y170.622 E-.01079
;WIPE_END
G1 X138.913 Y137.248 F9000
G1 E.8 F1800
G1 F1260
G1 X138.913 Y136.378 E.02294
G1 X139.43 Y136.378 E.01363
G1 X139.43 Y137.089 E.01875
G1 X139.948 Y137.089 E.01366
G1 X139.948 Y136.378 E.01875
G1 X140.182 Y136.378 E.00617
G1 X140.182 Y137.089 E.01875
G1 X140.106 Y137.089 E.002
;WIPE_START
G1 F7200
G1 X140.182 Y137.089 E-.01805
G1 X140.182 Y136.378 E-.16886
G1 X139.948 Y136.378 E-.05558
G1 X139.948 Y137.089 E-.16886
G1 X139.43 Y137.089 E-.12303
G1 X139.43 Y136.378 E-.16886
G1 X139.023 Y136.378 E-.09676
;WIPE_END
G1 X142.891 Y136.378 F9000
G1 E.8 F1800
G1 F1260
G1 X142.816 Y136.378 E.00198
G1 X142.816 Y137.089 E.01875
G1 X143.05 Y137.089 E.00617
G1 X143.05 Y136.378 E.01875
G1 X143.567 Y136.378 E.01363
G1 X143.567 Y137.089 E.01875
G1 X143.928 Y137.089 E.00952
G1 X144.084 Y137.245 E.00582
G1 X144.084 Y136.378 E.02286
;LAYER_CHANGE
;Z:0.8
;HEIGHT:0.15
;BEFORE_LAYER_CHANGE
G92 E0
;0.8


;WIPE_START
G1 F7200
G1 X144.084 Y137.245 E-.20591
G1 X143.928 Y137.089 E-.0524
G1 X143.567 Y137.089 E-.08574
G1 X143.567 Y136.378 E-.16886
G1 X143.05 Y136.378 E-.12279
G1 X143.05 Y137.07 E-.1643
;WIPE_END
G1 Z.8 F9000
;AFTER_LAYER_CHANGE
;0.8
G1 Z.8
G1 X142.764 Y138.494
G1 E.8 F1800
;TYPE:Perimeter
;WIDTH:0.439999
;HEIGHT:0.2
G1 F1260
G1 X142.764 Y139.758 E.04173
G1 X142.764 Y168.506 E.94918
G1 X140.236 Y168.506 E.08347
G1 X140.236 Y138.494 E.99091
G1 X142.704 Y138.494 E.08149
G1 X142.704 Y138.494 F9000
G1 X143.161 Y138.097
G1 F1260
G1 X143.161 Y139.758 E.05484
G1 X143.161 Y168.903 E.96229
G1 X139.839 Y168.903 E.10968
G1 X139.839 Y138.097 E1.01713
G1 X143.101 Y138.097 E.1077
G1 X143.548 Y137.71 F9000
;TYPE:External perimeter
;WIDTH:0.419999
G1 F1260
G1 X143.548 Y139.758 E.06421
G1 X143.548 Y169.29 E.92595
G1 X139.452 Y169.29 E.12843
G1 X139.452 Y137.71 E.99017
G1 X143.488 Y137.71 E.12655
;WIPE_START
G1 F7200
G1 X143.548 Y137.71 E-.01425
G1 X143.548 Y139.758 E-.4864
G1 X143.548 Y141.018 E-.29935
;WIPE_END
G1 X140.542 Y138.8 F9000
G1 E.8 F1800
;TYPE:Solid infill
;WIDTH:0.439999
G1 F1260
G1 X142.458 Y138.8 E.06326
G1 X142.458 Y168.2 E.97071
G1 X140.542 Y168.2 E.06326
G1 X140.542 Y138.998 E.96417
G1 X140.939 Y139.197 E.01466
G1 X142.061 Y139.197 E.03705
G1 X142.061 Y167.803 E.94449
G1 X140.939 Y167.803 E.03705
G1 X140.939 Y139.396 E.93792
G1 X141.319 Y139.577 E.0139
;WIDTH:0.405527
G1 X141.681 Y139.577 E.01091
G1 X141.681 Y167.423 E.83958
G1 X141.319 Y167.423 E.01091
G1 X141.319 Y139.775 E.83361
;LAYER_CHANGE
;Z:1
;HEIGHT:0.2
;BEFORE_LAYER_CHANGE
G92 E0
;1


;WIPE_START
G1 F7200
G1 X141.319 Y143.143 E-.8
;WIPE_END
G1 Z1 F9000
;AFTER_LAYER_CHANGE
;1
G1 Z1
G1 X139.969 Y138.494
G1 E.8 F1800
;TYPE:Perimeter
;WIDTH:0.439999
G1 F1169
G1 X143.034 Y138.494 E.1012
G1 X143.034 Y140.026 E.05058
G1 X143.034 Y168.506 E.94033
G1 X139.969 Y168.506 E.1012
G1 X139.969 Y138.554 E.98893
G1 X139.969 Y138.554 F9000
G1 X139.572 Y138.097
G1 F1169
G1 X143.431 Y138.097 E.12741
G1 X143.431 Y140.026 E.06369
G1 X143.431 Y168.903 E.95344
G1 X139.572 Y168.903 E.12741
G1 X139.572 Y138.157 E1.01515
G1 X139.572 Y138.157 F9000
G1 X139.185 Y137.71
;TYPE:External perimeter
;WIDTH:0.419999
G1 F1169
G1 X143.818 Y137.71 E.14526
G1 X143.818 Y140.026 E.07262
G1 X143.818 Y169.29 E.91755
G1 X139.185 Y169.29 E.14526
G1 X139.185 Y137.77 E.98829
;WIPE_START
G1 F7200
G1 X139.185 Y137.71 E-.01425
G1 X142.493 Y137.71 E-.78575
;WIPE_END
G1 X141.812 Y139.385 F9000
G1 E.8 F1800
;TYPE:Internal infill
;WIDTH:0.44
G1 F1169
G1 X141.367 Y138.94 E.02078
G1 X141.367 Y139.506 E.01869
G1 X141.633 Y139.772 E.01242
G1 X141.633 Y140.338 E.01869
G1 X141.367 Y140.072 E.01242
G1 X141.367 Y140.638 E.01869
G1 X141.633 Y140.904 E.01242
G1 X141.633 Y141.47 E.01869
G1 X141.367 Y141.203 E.01244
G1 X141.367 Y141.769 E.01869
G1 X141.633 Y142.035 E.01242
G1 X141.633 Y142.601 E.01869
G1 X141.367 Y142.335 E.01242
G1 X141.367 Y142.901 E.01869
G1 X141.633 Y143.167 E.01242
G1 X141.633 Y143.733 E.01869
G1 X141.367 Y143.466 E.01244
G1 X141.367 Y144.032 E.01869
G1 X141.633 Y144.298 E.01242
G1 X141.633 Y144.864 E.01869
G1 X141.367 Y144.598 E.01242
G1 X141.367 Y145.164 E.01869
G1 X141.633 Y145.43 E.01242
G1 X141.633 Y145.996 E.01869
