; generated by PrusaSlicer 2.8.1+linux-x64-GTK3 on 2025-10-16 at 05:37:41 UTC

; 

; external perimeters extrusion width = 0.42mm
; perimeters extrusion width = 0.44mm
; infill extrusion width = 0.44mm
; solid infill extrusion width = 0.44mm
; top infill extrusion width = 0.40mm
; first layer extrusion width = 0.42mm

M201 X500 Y500 Z100 E5000 ; sets maximum accelerations, mm/sec^2
M203 X500 Y500 Z10 E60 ; sets maximum feedrates, mm / sec
M204 S500 T1000 ; sets acceleration (S) and retract acceleration (R), mm/sec^2
M205 X8.00 Y8.00 Z0.40 E5.00 ; sets the jerk limits, mm/sec
M205 S0 T0 ; sets the minimum extruding and travel feed rate, mm/sec

; printing object Wheel_27mm_8,4mm id:0 copy 0
; stop printing object Wheel_27mm_8,4mm id:0 copy 0

;TYPE:Custom
G90 ; use absolute coordinates
M83 ; extruder relative mode
M104 S130 ; set temporary nozzle temp to prevent oozing during homing
M140 S30 ; set final bed temp
G4 S30 ; allow partial nozzle warmup
G28 ; home all axis and restore leveling
G1 Z50 F240
G1 X2.0 Y10 F3000
M104 S245 ; set final nozzle temp
M190 S30 ; wait for bed temp to stabilize
M109 S245 ; wait for nozzle temp to stabilize
G1 Z0.28 F240
G92 E0
G1 X2.0 Y140 E10 F1500 ; prime the nozzle
G1 X2.3 Y140 F5000
G92 E0
G1 X2.3 Y10 E10 F1200 ; prime the nozzle
G92 E0
G21 ; set units to millimeters
G90 ; use absolute coordinates
M83 ; use relative distances for extrusion
; Filament gcode
M107
;LAYER_CHANGE
;Z:0.2
;HEIGHT:0.2
G1 X98.117 Y97.752 F9000
G1 Z.2
M204 S500
;TYPE:Skirt/Brim
;WIDTH:0.42
G1 F954.706
G1 X99.195 Y96.791 E.05253
G1 X100.667 Y95.713 E.06636
G1 X101.908 Y94.976 E.0525
G1 X103.684 Y94.147 E.07129
G1 X105.412 Y93.563 E.06634
G1 X106.774 Y93.242 E.05089
G1 X108.626 Y92.99 E.06798
G1 X110.092 Y92.935 E.05336
G1 X112.025 Y93.055 E.07044
G1 X113.822 Y93.368 E.06634
G1 X115.214 Y93.751 E.05251
G1 X116.918 Y94.4 E.06632
G1 X118.212 Y95.041 E.05252
G1 X119.762 Y96.003 E.06635
G1 X120.91 Y96.878 E.0525
G1 X122.248 Y98.117 E.06632
G1 X123.209 Y99.195 E.05253
G1 X124.285 Y100.665 E.06626
G1 X125.024 Y101.908 E.0526
G1 X125.802 Y103.557 E.06632
G1 X126.29 Y104.916 E.05252
G1 X126.758 Y106.774 E.06969
G1 X127.01 Y108.626 E.06798
G1 X127.065 Y110.068 E.05249
G1 X126.96 Y111.889 E.06634
G1 X126.74 Y113.316 E.05251
G1 X126.29 Y115.084 E.06635
G1 X125.802 Y116.443 E.05252
G1 X125.024 Y118.092 E.06632
G1 X124.287 Y119.333 E.0525
G1 X123.209 Y120.805 E.06636
G1 X121.883 Y122.248 E.07128
G1 X120.805 Y123.209 E.05253
G1 X119.333 Y124.287 E.06636
G1 X118.092 Y125.024 E.0525
G1 X116.316 Y125.853 E.07129
G1 X114.596 Y126.434 E.06603
G1 X113.182 Y126.766 E.05283
G1 X111.374 Y127.01 E.06635
G1 X109.932 Y127.065 E.05249
G1 X108.111 Y126.96 E.06634
G1 X106.684 Y126.74 E.05251
G1 X104.916 Y126.29 E.06635
G1 X103.557 Y125.802 E.05252
G1 X101.915 Y125.028 E.06602
G1 X100.667 Y124.287 E.05279
G1 X99.195 Y123.209 E.06636
G1 X97.753 Y121.884 E.07123
G1 X96.791 Y120.805 E.05258
G1 X95.713 Y119.333 E.06636
G1 X94.976 Y118.092 E.0525
G1 X94.151 Y116.326 E.07089
G1 X93.563 Y114.588 E.06673
G1 X93.234 Y113.182 E.05252
G1 X92.99 Y111.374 E.06635
G1 X92.935 Y109.932 E.05249
G1 X93.04 Y108.111 E.06634
G1 X93.26 Y106.684 E.05251
G1 X93.707 Y104.925 E.06601
G1 X94.198 Y103.557 E.05286
G1 X94.976 Y101.908 E.06632
G1 X95.727 Y100.647 E.05338
G1 X96.878 Y99.09 E.07042
G1 X98.077 Y97.796 E.06416
G1 X98.077 Y97.796 F9000
G1 X98.353 Y98.052
G1 F954.706
G1 X98.384 Y98.018 E.00167
G1 X99.429 Y97.087 E.0509
G1 X100.878 Y96.026 E.06532
G1 X102.081 Y95.31 E.05092
G1 X103.818 Y94.499 E.06972
G1 X105.519 Y93.925 E.06529
G1 X106.843 Y93.613 E.04947
G1 X108.662 Y93.366 E.06677
G1 X110.085 Y93.313 E.05179
G1 X111.975 Y93.429 E.06887
G1 X113.743 Y93.737 E.06527
G1 X115.093 Y94.108 E.05092
G1 X116.771 Y94.747 E.06531
G1 X118.026 Y95.369 E.05094
G1 X119.551 Y96.315 E.06527
G1 X120.665 Y97.164 E.05094
G1 X121.982 Y98.384 E.06529
G1 X122.913 Y99.43 E.05093
G1 X123.973 Y100.876 E.06521
G1 X124.69 Y102.081 E.051
G1 X125.455 Y103.705 E.06529
G1 X125.929 Y105.023 E.05094
G1 X126.387 Y106.843 E.06826
G1 X126.634 Y108.662 E.06677
G1 X126.688 Y110.061 E.05092
G1 X126.585 Y111.853 E.06528
G1 X126.371 Y113.237 E.05094
G1 X125.929 Y114.977 E.0653
G1 X125.455 Y116.295 E.05094
G1 X124.69 Y117.919 E.06529
G1 X123.685 Y119.551 E.06971
G1 X122.836 Y120.665 E.05094
G1 X121.616 Y121.982 E.06529
G1 X120.57 Y122.913 E.05093
G1 X119.122 Y123.974 E.06529
G1 X117.919 Y124.69 E.05092
G1 X116.295 Y125.455 E.06529
G1 X114.977 Y125.929 E.05094
G1 X113.117 Y126.394 E.06973
G1 X111.338 Y126.634 E.06529
G1 X109.939 Y126.688 E.05092
G1 X108.147 Y126.585 E.06528
G1 X106.763 Y126.371 E.05094
G1 X105.023 Y125.929 E.0653
G1 X103.705 Y125.455 E.05094
G1 X102.089 Y124.694 E.06497
G1 X100.878 Y123.974 E.05124
G1 X99.43 Y122.913 E.06529
G1 X98.02 Y121.617 E.06966
G1 X97.087 Y120.571 E.05098
G1 X96.026 Y119.122 E.06532
G1 X95.31 Y117.919 E.05092
G1 X94.525 Y116.246 E.06721
G1 X93.925 Y114.481 E.0678
G1 X93.606 Y113.117 E.05095
G1 X93.366 Y111.338 E.06529
G1 X93.312 Y109.939 E.05092
G1 X93.415 Y108.147 E.06528
G1 X93.629 Y106.763 E.05094
G1 X94.069 Y105.031 E.065
G1 X94.545 Y103.705 E.05124
G1 X95.31 Y102.081 E.06529
G1 X96.039 Y100.858 E.05178
G1 X97.164 Y99.335 E.06887
G1 X98.312 Y98.096 E.06143
; printing object Wheel_27mm_8,4mm id:0 copy 0
G1 X98.312 Y98.096 F9000
G1 X105.069 Y105.07
;TYPE:Perimeter
;WIDTH:0.419999
G1 F954.707
G1 X105.163 Y104.974 E.00489
G1 X105.505 Y104.813 E.01375
G1 X106.265 Y104.786 E.02766
G1 X114.271 Y104.786 E.29119
G1 X114.582 Y104.838 E.01147
G1 X114.925 Y105.049 E.01465
G1 X115.127 Y105.332 E.01265
G1 X115.214 Y105.729 E.01478
G1 X115.214 Y114.271 E.31068
G1 X115.187 Y114.495 E.00821
G1 X115.088 Y114.743 E.00971
G1 X114.83 Y115.031 E.01406
G1 X114.588 Y115.16 E.00997
G1 X114.169 Y115.214 E.01537
G1 X105.729 Y115.214 E.30697
G1 X105.505 Y115.187 E.00821
G1 X105.232 Y115.073 E.01076
G1 X104.969 Y114.83 E.01302
G1 X104.841 Y114.591 E.00986
G1 X104.786 Y114.271 E.01181
G1 X104.786 Y107.451 E.24805
G1 X104.786 Y105.729 E.06263
G1 X104.813 Y105.504 E.00824
G1 X104.963 Y105.178 E.01305
G1 X105.027 Y105.113 E.00332
G1 X105.027 Y105.113 F9000
G1 X105.334 Y105.338
G1 F954.707
G1 X105.389 Y105.276 E.00301
G1 X105.594 Y105.179 E.00825
G1 X106.265 Y105.163 E.02441
G1 X114.271 Y105.163 E.29119
G1 X114.564 Y105.244 E.01106
G1 X114.763 Y105.449 E.01039
G1 X114.837 Y105.729 E.01053
G1 X114.837 Y114.271 E.31068
G1 X114.761 Y114.554 E.01066
G1 X114.551 Y114.763 E.01078
G1 X114.271 Y114.837 E.01053
G1 X105.729 Y114.837 E.31068
G1 X105.446 Y114.761 E.01066
G1 X105.273 Y114.606 E.00845
G1 X105.168 Y114.348 E.01013
G1 X105.163 Y107.451 E.25085
G1 X105.163 Y105.729 E.06263
G1 X105.242 Y105.44 E.0109
G1 X105.294 Y105.382 E.00283
G1 X105.294 Y105.382 F9000
G1 X105.592 Y105.613
;TYPE:External perimeter
G1 F954.707
G1 X105.604 Y105.587 E.00104
G1 X105.729 Y105.54 E.00486
G1 X114.271 Y105.54 E.31068
G1 X114.413 Y105.604 E.00566
G1 X114.46 Y105.729 E.00486
G1 X114.46 Y114.271 E.31068
G1 X114.402 Y114.407 E.00538
G1 X114.271 Y114.46 E.00514
G1 X105.729 Y114.46 E.31068
G1 X105.593 Y114.402 E.00538
G1 X105.54 Y114.271 E.00514
G1 X105.54 Y107.451 E.24805
G1 X105.54 Y105.729 E.06263
G1 X105.567 Y105.668 E.00243
G1 X105.948 Y105.546 F9000
G1 X101.162 Y101.263
;TYPE:Perimeter
G1 F954.707
G1 X101.329 Y101.09 E.00875
G1 X101.719 Y100.722 E.0195
G1 X102.462 Y100.11 E.03501
G1 X103.241 Y99.562 E.03464
G1 X104.059 Y99.076 E.03461
G1 X104.839 Y98.69 E.03165
G1 X105.343 Y98.47 E.02
G1 X106.165 Y98.174 E.03178
G1 X106.696 Y98.011 E.0202
G1 X107.543 Y97.813 E.03164
G1 X108.093 Y97.712 E.02034
G1 X109.048 Y97.601 E.03497
G1 X110.006 Y97.565 E.03487
G1 X110.858 Y97.598 E.03101
G1 X111.417 Y97.646 E.02041
G1 X112.277 Y97.778 E.03165
G1 X112.824 Y97.89 E.02031
G1 X113.758 Y98.146 E.03522
G1 X114.569 Y98.438 E.03135
G1 X115.079 Y98.649 E.02007
G1 X115.871 Y99.041 E.03214
G1 X116.347 Y99.306 E.01981
G1 X117.154 Y99.829 E.03498
G1 X117.856 Y100.364 E.0321
G1 X118.267 Y100.71 E.01954
G1 X118.91 Y101.329 E.03246
G1 X119.278 Y101.719 E.0195
G1 X119.89 Y102.462 E.03501
G1 X120.438 Y103.241 E.03464
G1 X120.884 Y103.992 E.03177
G1 X121.14 Y104.474 E.01985
G1 X121.534 Y105.352 E.035
G1 X121.856 Y106.248 E.03463
G1 X122.084 Y107.079 E.03134
G1 X122.206 Y107.623 E.02028
G1 X122.354 Y108.583 E.03533
G1 X122.403 Y109.148 E.02063
G1 X122.433 Y110.113 E.03511
G1 X122.427 Y110.467 E.01288
G1 X122.353 Y111.426 E.03498
G1 X122.222 Y112.276 E.03128
G1 X122.109 Y112.831 E.0206
G1 X121.856 Y113.752 E.03474
G1 X121.534 Y114.648 E.03463
G1 X121.177 Y115.444 E.03173
G1 X120.929 Y115.933 E.01994
G1 X120.438 Y116.759 E.03495
G1 X119.93 Y117.48 E.03208
G1 X119.6 Y117.905 E.01957
G1 X118.96 Y118.623 E.03498
G1 X118.273 Y119.283 E.03465
G1 X117.593 Y119.844 E.03206
G1 X117.159 Y120.168 E.0197
G1 X116.557 Y120.563 E.02619
G1 X116.003 Y120.888 E.02336
G1 X115.526 Y121.14 E.01962
G1 X114.648 Y121.534 E.035
G1 X113.836 Y121.825 E.03137
G1 X113.298 Y121.99 E.02047
G1 X112.368 Y122.208 E.03474
G1 X111.519 Y122.339 E.03124
G1 X110.961 Y122.398 E.02041
G1 X110.094 Y122.431 E.03156
G1 X109.533 Y122.427 E.0204
G1 X108.574 Y122.353 E.03498
G1 X107.723 Y122.222 E.03132
G1 X107.176 Y122.11 E.02031
G1 X106.248 Y121.856 E.03499
G1 X105.431 Y121.562 E.03158
G1 X104.921 Y121.351 E.02007
G1 X104.065 Y120.927 E.03474
G1 X103.241 Y120.438 E.03485
G1 X102.52 Y119.93 E.03208
G1 X102.095 Y119.6 E.01957
G1 X101.377 Y118.96 E.03498
G1 X100.717 Y118.273 E.03465
G1 X100.156 Y117.593 E.03206
G1 X99.834 Y117.162 E.01957
G1 X99.353 Y116.419 E.03219
G1 X99.08 Y115.949 E.01977
G1 X98.653 Y115.087 E.03499
G1 X98.329 Y114.284 E.03149
G1 X98.147 Y113.761 E.02014
G1 X97.891 Y112.83 E.03512
G1 X97.751 Y112.133 E.02586
G1 X97.659 Y111.511 E.02287
G1 X97.602 Y110.961 E.02011
G1 X97.565 Y110 E.03498
G1 X97.602 Y109.042 E.03487
G1 X97.7 Y108.194 E.03105
G1 X97.792 Y107.632 E.02071
G1 X97.913 Y107.086 E.02034
G1 X98.102 Y106.397 E.02599
G1 X98.443 Y105.411 E.03795
G1 X98.652 Y104.916 E.01954
G1 X99.075 Y104.06 E.03473
G1 X99.566 Y103.235 E.03492
G1 X100.062 Y102.531 E.03132
G1 X100.373 Y102.129 E.01849
G1 X100.71 Y101.733 E.01891
G1 X101.121 Y101.306 E.02156
G1 X101.121 Y101.306 F9000
G1 X100.854 Y101.04
G1 F954.707
G1 X101.057 Y100.829 E.01065
G1 X101.471 Y100.438 E.02071
G1 X102.233 Y99.81 E.03591
G1 X103.036 Y99.246 E.03569
G1 X103.879 Y98.744 E.03569
G1 X104.671 Y98.352 E.03214
G1 X105.205 Y98.118 E.0212
G1 X106.037 Y97.819 E.03216
G1 X106.599 Y97.647 E.02138
G1 X107.457 Y97.446 E.03205
G1 X108.039 Y97.338 E.02153
G1 X109.019 Y97.225 E.03588
G1 X110.007 Y97.188 E.03596
G1 X110.873 Y97.221 E.03152
G1 X111.464 Y97.271 E.02157
G1 X112.334 Y97.406 E.03202
G1 X112.914 Y97.523 E.02152
G1 X113.872 Y97.787 E.03614
G1 X114.696 Y98.083 E.03184
G1 X115.236 Y98.306 E.02125
G1 X116.038 Y98.703 E.03255
G1 X116.543 Y98.984 E.02102
G1 X117.371 Y99.52 E.03587
G1 X118.085 Y100.064 E.03265
G1 X118.52 Y100.431 E.0207
G1 X119.171 Y101.057 E.03285
G1 X119.562 Y101.471 E.02071
G1 X120.19 Y102.233 E.03591
G1 X120.754 Y103.036 E.03569
G1 X121.208 Y103.799 E.03229
G1 X121.48 Y104.31 E.02105
G1 X121.884 Y105.21 E.03588
G1 X122.215 Y106.134 E.0357
G1 X122.447 Y106.979 E.03187
G1 X122.577 Y107.555 E.02148
G1 X122.729 Y108.536 E.03611
G1 X122.779 Y109.133 E.02179
G1 X122.81 Y110.12 E.03592
G1 X122.804 Y110.485 E.01328
G1 X122.728 Y111.469 E.0359
G1 X122.595 Y112.333 E.03179
G1 X122.475 Y112.92 E.02179
G1 X122.215 Y113.866 E.03568
G1 X121.884 Y114.79 E.0357
G1 X121.521 Y115.599 E.03225
G1 X121.259 Y116.116 E.02108
G1 X120.754 Y116.964 E.0359
G1 X120.239 Y117.697 E.03258
G1 X119.888 Y118.148 E.02079
G1 X119.232 Y118.885 E.03589
G1 X118.524 Y119.565 E.0357
G1 X117.833 Y120.135 E.03258
G1 X117.374 Y120.478 E.02084
G1 X116.756 Y120.884 E.02689
G1 X116.193 Y121.214 E.02374
G1 X115.69 Y121.48 E.0207
G1 X114.79 Y121.884 E.03588
G1 X113.964 Y122.18 E.03191
G1 X113.394 Y122.355 E.02169
G1 X112.439 Y122.578 E.03567
G1 X111.576 Y122.711 E.03176
G1 X110.986 Y122.775 E.02158
G1 X110.109 Y122.808 E.03192
G1 X109.515 Y122.804 E.0216
G1 X108.531 Y122.728 E.0359
G1 X107.666 Y122.594 E.03184
G1 X107.086 Y122.477 E.02152
G1 X106.134 Y122.215 E.03591
G1 X105.304 Y121.917 E.03207
G1 X104.764 Y121.694 E.02125
G1 X103.885 Y121.259 E.03567
G1 X103.035 Y120.754 E.03596
G1 X102.303 Y120.239 E.03255
G1 X101.852 Y119.888 E.02079
G1 X101.115 Y119.232 E.03589
G1 X100.435 Y118.524 E.0357
G1 X99.865 Y117.833 E.03258
G1 X99.523 Y117.376 E.02076
G1 X99.036 Y116.624 E.03259
G1 X98.747 Y116.126 E.02094
G1 X98.309 Y115.241 E.03591
G1 X97.98 Y114.425 E.032
G1 X97.786 Y113.871 E.02135
G1 X97.524 Y112.918 E.03595
G1 X97.38 Y112.198 E.02671
G1 X97.286 Y111.566 E.02324
G1 X97.225 Y110.986 E.02121
G1 X97.188 Y110 E.03589
G1 X97.226 Y109.013 E.03592
G1 X97.325 Y108.151 E.03156
G1 X97.523 Y107.084 E.03947
G1 X97.714 Y106.374 E.02674
G1 X97.913 Y105.756 E.02361
G1 X98.309 Y104.758 E.03905
G1 X98.744 Y103.879 E.03567
G1 X99.249 Y103.03 E.03593
G1 X99.761 Y102.303 E.03234
G1 X100.078 Y101.895 E.01879
G1 X100.431 Y101.48 E.01982
G1 X100.813 Y101.083 E.02004
G1 X100.813 Y101.083 F9000
G1 X100.546 Y100.816
;TYPE:External perimeter
G1 F954.707
G1 X100.855 Y100.495 E.01621
G1 X101.223 Y100.154 E.01825
G1 X102.004 Y99.51 E.03682
G1 X102.83 Y98.929 E.03673
G1 X103.699 Y98.413 E.03676
G1 X104.606 Y97.963 E.03683
G1 X105.068 Y97.767 E.01825
G1 X106.022 Y97.424 E.03687
G1 X106.503 Y97.282 E.01824
G1 X107.491 Y97.051 E.0369
G1 X107.985 Y96.965 E.01824
G1 X108.99 Y96.849 E.0368
G1 X110.007 Y96.81 E.03702
G1 X111.012 Y96.849 E.03658
G1 X111.511 Y96.897 E.01823
G1 X112.513 Y97.052 E.03688
G1 X113.003 Y97.157 E.01823
G1 X113.986 Y97.427 E.03708
G1 X114.932 Y97.767 E.03656
G1 X115.394 Y97.963 E.01825
G1 X116.303 Y98.413 E.03689
G1 X116.739 Y98.661 E.01824
G1 X117.588 Y99.212 E.03681
G1 X118.394 Y99.825 E.03683
G1 X118.774 Y100.152 E.01823
G1 X119.505 Y100.855 E.03689
G1 X119.846 Y101.223 E.01825
G1 X120.568 Y102.115 E.04174
G1 X121.143 Y102.951 E.0369
G1 X121.639 Y103.798 E.0357
G1 X121.865 Y104.247 E.01828
G1 X122.286 Y105.215 E.03839
G1 X122.617 Y106.174 E.0369
G1 X122.869 Y107.116 E.03547
G1 X122.967 Y107.608 E.01825
G1 X123.115 Y108.614 E.03698
G1 X123.156 Y109.119 E.01843
G1 X123.188 Y110.127 E.03668
G1 X123.18 Y110.503 E.01368
G1 X123.103 Y111.513 E.03684
G1 X122.948 Y112.513 E.03681
G1 X122.842 Y113.01 E.01848
G1 X122.575 Y113.98 E.03659
G1 X122.234 Y114.931 E.03675
G1 X121.819 Y115.854 E.03681
G1 X121.588 Y116.299 E.01824
G1 X121.071 Y117.17 E.03684
G1 X120.489 Y117.998 E.03681
G1 X120.177 Y118.39 E.01822
G1 X119.504 Y119.146 E.03681
G1 X118.776 Y119.847 E.03676
G1 X117.994 Y120.491 E.03685
G1 X117.59 Y120.788 E.01824
G1 X116.955 Y121.204 E.02761
G1 X116.3 Y121.588 E.02762
G1 X115.854 Y121.819 E.01827
G1 X114.931 Y122.234 E.03681
G1 X113.978 Y122.576 E.03683
G1 X113.491 Y122.72 E.01847
G1 X112.511 Y122.949 E.0366
G1 X111.511 Y123.103 E.0368
G1 X111.012 Y123.151 E.01823
G1 X109.998 Y123.19 E.03691
G1 X109.497 Y123.18 E.01823
G1 X108.487 Y123.103 E.03684
G1 X107.487 Y122.948 E.03681
G1 X106.997 Y122.843 E.01823
G1 X106.02 Y122.575 E.03685
G1 X105.068 Y122.233 E.03679
G1 X104.606 Y122.037 E.01825
G1 X103.705 Y121.59 E.03658
G1 X102.83 Y121.071 E.037
G1 X102.002 Y120.489 E.03681
G1 X101.61 Y120.177 E.01822
G1 X100.854 Y119.504 E.03681
G1 X100.153 Y118.776 E.03676
G1 X99.509 Y117.994 E.03685
G1 X99.213 Y117.59 E.01822
G1 X98.661 Y116.739 E.03689
G1 X98.413 Y116.303 E.01824
G1 X97.964 Y115.396 E.03681
G1 X97.586 Y114.457 E.03682
G1 X97.425 Y113.982 E.01824
G1 X97.157 Y113.005 E.03685
G1 X97.008 Y112.262 E.02756
G1 X96.897 Y111.511 E.02761
G1 X96.849 Y111.012 E.01823
G1 X96.81 Y110 E.03683
G1 X96.85 Y108.984 E.03698
G1 X96.965 Y107.985 E.03657
G1 X97.051 Y107.489 E.01831
G1 X97.157 Y106.996 E.01834
G1 X97.352 Y106.267 E.02745
G1 X97.587 Y105.54 E.02779
G1 X97.766 Y105.069 E.01833
G1 X97.966 Y104.6 E.01854
G1 X98.413 Y103.699 E.03658
G1 X98.933 Y102.825 E.03699
G1 X99.511 Y102.002 E.03658
G1 X99.824 Y101.608 E.0183
G1 X100.152 Y101.226 E.01831
G1 X100.504 Y100.86 E.01847
G1 X100.782 Y100.571 F9000
G1 X117.142 Y99.971
;TYPE:Solid infill
