; generated by PrusaSlicer 2.8.1+linux-x64-GTK3 on 2025-10-16 at 05:38:46 UTC

; 

; external perimeters extrusion width = 0.42mm
; perimeters extrusion width = 0.44mm
; infill extrusion width = 0.44mm
; solid infill extrusion width = 0.44mm
; top infill extrusion width = 0.40mm
; first layer extrusion width = 0.42mm

M201 X500 Y500 Z100 E5000 ; sets maximum accelerations, mm/sec^2
M203 X500 Y500 Z10 E60 ; sets maximum feedrates, mm / sec
M204 S500 T1000 ; sets acceleration (S) and retract acceleration (R), mm/sec^2
M205 X8.00 Y8.00 Z0.40 E5.00 ; sets the jerk limits, mm/sec
M205 S0 T0 ; sets the minimum extruding and travel feed rate, mm/sec

; printing object Wheel_2,5mm id:0 copy 0
; stop printing object Wheel_2,5mm id:0 copy 0
; printing object Wheel_2,5mm id:0 copy 1
; stop printing object Wheel_2,5mm id:0 copy 1

;TYPE:Custom
G90 ; use absolute coordinates
M83 ; extruder relative mode
M104 S130 ; set temporary nozzle temp to prevent oozing during homing
M140 S30 ; set final bed temp
G4 S30 ; allow partial nozzle warmup
G28 ; home all axis and restore leveling
G1 Z50 F240
G1 X2.0 Y10 F3000
M104 S245 ; set final nozzle temp
M190 S30 ; wait for bed temp to stabilize
M109 S245 ; wait for nozzle temp to stabilize
G1 Z0.28 F240
G92 E0
G1 X2.0 Y140 E10 F1500 ; prime the nozzle
G1 X2.3 Y140 F5000
G92 E0
G1 X2.3 Y10 E10 F1200 ; prime the nozzle
G92 E0
G21 ; set units to millimeters
G90 ; use absolute coordinates
M83 ; use relative distances for extrusion
; Filament gcode
M107
;LAYER_CHANGE
;Z:0.2
;HEIGHT:0.2
G1 X60.479 Y96.56 F9000
G1 Z.2
M204 S500
;TYPE:Skirt/Brim
;WIDTH:0.42
G1 F954.706
G1 X62 Y95.656 E.06435
G1 X63.256 Y95.066 E.05047
G1 X64.923 Y94.473 E.06435
G1 X66.27 Y94.138 E.05048
G1 X68.021 Y93.88 E.06437
G1 X69.376 Y93.812 E.04934
G1 X150.41 Y93.812 E2.94729
G1 X151.672 Y93.854 E.04593
G1 X153.428 Y94.078 E.06438
G1 X154.78 Y94.387 E.05044
G1 X156.452 Y94.944 E.0641
G1 X157.615 Y95.457 E.04623
G1 X158.834 Y96.119 E.05045
G1 X159.91 Y96.825 E.04681
G1 X161.275 Y97.914 E.06351
G1 X162.271 Y98.881 E.05049
G1 X163.116 Y99.851 E.04679
G1 X164.136 Y101.268 E.0635
G1 X164.834 Y102.468 E.05049
G1 X165.571 Y104.077 E.06437
G1 X166.023 Y105.389 E.05047
G1 X166.433 Y107.11 E.06435
G1 X166.61 Y108.361 E.04595
G1 X166.691 Y109.746 E.05046
G1 X166.662 Y111.009 E.04595
G1 X166.455 Y112.767 E.06438
G1 X166.16 Y114.123 E.05047
G1 X165.616 Y115.807 E.06437
G1 X165.063 Y117.08 E.05048
G1 X164.467 Y118.193 E.04592
G1 X163.489 Y119.669 E.0644
G1 X162.613 Y120.745 E.05046
G1 X161.368 Y122.002 E.06435
G1 X160.399 Y122.813 E.04596
G1 X159.265 Y123.613 E.05048
G1 X157.727 Y124.488 E.06436
G1 X156.459 Y125.053 E.05049
G1 X154.78 Y125.613 E.06437
G1 X153.55 Y125.899 E.04593
G1 X152.177 Y126.101 E.05047
G1 X150.378 Y126.188 E.06551
G1 X69.376 Y126.188 E2.94612
G1 X67.517 Y126.066 E.06776
G1 X65.043 Y125.562 E.09183
G1 X62.678 Y124.679 E.09182
G1 X60.479 Y123.44 E.0918
G1 X58.499 Y121.873 E.09184
G1 X57.607 Y120.979 E.04593
G1 X56.735 Y119.953 E.04897
G1 X55.384 Y117.919 E.08881
G1 X54.327 Y115.636 E.0915
G1 X53.634 Y113.2 E.09212
G1 X53.418 Y111.829 E.05048
G1 X53.315 Y110.062 E.06438
G1 X53.369 Y108.676 E.05045
G1 X53.626 Y106.841 E.06739
G1 X54.076 Y105.095 E.06558
G1 X54.555 Y103.784 E.05077
G1 X55.319 Y102.197 E.06406
G1 X56.044 Y101.004 E.05077
G1 X57.107 Y99.588 E.0644
G1 X58.044 Y98.565 E.05046
G1 X59.361 Y97.383 E.06436
G1 X60.43 Y96.596 E.04828
; printing object Wheel_2,5mm id:0 copy 0
G1 X60.43 Y96.596 F9000
G1 X139.051 Y108.469
;TYPE:Perimeter
;WIDTH:0.428302
G1 F934.138
G1 X139.324 Y107.067 E.05309
;WIDTH:0.422008
G1 F949.648
G1 X139.505 Y106.46 E.02316
G1 X139.823 Y105.594 E.03373
G1 X140.04 Y105.087 E.02016
;WIDTH:0.419979
G1 F954.758
G1 X140.403 Y104.386 E.02871
;WIDTH:0.428047
G1 F934.757
G1 X140.882 Y103.621 E.03353
G1 X141.297 Y103.011 E.02741
;WIDTH:0.422003
G1 F949.66
G1 X141.683 Y102.537 E.02235
G1 X142.294 Y101.87 E.03307
;WIDTH:0.421817
G1 F950.126
G1 X142.665 Y101.505 E.01902
;WIDTH:0.413696
G1 F970.937
G1 X143.444 Y100.847 E.03647
;WIDTH:0.428156
G1 F934.492
G1 X144.672 Y100.019 E.05503
;WIDTH:0.416983
G1 F962.405
G1 X145.582 Y99.539 E.03712
G1 X146.523 Y99.148 E.03677
;WIDTH:0.428321
G1 F934.092
G1 X147.944 Y98.728 E.05508
;WIDTH:0.41957
G1 F955.794
G1 X148.159 Y98.682 E.00799
G1 X148.956 Y98.544 E.02939
;WIDTH:0.422035
G1 F949.58
G1 X150.006 Y98.451 E.03855
;WIDTH:0.421809
G1 F950.146
G1 X151.314 Y98.473 E.04781
G1 X152.472 Y98.608 E.04261
;WIDTH:0.422017
G1 F949.625
G1 X153.067 Y98.732 E.02222
G1 X153.947 Y98.969 E.03332
;WIDTH:0.421859
G1 F950.021
G1 X154.452 Y99.134 E.01942
;WIDTH:0.428372
G1 F933.968
G1 X155.788 Y99.719 E.05422
;WIDTH:0.414909
G1 F967.771
G1 X156.682 Y100.228 E.03691
;WIDTH:0.422082
G1 F949.462
G1 X157.575 Y100.854 E.03988
;WIDTH:0.418979
G1 F957.297
G1 X158.225 Y101.396 E.0307
;WIDTH:0.420138
G1 F954.355
G1 X158.878 Y102.033 E.03319
;WIDTH:0.421565
G1 F950.759
G1 X159.478 Y102.718 E.03326
;WIDTH:0.426659
G1 F938.138
G1 X160.262 Y103.822 E.05012
G1 X160.535 Y104.249 E.01876
;WIDTH:0.419034
G1 F957.157
G1 X160.922 Y104.99 E.03033
;WIDTH:0.420716
G1 F952.895
G1 X161.278 Y105.817 E.03281
;WIDTH:0.428111
G1 F934.601
G1 X161.563 Y106.678 E.0337
G1 X161.777 Y107.439 E.02937
;WIDTH:0.422105
G1 F949.405
G1 X161.972 Y108.522 E.04025
;WIDTH:0.419462
G1 F956.069
G1 X162.044 Y109.329 E.02943
;WIDTH:0.420875
G1 F952.494
G1 X162.06 Y110.24 E.03322
G1 X161.973 Y111.468 E.04488
;WIDTH:0.427341
G1 F936.473
G1 X161.667 Y113.015 E.05847
;WIDTH:0.426555
G1 F938.392
G1 X161.269 Y114.201 E.04629
;WIDTH:0.422748
G1 F947.797
G1 X160.779 Y115.302 E.04415
;WIDTH:0.422022
G1 F949.613
G1 X160.233 Y116.246 E.03988
;WIDTH:0.41908
G1 F957.04
G1 X159.753 Y116.936 E.0305
;WIDTH:0.420215
G1 F954.16
G1 X159.176 Y117.641 E.03315
;WIDTH:0.428313
G1 F934.111
G1 X158.542 Y118.29 E.03373
G1 X157.983 Y118.816 E.02853
;WIDTH:0.417373
G1 F961.402
G1 X157.171 Y119.447 E.03714
G1 X156.321 Y119.991 E.03645
;WIDTH:0.420877
G1 F952.489
G1 X155.627 Y120.36 E.02865
;WIDTH:0.421655
G1 F950.533
G1 X154.795 Y120.73 E.03326
;WIDTH:0.427349
G1 F936.454
G1 X153.937 Y121.025 E.03364
G1 X153.066 Y121.272 E.03357
;WIDTH:0.419912
G1 F954.928
G1 X152.193 Y121.435 E.03229
;WIDTH:0.420899
G1 F952.434
G1 X150.969 Y121.552 E.04483
;WIDTH:0.421934
G1 F949.833
G1 X150.391 Y121.555 E.02113
G1 X149.037 Y121.468 E.0496
;WIDTH:0.427991
G1 F934.892
G1 X147.573 Y121.181 E.05541
;WIDTH:0.421396
G1 F951.183
G1 X146.856 Y120.965 E.02734
;WIDTH:0.427586
G1 F935.877
G1 X146.011 Y120.636 E.03364
G1 X145.221 Y120.283 E.0321
;WIDTH:0.418817
G1 F957.709
G1 X144.388 Y119.809 E.03475
G1 X143.5 Y119.196 E.03912
;WIDTH:0.421602
G1 F950.666
G1 X142.96 Y118.752 E.02553
;WIDTH:0.421815
G1 X142.294 Y118.13 E.0333
G1 X141.686 Y117.466 E.0329
G1 X141.359 Y117.07 E.01877
;WIDTH:0.428409
G1 F933.879
G1 X140.525 Y115.833 E.05547
;WIDTH:0.421772
G1 F950.239
G1 X140.198 Y115.224 E.02526
G1 X139.819 Y114.395 E.03331
G1 X139.629 Y113.915 E.01886
;WIDTH:0.419233
G1 F956.65
G1 X139.376 Y113.124 E.03014
;WIDTH:0.420671
G1 F953.009
G1 X139.164 Y112.226 E.03362
;WIDTH:0.425365
G1 F941.312
G1 X138.991 Y110.901 E.04929
G1 X138.95 Y110 E.03327
;WIDTH:0.421876
G1 F949.978
G1 X138.956 Y109.5 E.01828
;WIDTH:0.413302
G1 F971.969
G1 X139.04 Y108.528 E.03485
G1 X139.04 Y108.528 F9000
G1 X139.411 Y108.568
;WIDTH:0.419999
G1 F954.707
G1 X139.413 Y108.554 E.00051
G1 X139.691 Y107.14 E.05241
G1 X139.866 Y106.574 E.02155
G1 X140.172 Y105.739 E.03234
G1 X140.374 Y105.256 E.01904
G1 X140.737 Y104.56 E.02855
G1 X141.198 Y103.833 E.03131
G1 X141.609 Y103.219 E.02687
G1 X141.973 Y102.78 E.02074
G1 X142.561 Y102.137 E.03169
G1 X142.93 Y101.769 E.01895
G1 X143.684 Y101.134 E.03585
G1 X144.881 Y100.331 E.05242
G1 X145.755 Y99.872 E.03591
G1 X146.666 Y99.493 E.03589
G1 X148.048 Y99.087 E.05239
G1 X148.224 Y99.053 E.00652
G1 X149.021 Y98.912 E.02944
G1 X150.024 Y98.823 E.03662
G1 X151.305 Y98.85 E.0466
G1 X152.423 Y98.979 E.04093
G1 X152.985 Y99.101 E.02092
G1 X153.833 Y99.33 E.03195
G1 X154.327 Y99.486 E.01884
G1 X155.638 Y100.061 E.05207
G1 X156.495 Y100.552 E.03592
G1 X156.943 Y100.863 E.01984
G1 X157.65 Y101.404 E.03238
G1 X158.045 Y101.736 E.01877
G1 X158.611 Y102.299 E.02904
G1 X159.424 Y103.252 E.04556
G1 X160.174 Y104.375 E.04912
G1 X160.588 Y105.164 E.03241
G1 X160.929 Y105.961 E.03153
G1 X161.197 Y106.784 E.03148
G1 X161.418 Y107.543 E.02875
G1 X161.599 Y108.559 E.03753
G1 X161.68 Y109.487 E.03388
G1 X161.682 Y110.24 E.02739
G1 X161.599 Y111.436 E.0436
G1 X161.307 Y112.909 E.05462
G1 X160.854 Y114.247 E.05138
G1 X160.439 Y115.144 E.03595
G1 X160.168 Y115.617 E.01983
G1 X159.695 Y116.363 E.03213
G1 X159.395 Y116.79 E.01898
G1 X158.887 Y117.399 E.02884
G1 X157.724 Y118.545 E.05938
G1 X156.942 Y119.149 E.03594
G1 X156.12 Y119.676 E.03551
G1 X155.453 Y120.025 E.02738
G1 X154.65 Y120.38 E.03193
G1 X153.831 Y120.66 E.03148
G1 X152.962 Y120.913 E.03292
G1 X152.127 Y121.063 E.03086
G1 X150.969 Y121.177 E.04232
G1 X150.042 Y121.177 E.03372
G1 X149.07 Y121.094 E.03548
G1 X147.646 Y120.814 E.05278
G1 X146.97 Y120.605 E.02574
G1 X146.165 Y120.287 E.03148
G1 X145.373 Y119.939 E.03146
G1 X144.576 Y119.483 E.0334
G1 X143.715 Y118.89 E.03802
G1 X143.203 Y118.463 E.02425
G1 X142.561 Y117.863 E.03196
G1 X141.976 Y117.223 E.03154
G1 X141.645 Y116.83 E.01869
G1 X140.836 Y115.625 E.05279
G1 X140.533 Y115.05 E.02364
G1 X140.168 Y114.251 E.03195
G1 X139.866 Y113.426 E.03195
G1 X139.706 Y112.919 E.01934
G1 X139.533 Y112.144 E.02888
G1 X139.368 Y110.86 E.04708
G1 X139.328 Y110 E.03131
G1 X139.33 Y109.487 E.01866
G1 X139.406 Y108.628 E.03136
G1 X139.406 Y108.628 F9000
G1 X139.781 Y108.669
;TYPE:External perimeter
G1 F954.707
G1 X139.788 Y108.587 E.00299
G1 X140.061 Y107.214 E.05091
G1 X140.226 Y106.687 E.02008
G1 X140.521 Y105.883 E.03115
G1 X140.712 Y105.424 E.01808
G1 X141.145 Y104.594 E.03405
G1 X141.922 Y103.429 E.05093
G1 X142.261 Y103.023 E.01924
G1 X142.828 Y102.404 E.03053
G1 X143.196 Y102.036 E.01893
G1 X143.926 Y101.423 E.03467
G1 X145.09 Y100.645 E.05092
G1 X145.929 Y100.206 E.03444
G1 X146.81 Y99.842 E.03467
G1 X148.154 Y99.449 E.05093
G1 X148.29 Y99.424 E.00503
G1 X149.086 Y99.284 E.0294
G1 X150.035 Y99.201 E.03465
G1 X151.297 Y99.227 E.04591
G1 X152.374 Y99.353 E.03944
G1 X152.903 Y99.47 E.01971
G1 X153.72 Y99.689 E.03076
G1 X154.201 Y99.841 E.01835
G1 X155.486 Y100.406 E.05105
G1 X156.306 Y100.879 E.03443
G1 X156.727 Y101.172 E.01866
G1 X157.407 Y101.693 E.03116
G1 X157.802 Y102.025 E.01877
G1 X158.345 Y102.566 E.02788
G1 X158.899 Y103.203 E.0307
G1 X159.632 Y104.242 E.04625
G1 X159.871 Y104.602 E.01572
G1 X160.299 Y105.424 E.03371
G1 X160.581 Y106.105 E.02681
G1 X161.056 Y107.649 E.05875
G1 X161.217 Y108.552 E.03336
G1 X161.293 Y109.395 E.03079
G1 X161.305 Y110.24 E.03074
G1 X161.224 Y111.403 E.0424
G1 X160.943 Y112.81 E.05218
G1 X160.497 Y114.125 E.0505
G1 X160.097 Y114.984 E.03446
G1 X159.842 Y115.429 E.01865
G1 X159.386 Y116.146 E.03091
G1 X159.086 Y116.574 E.01901
G1 X158.598 Y117.157 E.02765
G1 X157.463 Y118.273 E.05789
G1 X156.712 Y118.85 E.03445
G1 X155.917 Y119.358 E.03431
G1 X155.279 Y119.691 E.02618
G1 X154.506 Y120.032 E.03073
G1 X153.726 Y120.298 E.02997
G1 X152.857 Y120.551 E.03292
G1 X152.062 Y120.692 E.02937
G1 X150.842 Y120.8 E.04455
G1 X150.042 Y120.8 E.0291
G1 X149.102 Y120.718 E.03432
G1 X147.719 Y120.444 E.05128
G1 X147.083 Y120.245 E.02424
G1 X146.316 Y119.942 E.02999
G1 X145.525 Y119.594 E.03143
G1 X144.765 Y119.156 E.0319
G1 X143.931 Y118.581 E.03684
G1 X143.445 Y118.174 E.02306
G1 X142.828 Y117.596 E.03075
G1 X142.265 Y116.981 E.03033
G1 X141.934 Y116.587 E.01872
G1 X141.15 Y115.415 E.05128
G1 X140.868 Y114.875 E.02216
G1 X140.516 Y114.106 E.03076
G1 X140.226 Y113.313 E.03071
G1 X140.066 Y112.806 E.01934
G1 X139.901 Y112.063 E.02768
G1 X139.743 Y110.819 E.04561
G1 X139.705 Y110 E.02982
G1 X139.738 Y109.161 E.03054
G1 X139.776 Y108.729 E.01577
G1 X139.841 Y108.334 F9000
G1 X138.663 Y108.576
;TYPE:Perimeter
;WIDTH:0.421727
G1 F950.352
G1 X138.687 Y108.362 E.00787
;WIDTH:0.428302
G1 F934.138
G1 X138.8 Y107.69 E.02533
G1 X139.016 Y106.765 E.03531
;WIDTH:0.419232
G1 F956.653
G1 X139.296 Y105.917 E.03241
;WIDTH:0.422102
G1 F949.412
G1 X139.474 Y105.446 E.01842
G1 X139.714 Y104.906 E.02161
;WIDTH:0.415129
G1 F967.199
G1 X140.218 Y103.959 E.03851
;WIDTH:0.428047
G1 F934.757
G1 X140.565 Y103.402 E.02438
G1 X141.11 Y102.638 E.03486
;WIDTH:0.418756
G1 F957.865
G1 X141.677 Y101.977 E.03157
;WIDTH:0.421817
G1 F950.126
G1 X142.031 Y101.598 E.01895
G1 X142.712 Y100.962 E.03405
;WIDTH:0.421407
G1 F951.156
G1 X143.305 Y100.485 E.02778
;WIDTH:0.428156
G1 F934.492
G1 X143.813 Y100.122 E.0232
G1 X144.611 Y99.621 E.03501
;WIDTH:0.422032
G1 F949.587
G1 X145.854 Y99.009 E.05066
G1 X146.501 Y98.761 E.02534
;WIDTH:0.428321
G1 F934.092
G1 X147.171 Y98.544 E.02618
G1 X148.091 Y98.311 E.03528
;WIDTH:0.41957
G1 F955.794
G1 X148.953 Y98.171 E.03173
;WIDTH:0.422035
G1 F949.58
G1 X149.466 Y98.112 E.01888
;WIDTH:0.425148
G1 F941.846
G1 X150.402 Y98.068 E.03455
G1 X151.78 Y98.133 E.05086
;WIDTH:0.420341
G1 F953.842
G1 X152.714 Y98.27 E.03437
;WIDTH:0.418971
G1 F957.317
G1 X153.546 Y98.464 E.03099
;WIDTH:0.421859
G1 F950.021
G1 X154.067 Y98.61 E.01978
G1 X154.653 Y98.814 E.02268
;WIDTH:0.428372
G1 F933.968
G1 X155.362 Y99.102 E.02845
G1 X156.214 Y99.519 E.03527
;WIDTH:0.419918
G1 F954.912
G1 X157.015 Y99.996 E.0339
;WIDTH:0.418657
G1 F958.117
G1 X157.728 Y100.506 E.03177
;WIDTH:0.422049
G1 F949.545
G1 X158.138 Y100.826 E.01902
G1 X158.607 Y101.24 E.02288
;WIDTH:0.414652
G1 F968.44
G1 X159.337 Y101.979 E.03724
;WIDTH:0.41906
G1 F957.09
G1 X160.048 Y102.831 E.04026
;WIDTH:0.426659
G1 F938.138
G1 X160.585 Y103.615 E.03517
G1 X160.868 Y104.082 E.02021
;WIDTH:0.415775
G1 F965.523
G1 X161.342 Y105.007 E.03738
;WIDTH:0.41432
G1 F969.305
G1 X161.745 Y106.002 E.03846
;WIDTH:0.428111
G1 F934.601
G1 X161.933 Y106.572 E.0223
G1 X162.153 Y107.423 E.03266
;WIDTH:0.422105
G1 F949.405
G1 X162.259 Y107.93 E.01894
G1 X162.343 Y108.497 E.02096
;WIDTH:0.415338
G1 F966.656
G1 X162.427 Y109.533 E.03734
;WIDTH:0.420875
G1 F952.494
G1 X162.438 Y110.248 E.02607
G1 X162.42 Y110.694 E.01627
;WIDTH:0.419519
G1 F955.924
G1 X162.328 Y111.639 E.03449
;WIDTH:0.427341
G1 F936.473
G1 X162.16 Y112.556 E.03457
G1 X162.011 Y113.164 E.02321
;WIDTH:0.426555
G1 F938.392
G1 X161.857 Y113.669 E.01954
G1 X161.454 Y114.751 E.04272
;WIDTH:0.419884
G1 F954.998
G1 X161.042 Y115.607 E.03454
;WIDTH:0.418536
G1 F958.426
G1 X160.593 Y116.368 E.03201
;WIDTH:0.422035
G1 F949.58
G1 X160.313 Y116.799 E.01879
G1 X159.938 Y117.307 E.02309
;WIDTH:0.414573
G1 F968.646
G1 X159.249 Y118.117 E.03812
;WIDTH:0.42561
G1 F940.709
G1 X158.479 Y118.877 E.03994
G1 X157.942 Y119.333 E.026
;WIDTH:0.42185
G1 F950.044
G1 X157.005 Y120.009 E.04223
G1 X156.189 Y120.495 E.03471
;WIDTH:0.421292
G1 F951.445
G1 X155.499 Y120.835 E.02807
;WIDTH:0.413533
G1 F971.364
G1 X154.505 Y121.239 E.03836
;WIDTH:0.427273
G1 F936.639
G1 X153.616 Y121.519 E.03455
G1 X152.69 Y121.733 E.03523
;WIDTH:0.421819
G1 F950.121
G1 X152.108 Y121.826 E.02154
;WIDTH:0.420899
G1 F952.434
G1 X151.547 Y121.887 E.02057
G1 X150.843 Y121.931 E.02572
;WIDTH:0.419733
G1 F955.381
G1 X149.927 Y121.922 E.03329
;WIDTH:0.41754
G1 F960.974
G1 X148.868 Y121.82 E.03844
;WIDTH:0.427991
G1 F934.892
G1 X148.071 Y121.68 E.03006
G1 X147.159 Y121.456 E.03488
;WIDTH:0.420745
G1 F952.822
G1 X146.354 Y121.184 E.03097
;WIDTH:0.427586
G1 F935.877
G1 X145.852 Y120.986 E.02002
G1 X144.945 Y120.56 E.03718
;WIDTH:0.421291
G1 F951.447
G1 X143.818 Y119.885 E.04794
G1 X143.052 Y119.322 E.03469
;WIDTH:0.420422
G1 F953.637
G1 X142.408 Y118.761 E.0311
;WIDTH:0.412926
G1 F972.957
G1 X141.743 Y118.096 E.03356
;WIDTH:0.421831
G1 F950.091
G1 X141.392 Y117.705 E.0192
G1 X140.997 Y117.205 E.02329
;WIDTH:0.428409
G1 F933.879
G1 X140.563 Y116.595 E.02784
G1 X140.066 Y115.786 E.0353
;WIDTH:0.42006
G1 F954.553
G1 X139.672 Y114.996 E.03211
;WIDTH:0.412867
G1 F973.112
G1 X139.312 Y114.127 E.03356
;WIDTH:0.422008
G1 F949.648
G1 X139.143 Y113.651 E.01847
G1 X138.966 Y113.035 E.02344
;WIDTH:0.421472
G1 F950.992
G1 X138.716 Y111.859 E.0439
