; generated by PrusaSlicer 2.8.1+win64 on 2025-10-16 at 07:06:08 UTC

; 

; external perimeters extrusion width = 0.42mm
; perimeters extrusion width = 0.44mm
; infill extrusion width = 0.44mm
; solid infill extrusion width = 0.44mm
; top infill extrusion width = 0.40mm
; first layer extrusion width = 0.42mm

M201 X500 Y500 Z100 E5000 ; sets maximum accelerations, mm/sec^2
M203 X500 Y500 Z10 E60 ; sets maximum feedrates, mm / sec
M204 S500 T1000 ; sets acceleration (S) and retract acceleration (R), mm/sec^2
M205 X8.00 Y8.00 Z0.40 E5.00 ; sets the jerk limits, mm/sec
M205 S0 T0 ; sets the minimum extruding and travel feed rate, mm/sec

; printing object Wheel_2,1mm id:0 copy 0
; stop printing object Wheel_2,1mm id:0 copy 0
; printing object Wheel_2,1mm id:0 copy 1
; stop printing object Wheel_2,1mm id:0 copy 1

;TYPE:Custom
G90 ; use absolute coordinates
M83 ; extruder relative mode
M104 S130 ; set temporary nozzle temp to prevent oozing during homing
M140 S30 ; set final bed temp
G4 S30 ; allow partial nozzle warmup
G28 ; home all axis and restore leveling
G1 Z50 F240
G1 X2.0 Y10 F3000
M104 S245 ; set final nozzle temp
M190 S30 ; wait for bed temp to stabilize
M109 S245 ; wait for nozzle temp to stabilize
G1 Z0.28 F240
G92 E0
G1 X2.0 Y140 E10 F1500 ; prime the nozzle
G1 X2.3 Y140 F5000
G92 E0
G1 X2.3 Y10 E10 F1200 ; prime the nozzle
G92 E0
G21 ; set units to millimeters
G90 ; use absolute coordinates
M83 ; use relative distances for extrusion
; Filament gcode
M107
;LAYER_CHANGE
;Z:0.2
;HEIGHT:0.2
G1 X96.974 Y60.981 F9000
G1 Z.2
M204 S500
;TYPE:Skirt/Brim
;WIDTH:0.42
G1 F954.706
G1 X98.04 Y59.596 E.06357
G1 X98.993 Y58.584 E.05056
G1 X100.311 Y57.437 E.06355
G1 X101.411 Y56.655 E.04909
G1 X102.972 Y55.765 E.06535
G1 X104.235 Y55.205 E.05025
G1 X105.903 Y54.655 E.06388
G1 X107.242 Y54.357 E.04989
G1 X108.996 Y54.146 E.06425
G1 X110.377 Y54.119 E.05024
G1 X112.873 Y54.378 E.09127
G1 X114.097 Y54.655 E.04564
G1 X115.763 Y55.204 E.0638
G1 X116.914 Y55.709 E.04572
G1 X119.075 Y56.983 E.09124
G1 X120.17 Y57.827 E.05028
G1 X121.097 Y58.673 E.04565
G1 X122.276 Y59.974 E.06386
G1 X123.026 Y60.981 E.04567
G1 X123.756 Y62.154 E.05025
G1 X124.81 Y64.431 E.09126
G1 X125.2 Y65.633 E.04596
G1 X125.579 Y67.339 E.06356
G1 X125.733 Y68.585 E.04566
G1 X125.789 Y69.902 E.04794
G1 X125.789 Y150.098 E2.91681
G1 X125.733 Y151.415 E.04794
G1 X125.491 Y153.146 E.06357
G1 X125.163 Y154.497 E.05056
G1 X124.58 Y156.153 E.06385
G1 X123.995 Y157.405 E.05026
G1 X123.097 Y158.914 E.06387
G1 X122.282 Y160.017 E.04988
G1 X121.097 Y161.327 E.06425
G1 X120.073 Y162.255 E.05026
G1 X118.661 Y163.298 E.06385
G1 X117.473 Y164.005 E.05028
G1 X115.883 Y164.749 E.06385
G1 X114.579 Y165.207 E.05027
G1 X112.873 Y165.622 E.06386
G1 X111.504 Y165.814 E.05028
G1 X109.749 Y165.884 E.06388
G1 X107.252 Y165.645 E.09123
G1 X106.026 Y165.377 E.04564
G1 X104.705 Y164.971 E.05026
G1 X103.54 Y164.503 E.04566
G1 X101.98 Y163.697 E.06386
G1 X100.925 Y163.017 E.04565
G1 X99.83 Y162.174 E.05026
G1 X98.045 Y160.41 E.09128
G1 X97.264 Y159.428 E.04563
G1 X96.307 Y157.956 E.06386
G1 X95.672 Y156.728 E.05028
G1 X95.19 Y155.569 E.04565
G1 X94.796 Y154.352 E.04653
G1 X94.421 Y152.661 E.063
G1 X94.267 Y151.415 E.04566
G1 X94.211 Y150.098 E.04794
G1 X94.211 Y69.902 E2.91681
G1 X94.317 Y68.086 E.06616
G1 X94.536 Y66.722 E.05025
G1 X94.985 Y65.024 E.06388
G1 X95.469 Y63.73 E.05025
G1 X96.244 Y62.154 E.06388
G1 X96.942 Y61.032 E.04806
; printing object Wheel_2,1mm id:0 copy 0
G1 X96.942 Y61.032 F9000
G1 X108.555 Y139.006
;TYPE:Perimeter
;WIDTH:0.419999
G1 F954.707
G1 X109.352 Y138.935 E.0291
G1 X110.938 Y138.951 E.05769
G1 X111.918 Y139.077 E.03594
G1 X112.434 Y139.189 E.0192
G1 X113.273 Y139.41 E.03156
G1 X113.803 Y139.577 E.02021
G1 X114.55 Y139.885 E.02939
G1 X115.979 Y140.644 E.05885
G1 X116.463 Y140.978 E.02139
G1 X117.165 Y141.519 E.03223
G1 X117.555 Y141.847 E.01853
G1 X118.545 Y142.879 E.05201
G1 X119.149 Y143.661 E.03594
G1 X119.497 Y144.202 E.0234
G1 X119.925 Y144.957 E.03157
G1 X120.149 Y145.392 E.0178
G1 X120.504 Y146.248 E.0337
G1 X120.814 Y147.238 E.03773
G1 X121.085 Y148.601 E.05054
G1 X121.163 Y149.451 E.03105
G1 X121.176 Y150.595 E.04161
G1 X121.101 Y151.449 E.03118
G1 X120.814 Y152.957 E.05583
G1 X120.52 Y153.9 E.03593
G1 X120.128 Y154.848 E.03731
G1 X119.7 Y155.669 E.03367
G1 X119.142 Y156.544 E.03775
G1 X118.272 Y157.627 E.05053
G1 X117.822 Y158.082 E.02328
G1 X117.172 Y158.67 E.03188
G1 X116.79 Y158.987 E.01805
G1 X116.031 Y159.519 E.03371
G1 X114.761 Y160.22 E.05276
G1 X114.11 Y160.493 E.02568
G1 X113.295 Y160.766 E.03126
G1 X112.457 Y161.01 E.03174
G1 X111.485 Y161.185 E.03592
G1 X110.513 Y161.272 E.03549
G1 X109.774 Y161.275 E.02688
G1 X108.88 Y161.219 E.03258
G1 X108.028 Y161.088 E.03135
G1 X107.14 Y160.912 E.03293
G1 X106.197 Y160.618 E.03593
G1 X104.868 Y160.036 E.05277
G1 X104.01 Y159.545 E.03595
G1 X103.529 Y159.211 E.0213
G1 X102.83 Y158.672 E.0321
G1 X102.445 Y158.348 E.0183
G1 X101.769 Y157.673 E.03475
G1 X101.264 Y157.075 E.02847
G1 X100.749 Y156.372 E.0317
G1 X100.296 Y155.621 E.0319
G1 X99.871 Y154.846 E.03215
G1 X99.521 Y154.004 E.03316
G1 X99.087 Y152.554 E.05505
G1 X98.912 Y151.582 E.03592
G1 X98.838 Y150.754 E.03024
G1 X98.825 Y149.585 E.04252
G1 X98.907 Y148.652 E.03406
G1 X99.143 Y147.45 E.04455
G1 X99.48 Y146.295 E.04376
G1 X99.888 Y145.359 E.03714
G1 X100.282 Y144.575 E.03191
G1 X100.552 Y144.108 E.01962
G1 X101.11 Y143.307 E.03551
G1 X101.581 Y142.743 E.02673
G1 X102.512 Y141.81 E.04794
G1 X103.174 Y141.247 E.03161
G1 X103.59 Y140.929 E.01904
G1 X104.298 Y140.478 E.03053
G1 X105.079 Y140.058 E.03225
G1 X106.16 Y139.591 E.04283
G1 X107.16 Y139.296 E.03792
G1 X108 Y139.101 E.03136
G1 X108.495 Y139.013 E.01829
G1 X108.495 Y139.013 F9000
G1 X108.553 Y139.386
;TYPE:External perimeter
G1 F954.707
G1 X108.581 Y139.381 E.00103
G1 X109.385 Y139.311 E.02935
G1 X110.93 Y139.328 E.0562
G1 X111.869 Y139.45 E.03444
G1 X112.79 Y139.654 E.03431
G1 X113.689 Y139.937 E.03428
G1 X114.406 Y140.233 E.02821
G1 X115.798 Y140.974 E.05735
G1 X116.247 Y141.287 E.01991
G1 X116.923 Y141.808 E.03104
G1 X117.312 Y142.136 E.01851
G1 X118.273 Y143.14 E.05055
G1 X118.85 Y143.89 E.03442
G1 X119.179 Y144.405 E.02223
G1 X119.801 Y145.537 E.04698
G1 X120.155 Y146.393 E.03369
G1 X120.445 Y147.312 E.03505
G1 X120.716 Y148.675 E.05054
G1 X120.787 Y149.484 E.02954
G1 X120.799 Y150.577 E.03976
G1 X120.718 Y151.5 E.0337
G1 X120.444 Y152.884 E.05131
G1 X120.161 Y153.787 E.03442
G1 X119.956 Y154.284 E.01955
G1 X119.381 Y155.466 E.04781
G1 X118.848 Y156.308 E.03624
G1 X117.978 Y157.391 E.05053
G1 X117.555 Y157.815 E.02178
G1 X116.574 Y158.679 E.04755
G1 X115.815 Y159.21 E.03369
G1 X114.579 Y159.889 E.05129
G1 X113.966 Y160.144 E.02415
G1 X113.19 Y160.404 E.02977
G1 X112.351 Y160.648 E.03178
G1 X111.419 Y160.814 E.03443
G1 X110.48 Y160.897 E.03429
G1 X109.774 Y160.897 E.02568
G1 X108.913 Y160.844 E.03137
G1 X108.101 Y160.718 E.02989
G1 X107.214 Y160.542 E.03289
G1 X106.311 Y160.258 E.03443
G1 X105.019 Y159.691 E.05132
G1 X104.199 Y159.219 E.03441
G1 X103.746 Y158.903 E.02009
G1 X103.073 Y158.383 E.03093
G1 X102.451 Y157.822 E.03046
G1 X102.036 Y157.407 E.02135
G1 X101.553 Y156.832 E.02731
G1 X101.058 Y156.156 E.03047
G1 X100.627 Y155.44 E.0304
G1 X100.206 Y154.673 E.03182
G1 X99.869 Y153.86 E.03201
G1 X99.449 Y152.449 E.05354
G1 X99.284 Y151.517 E.03442
G1 X99.213 Y150.721 E.02907
G1 X99.2 Y150.1 E.02259
G1 X99.234 Y149.246 E.03109
G1 X99.283 Y148.685 E.02048
G1 X99.513 Y147.524 E.04305
G1 X99.839 Y146.408 E.04229
G1 X100.233 Y145.511 E.03563
G1 X100.609 Y144.764 E.03042
G1 X100.879 Y144.296 E.01965
G1 X101.419 Y143.523 E.0343
G1 X101.87 Y142.985 E.02553
G1 X102.773 Y142.083 E.04642
G1 X103.403 Y141.547 E.03008
G1 X103.802 Y141.241 E.01829
G1 X104.501 Y140.796 E.03014
G1 X105.253 Y140.393 E.03103
G1 X106.305 Y139.939 E.04167
G1 X107.265 Y139.658 E.03638
G1 X108.065 Y139.472 E.02987
G1 X108.494 Y139.397 E.01584
G1 X108.891 Y139.355 F9000
G1 X108.382 Y138.674
;TYPE:Perimeter
;WIDTH:0.40046
G1 F1006.88
G1 X108.534 Y138.652 E.0053
;WIDTH:0.385418
G1 F1051.101
G1 X109.567 Y138.561 E.03426
;WIDTH:0.413258
G1 F972.085
G1 X110.236 Y138.562 E.0239
G1 X111.137 Y138.606 E.03222
;WIDTH:0.394614
G1 F1023.617
G1 X111.99 Y138.731 E.02924
;WIDTH:0.400596
G1 F1006.498
G1 X112.514 Y138.83 E.0184
G1 X113.384 Y139.06 E.03105
;WIDTH:0.400248
G1 F1007.478
G1 X113.985 Y139.269 E.02193
;WIDTH:0.385006
G1 F1052.367
G1 X114.943 Y139.664 E.03419
;WIDTH:0.413668
G1 F971.01
G1 X115.511 Y139.96 E.0229
G1 X116.237 Y140.383 E.03005
;WIDTH:0.382828
G1 F1059.11
G1 X116.996 Y140.914 E.03037
;WIDTH:0.400944
G1 F1005.519
G1 X117.401 Y141.237 E.01789
;WIDTH:0.407132
G1 F988.435
G1 X118.073 Y141.85 E.03195
G1 X118.802 Y142.633 E.03758
;WIDTH:0.397384
G1 F1015.618
G1 X119.006 Y142.874 E.0108
G1 X119.475 Y143.512 E.02707
;WIDTH:0.381968
G1 F1061.796
G1 X120.001 Y144.33 E.0318
;WIDTH:0.40059
G1 F1006.514
G1 X120.251 Y144.787 E.01797
G1 X120.475 Y145.257 E.01796
;WIDTH:0.38689
G1 F1046.603
G1 X120.864 Y146.186 E.03341
G1 X121.164 Y147.169 E.0341
;WIDTH:0.40476
G1 F994.915
G1 X121.397 Y148.273 E.03938
G1 X121.449 Y148.631 E.01263
;WIDTH:0.393984
G1 F1025.454
G1 X121.526 Y149.419 E.02681
G1 X121.534 Y149.554 E.00458
;WIDTH:0.400796
G1 F1005.935
G1 X121.544 Y150.085 E.01833
G1 X121.526 Y150.641 E.0192
;WIDTH:0.386592
G1 F1047.51
G1 X121.439 Y151.665 E.03407
;WIDTH:0.413574
G1 F971.256
G1 X121.311 Y152.377 E.02586
G1 X121.105 Y153.262 E.03249
;WIDTH:0.396138
G1 F1019.201
G1 X120.829 Y154.082 E.02948
;WIDTH:0.37209
G1 F1093.66
G1 X120.441 Y155.011 E.03196
;WIDTH:0.387302
G1 F1045.351
G1 X119.98 Y155.906 E.03344
G1 X119.42 Y156.767 E.03412
;WIDTH:0.404008
G1 F996.987
G1 X118.708 Y157.674 E.04016
G1 X118.484 Y157.927 E.01177
;WIDTH:0.382934
G1 F1058.78
G1 X117.796 Y158.613 E.03186
;WIDTH:0.400602
G1 F1006.481
G1 X117.408 Y158.952 E.01778
G1 X116.993 Y159.276 E.01816
;WIDTH:0.387206
G1 F1045.642
G1 X116.152 Y159.868 E.03415
;WIDTH:0.413164
G1 F972.332
G1 X115.51 Y160.235 E.02641
G1 X114.839 Y160.572 E.02681
;WIDTH:0.383876
G1 F1055.855
G1 X113.882 Y160.969 E.03407
;WIDTH:0.411608
G1 F976.435
G1 X113.399 Y161.124 E.01804
G1 X112.556 Y161.35 E.03104
;WIDTH:0.40053
G1 F1006.683
G1 X112.046 Y161.459 E.01799
G1 X111.143 Y161.586 E.03145
;WIDTH:0.400286
G1 F1007.371
G1 X110.459 Y161.636 E.02364
;WIDTH:0.389792
G1 F1037.847
G1 X109.456 Y161.63 E.03356
;WIDTH:0.38332
G1 F1057.579
G1 X108.485 Y161.543 E.03201
;WIDTH:0.411342
G1 F977.14
G1 X107.955 Y161.454 E.0191
G1 X106.599 Y161.13 E.04954
;WIDTH:0.405124
G1 F993.915
G1 X105.751 Y160.829 E.03144
G1 X104.724 Y160.363 E.0394
;WIDTH:0.39601
G1 F1019.57
G1 X104.494 Y160.246 E.00879
G1 X103.766 Y159.808 E.02894
;WIDTH:0.382534
G1 F1060.027
G1 X103.004 Y159.281 E.03035
;WIDTH:0.400838
G1 F1005.817
G1 X102.594 Y158.954 E.0181
G1 X101.925 Y158.348 E.03116
;WIDTH:0.399946
G1 F1008.33
G1 X101.466 Y157.863 E.023
;WIDTH:0.383882
G1 F1055.836
G1 X100.816 Y157.094 E.03311
G1 X100.231 Y156.249 E.0338
;WIDTH:0.412286
G1 F974.643
G1 X99.969 Y155.801 E.01849
G1 X99.516 Y154.941 E.03463
;WIDTH:0.389688
G1 F1038.158
G1 X99.127 Y153.98 E.03468
;WIDTH:0.413108
G1 F972.479
G1 X98.904 Y153.262 E.02685
G1 X98.681 Y152.378 E.03255
;WIDTH:0.397582
G1 F1015.051
G1 X98.534 Y151.469 E.0315
;WIDTH:0.395278
G1 F1021.688
G1 X98.466 Y150.642 E.0282
;WIDTH:0.401108
G1 F1005.059
G1 X98.455 Y150.1 E.01873
G1 X98.492 Y149.18 E.03181
;WIDTH:0.405238
G1 F993.602
G1 X98.603 Y148.269 E.03207
G1 X98.862 Y147.071 E.04283
;WIDTH:0.395264
G1 F1021.729
G1 X99.188 Y146.044 E.03662
;WIDTH:0.410588
G1 F979.144
G1 X99.547 Y145.209 E.03223
G1 X99.964 Y144.392 E.03253
;WIDTH:0.40072
G1 F1006.149
G1 X100.444 Y143.62 E.03137
;WIDTH:0.399292
G1 F1010.18
G1 X100.87 Y143.042 E.02468
;WIDTH:0.3983
G1 F1013
G1 X101.593 Y142.183 E.03849
G1 X102.533 Y141.293 E.04437
;WIDTH:0.400582
G1 F1006.537
G1 X102.95 Y140.956 E.0185
G1 X103.414 Y140.623 E.0197
;WIDTH:0.385606
G1 F1050.524
G1 X104.262 Y140.078 E.03332
;WIDTH:0.397702
G1 F1014.708
G1 X105.314 Y139.544 E.04037
G1 X106.171 Y139.204 E.03155
;WIDTH:0.396096
G1 F1019.322
G1 X107.443 Y138.84 E.04507
;WIDTH:0.40046
G1 F1006.88
G1 X107.936 Y138.739 E.01735
G1 X108.323 Y138.683 E.01349
G1 X108.266 Y138.329 F9000
;WIDTH:0.419999
G1 F954.707
G1 X109.295 Y138.206 E.03769
G1 X110.243 Y138.188 E.03449
G1 X111.177 Y138.244 E.03403
G1 X112.59 Y138.47 E.05205
G1 X113.495 Y138.71 E.03405
G1 X115.102 Y139.342 E.06281
G1 X116.093 Y139.861 E.04069
G1 X116.886 Y140.377 E.03441
G1 X117.637 Y140.955 E.03447
G1 X118.335 Y141.587 E.03425
G1 X119.292 Y142.644 E.05186
G1 X120.116 Y143.808 E.05187
G1 X120.579 Y144.621 E.03403
G1 X121.159 Y145.93 E.05207
G1 X121.452 Y146.819 E.03404
G1 X121.758 Y148.193 E.0512
G1 X121.89 Y149.407 E.04441
G1 X121.912 Y150.09 E.02485
G1 X121.827 Y151.521 E.05214
G1 X121.678 Y152.451 E.03426
G1 X121.455 Y153.366 E.03425
G1 X120.982 Y154.711 E.05186
G1 X120.356 Y155.985 E.05163
G1 X119.858 Y156.785 E.03427
G1 X118.989 Y157.914 E.05182
G1 X118.339 Y158.604 E.03448
G1 X117.641 Y159.236 E.03425
G1 X116.49 Y160.087 E.05206
G1 X115.685 Y160.565 E.03405
G1 X114.389 Y161.172 E.05205
G1 X113.506 Y161.482 E.03404
G1 X112.115 Y161.82 E.05206
G1 X111.18 Y161.951 E.03434
G1 X110.473 Y161.998 E.02577
G1 X109.765 Y162.008 E.02575
G1 X108.811 Y161.95 E.03476
G1 X107.885 Y161.82 E.03401
G1 X106.494 Y161.482 E.05206
G1 X105.611 Y161.172 E.03404
G1 X104.319 Y160.568 E.05187
G1 X103.109 Y159.814 E.05185
G1 X102.358 Y159.236 E.03447
G1 X101.665 Y158.608 E.03401
G1 X100.7 Y157.542 E.0523
G1 X100.145 Y156.789 E.03402
G1 X99.644 Y155.985 E.03445
G1 X99.209 Y155.144 E.03444
G1 X98.842 Y154.271 E.03444
G1 X98.545 Y153.365 E.03468
G1 X98.322 Y152.45 E.03425
G1 X98.172 Y151.514 E.03448
G1 X98.111 Y150.808 E.02577
G1 X98.087 Y150.099 E.0258
G1 X98.125 Y149.151 E.03451
G1 X98.238 Y148.211 E.03443
G1 X98.424 Y147.287 E.03428
G1 X98.845 Y145.919 E.05206
G1 X99.209 Y145.051 E.03423
G1 X99.644 Y144.21 E.03444
G1 X100.142 Y143.41 E.03427
G1 X100.591 Y142.827 E.02676
G1 X101.329 Y141.929 E.04228
G1 X102.006 Y141.266 E.03446
G1 X102.728 Y140.662 E.03424
G1 X104.09 Y139.762 E.05938
G1 X105.169 Y139.208 E.04411
G1 X106.049 Y138.859 E.03443
G1 X106.961 Y138.579 E.0347
G1 X107.874 Y138.376 E.03402
G1 X108.207 Y138.337 E.01219
G1 X108.207 Y138.337 F9000
G1 X108.147 Y137.964
;TYPE:External perimeter
G1 F954.707
G1 X109.269 Y137.83 E.0411
G1 X110.251 Y137.81 E.03572
G1 X111.218 Y137.868 E.03523
G1 X112.668 Y138.101 E.05341
G1 X113.61 Y138.35 E.03544
G1 X114.986 Y138.864 E.05342
G1 X115.842 Y139.286 E.03471
G1 X116.289 Y139.539 E.01868
G1 X117.105 Y140.069 E.03539
G1 X117.879 Y140.666 E.03555
G1 X118.602 Y141.32 E.03546
G1 X119.587 Y142.408 E.05338
G1 X120.435 Y143.605 E.05335
G1 X120.916 Y144.451 E.0354
G1 X121.512 Y145.794 E.05344
G1 X121.816 Y146.719 E.03541
G1 X122.126 Y148.111 E.05187
G1 X122.267 Y149.395 E.04698
G1 X122.29 Y150.095 E.02547
G1 X122.202 Y151.562 E.05345
G1 X122.048 Y152.525 E.03547
G1 X121.817 Y153.473 E.03549
G1 X121.331 Y154.857 E.05335
G1 X120.686 Y156.168 E.05314
G1 X120.168 Y157 E.03565
G1 X119.276 Y158.159 E.05319
G1 X118.603 Y158.874 E.03571
G1 X117.88 Y159.528 E.03546
G1 X116.699 Y160.401 E.05342
G1 X115.862 Y160.899 E.03542
G1 X114.532 Y161.521 E.0534
G1 X113.613 Y161.844 E.03543
G1 X112.186 Y162.191 E.05341
G1 X111.219 Y162.327 E.03552
G1 X110.488 Y162.375 E.02664
G1 X109.756 Y162.385 E.02663
G1 X108.774 Y162.326 E.03578
G1 X107.814 Y162.191 E.03526
G1 X106.387 Y161.844 E.05341
G1 X105.468 Y161.521 E.03543
G1 X104.139 Y160.9 E.05335
G1 X102.894 Y160.125 E.05334
G1 X102.116 Y159.525 E.03573
G1 X101.398 Y158.875 E.03523
G1 X100.408 Y157.781 E.05366
G1 X99.832 Y157.001 E.03527
G1 X99.316 Y156.172 E.03552
G1 X98.867 Y155.304 E.03554
G1 X98.489 Y154.403 E.03554
G1 X98.182 Y153.468 E.03579
G1 X97.952 Y152.525 E.0353
G1 X97.797 Y151.56 E.03555
G1 X97.734 Y150.83 E.02665
G1 X97.71 Y150.098 E.02664
G1 X97.749 Y149.121 E.03556
G1 X97.865 Y148.151 E.03553
G1 X98.058 Y147.194 E.03551
G1 X98.49 Y145.791 E.05339
G1 X98.867 Y144.891 E.03549
G1 X99.316 Y144.023 E.03554
G1 X99.832 Y143.195 E.03548
