; generated by PrusaSlicer 2.8.1+linux-x64-GTK3 on 2025-10-16 at 05:34:57 UTC

; 

; external perimeters extrusion width = 0.42mm
; perimeters extrusion width = 0.44mm
; infill extrusion width = 0.44mm
; solid infill extrusion width = 0.44mm
; top infill extrusion width = 0.40mm
; first layer extrusion width = 0.42mm

M201 X500 Y500 Z100 E5000 ; sets maximum accelerations, mm/sec^2
M203 X500 Y500 Z10 E60 ; sets maximum feedrates, mm / sec
M204 S500 T1000 ; sets acceleration (S) and retract acceleration (R), mm/sec^2
M205 X8.00 Y8.00 Z0.40 E5.00 ; sets the jerk limits, mm/sec
M205 S0 T0 ; sets the minimum extruding and travel feed rate, mm/sec

; printing object Wheel_2,25mm id:0 copy 0
; stop printing object Wheel_2,25mm id:0 copy 0
; printing object Wheel_2,25mm id:0 copy 1
; stop printing object Wheel_2,25mm id:0 copy 1

;TYPE:Custom
G90 ; use absolute coordinates
M83 ; extruder relative mode
M104 S130 ; set temporary nozzle temp to prevent oozing during homing
M140 S30 ; set final bed temp
G4 S30 ; allow partial nozzle warmup
G28 ; home all axis and restore leveling
G1 Z50 F240
G1 X2.0 Y10 F3000
M104 S245 ; set final nozzle temp
M190 S30 ; wait for bed temp to stabilize
M109 S245 ; wait for nozzle temp to stabilize
G1 Z0.28 F240
G92 E0
G1 X2.0 Y140 E10 F1500 ; prime the nozzle
G1 X2.3 Y140 F5000
G92 E0
G1 X2.3 Y10 E10 F1200 ; prime the nozzle
G92 E0
G21 ; set units to millimeters
G90 ; use absolute coordinates
M83 ; use relative distances for extrusion
; Filament gcode
M107
;LAYER_CHANGE
;Z:0.2
;HEIGHT:0.2
G1 X60.927 Y96.728 F9000
G1 Z.2
M204 S500
;TYPE:Skirt/Brim
;WIDTH:0.42
G1 F954.706
G1 X62.113 Y96.012 E.05039
G1 X63.704 Y95.254 E.0641
G1 X65.007 Y94.785 E.05037
G1 X66.708 Y94.356 E.0638
G1 X68.087 Y94.149 E.05072
G1 X69.878 Y94.062 E.06522
G1 X150.476 Y94.063 E2.93143
G1 X151.757 Y94.133 E.04666
G1 X153.477 Y94.391 E.06326
G1 X154.82 Y94.73 E.05038
G1 X156.033 Y95.146 E.04664
G1 X157.617 Y95.864 E.06325
G1 X158.817 Y96.557 E.0504
G1 X160.23 Y97.57 E.06323
G1 X161.198 Y98.412 E.04666
G1 X162.079 Y99.312 E.04581
G1 X162.962 Y100.379 E.05037
G1 X163.682 Y101.412 E.0458
G1 X164.548 Y102.947 E.0641
G1 X165.106 Y104.215 E.05039
G1 X165.654 Y105.89 E.0641
G1 X165.931 Y107.119 E.04582
G1 X166.122 Y108.491 E.05038
G1 X166.191 Y109.748 E.04579
G1 X166.122 Y111.509 E.0641
G1 X165.953 Y112.757 E.04581
G1 X165.654 Y114.11 E.0504
G1 X165.106 Y115.785 E.0641
G1 X164.548 Y117.053 E.05039
G1 X163.934 Y118.179 E.04665
G1 X162.962 Y119.621 E.06325
G1 X162.163 Y120.594 E.04579
G1 X161.198 Y121.588 E.05039
G1 X160.249 Y122.416 E.04581
G1 X158.817 Y123.443 E.06409
G1 X157.617 Y124.136 E.0504
G1 X156.019 Y124.859 E.06379
G1 X154.82 Y125.27 E.0461
G1 X153.477 Y125.609 E.05038
G1 X151.733 Y125.869 E.06413
G1 X150.381 Y125.938 E.04924
G1 X69.878 Y125.938 E2.92797
G1 X67.961 Y125.837 E.06982
G1 X65.491 Y125.358 E.09151
G1 X63.126 Y124.495 E.09157
G1 X60.927 Y123.272 E.09152
G1 X58.948 Y121.717 E.09154
G1 X57.239 Y119.87 E.09152
G1 X55.841 Y117.777 E.09154
G1 X54.79 Y115.491 E.09151
G1 X54.114 Y113.077 E.09118
G1 X53.919 Y111.822 E.04619
G1 X53.815 Y110.063 E.06409
G1 X53.869 Y108.679 E.05038
G1 X54.112 Y106.933 E.06412
G1 X54.438 Y105.587 E.05037
G1 X55.019 Y103.923 E.0641
G1 X55.602 Y102.666 E.0504
G1 X56.498 Y101.149 E.06408
G1 X57.317 Y100.031 E.05041
G1 X58.494 Y98.719 E.06411
G1 X59.516 Y97.784 E.05038
G1 X60.879 Y96.764 E.06192
; printing object Wheel_2,25mm id:0 copy 0
G1 X60.879 Y96.764 F9000
G1 X63.529 Y100.731
;TYPE:Perimeter
;WIDTH:0.419999
G1 F954.707
G1 X64.128 Y100.331 E.0262
G1 X65.002 Y99.872 E.03591
G1 X65.913 Y99.493 E.03589
G1 X67.326 Y99.079 E.05355
G1 X68.268 Y98.912 E.0348
G1 X68.997 Y98.847 E.02662
G1 X69.863 Y98.835 E.0315
G1 X70.691 Y98.853 E.03012
G1 X71.671 Y98.979 E.03594
G1 X72.624 Y99.188 E.03549
G1 X73.555 Y99.48 E.03549
G1 X74.885 Y100.061 E.05279
G1 X75.73 Y100.545 E.03542
G1 X76.543 Y101.11 E.03601
G1 X77.292 Y101.736 E.0355
G1 X78.298 Y102.782 E.05278
G1 X78.902 Y103.563 E.03591
G1 X79.428 Y104.385 E.03549
G1 X79.881 Y105.25 E.03551
G1 X80.256 Y106.151 E.0355
G1 X80.567 Y107.141 E.03774
G1 X80.838 Y108.503 E.05051
G1 X80.896 Y109.132 E.02297
G1 X80.93 Y109.767 E.02313
G1 X80.93 Y110.463 E.02531
G1 X80.847 Y111.436 E.03552
G1 X80.551 Y112.919 E.055
G1 X80.273 Y113.803 E.0337
G1 X79.976 Y114.525 E.02839
G1 X79.592 Y115.305 E.03162
G1 X79.148 Y116.054 E.03167
G1 X78.894 Y116.446 E.01699
G1 X78.024 Y117.53 E.05055
G1 X76.971 Y118.545 E.05319
G1 X76.189 Y119.149 E.03594
G1 X75.367 Y119.676 E.03551
G1 X74.503 Y120.128 E.03546
G1 X73.729 Y120.45 E.03049
G1 X72.209 Y120.913 E.05779
G1 X71.628 Y121.019 E.02148
G1 X70.755 Y121.132 E.03202
G1 X70.233 Y121.177 E.01906
G1 X69.398 Y121.177 E.03037
G1 X68.531 Y121.112 E.03162
G1 X67.683 Y120.972 E.03126
G1 X66.893 Y120.814 E.0293
G1 X65.892 Y120.499 E.03817
G1 X64.62 Y119.939 E.05055
G1 X63.763 Y119.448 E.03592
G1 X63.24 Y119.085 E.02315
G1 X62.546 Y118.544 E.032
G1 X62.177 Y118.231 E.0176
G1 X61.522 Y117.576 E.03369
G1 X60.893 Y116.83 E.03549
G1 X60.239 Y115.857 E.04264
G1 X59.812 Y115.11 E.03129
G1 X59.603 Y114.705 E.01658
G1 X59.246 Y113.84 E.03403
G1 X58.84 Y112.457 E.05242
G1 X58.714 Y111.762 E.02569
G1 X58.611 Y110.889 E.03197
G1 X58.575 Y109.537 E.04919
G1 X58.669 Y108.493 E.03812
G1 X58.938 Y107.14 E.05017
G1 X59.133 Y106.511 E.02395
G1 X59.604 Y105.295 E.04743
G1 X60.023 Y104.486 E.03314
G1 X60.856 Y103.219 E.05515
G1 X61.488 Y102.461 E.03589
G1 X62.177 Y101.769 E.03552
G1 X62.98 Y101.097 E.03808
G1 X63.48 Y100.764 E.02185
G1 X63.48 Y100.764 F9000
G1 X63.689 Y101.077
;TYPE:External perimeter
G1 F954.707
G1 X64.337 Y100.645 E.02833
G1 X65.177 Y100.206 E.03447
G1 X66.057 Y99.842 E.03464
G1 X67.411 Y99.447 E.0513
G1 X68.333 Y99.284 E.03405
G1 X69.03 Y99.222 E.02545
G1 X69.855 Y99.212 E.03001
G1 X70.683 Y99.23 E.03012
G1 X71.622 Y99.353 E.03444
G1 X72.542 Y99.556 E.03427
G1 X73.442 Y99.839 E.03431
G1 X74.733 Y100.406 E.05128
G1 X75.542 Y100.872 E.03396
G1 X76.327 Y101.419 E.0348
G1 X77.049 Y102.025 E.03428
G1 X78.025 Y103.042 E.05127
G1 X78.603 Y103.793 E.03447
G1 X79.11 Y104.588 E.03429
G1 X79.546 Y105.424 E.03429
G1 X79.908 Y106.295 E.03431
G1 X80.197 Y107.214 E.03504
G1 X80.468 Y108.577 E.05054
G1 X80.552 Y109.767 E.04339
G1 X80.552 Y110.463 E.02531
G1 X80.471 Y111.403 E.03432
G1 X80.285 Y112.344 E.03489
G1 X80.087 Y113.138 E.02976
G1 X79.913 Y113.689 E.02102
G1 X79.628 Y114.381 E.02722
G1 X79.257 Y115.131 E.03043
G1 X78.83 Y115.851 E.03045
G1 X78.6 Y116.21 E.01551
G1 X77.73 Y117.294 E.05055
G1 X76.71 Y118.273 E.05142
G1 X75.96 Y118.85 E.03442
G1 X75.165 Y119.358 E.03431
G1 X74.328 Y119.794 E.03433
G1 X73.585 Y120.102 E.02925
G1 X72.104 Y120.551 E.05629
G1 X71.562 Y120.647 E.02002
G1 X70.723 Y120.756 E.03077
G1 X70.221 Y120.8 E.01833
G1 X69.398 Y120.8 E.02993
G1 X68.564 Y120.737 E.03042
G1 X67.756 Y120.602 E.0298
G1 X66.966 Y120.444 E.0293
G1 X66.063 Y120.161 E.03442
G1 X64.772 Y119.594 E.05128
G1 X63.951 Y119.121 E.03446
G1 X63.456 Y118.776 E.02194
G1 X62.443 Y117.964 E.04722
G1 X61.788 Y117.309 E.03369
G1 X61.181 Y116.587 E.03431
G1 X60.553 Y115.647 E.04112
G1 X60.146 Y114.936 E.0298
G1 X59.607 Y113.726 E.04818
G1 X59.202 Y112.351 E.05213
G1 X59.085 Y111.697 E.02416
G1 X58.986 Y110.856 E.0308
G1 X58.953 Y109.537 E.04799
G1 X59.038 Y108.567 E.03541
G1 X59.308 Y107.214 E.05018
G1 X59.493 Y106.624 E.02249
G1 X59.952 Y105.439 E.04622
G1 X60.357 Y104.661 E.0319
G1 X61.169 Y103.429 E.05367
G1 X61.777 Y102.703 E.03444
G1 X62.443 Y102.036 E.03428
G1 X63.19 Y101.411 E.03542
G1 X63.639 Y101.111 E.01964
G1 X63.972 Y100.889 F9000
G1 X63.187 Y100.433
;TYPE:Perimeter
;WIDTH:0.550558
G1 F709.167
G1 X63.754 Y100.049 E.03353
G1 X63.98 Y99.915 E.01286
;WIDTH:0.53411
G1 F732.914
G1 X64.884 Y99.454 E.04808
;WIDTH:0.541536
G1 F721.998
G1 X65.849 Y99.052 E.05028
;WIDTH:0.561758
G1 F693.858
G1 X66.691 Y98.797 E.04403
G1 X67.575 Y98.586 E.04548
;WIDTH:0.549402
G1 F710.785
G1 X68.28 Y98.48 E.03483
;WIDTH:0.534044
G1 F733.012
G1 X69.321 Y98.389 E.0495
;WIDTH:0.56243
G1 F692.961
G1 X69.873 Y98.387 E.02766
G1 X70.809 Y98.425 E.04694
;WIDTH:0.54997
G1 F709.989
G1 X72.156 Y98.632 E.06665
G1 X73.027 Y98.85 E.04391
;WIDTH:0.548272
G1 F712.375
G1 X73.785 Y99.11 E.03906
;WIDTH:0.562724
G1 F692.569
G1 X74.338 Y99.33 E.02984
G1 X75.168 Y99.715 E.04587
;WIDTH:0.541972
G1 F721.368
G1 X76.033 Y100.222 E.04826
;WIDTH:0.54838
G1 F712.223
G1 X77.074 Y100.977 E.0627
G1 X77.646 Y101.482 E.0372
;WIDTH:0.56295
G1 F692.268
G1 X78.092 Y101.918 E.03128
G1 X78.706 Y102.587 E.04555
;WIDTH:0.54295
G1 F719.957
G1 X79.298 Y103.37 E.04734
;WIDTH:0.549532
G1 F710.603
G1 X79.988 Y104.5 E.0647
G1 X80.383 Y105.306 E.04386
;WIDTH:0.547452
G1 F713.533
G1 X80.681 Y106.069 E.03986
;WIDTH:0.523496
G1 F749.101
G1 X80.987 Y107.057 E.04794
;WIDTH:0.560752
G1 F695.206
G1 X81.184 Y107.95 E.04568
G1 X81.275 Y108.527 E.02918
;WIDTH:0.54814
G1 F712.561
G1 X81.336 Y109.093 E.02774
;WIDTH:0.548734
G1 F711.724
G1 X81.371 Y109.767 E.03293
G1 X81.354 Y110.688 E.04494
;WIDTH:0.546378
G1 F715.055
G1 X81.266 Y111.596 E.0443
;WIDTH:0.560994
G1 F694.881
G1 X81.094 Y112.505 E.04623
G1 X80.868 Y113.384 E.04535
;WIDTH:0.549972
G1 F709.986
G1 X80.651 Y114.013 E.03254
;WIDTH:0.533812
G1 F733.359
G1 X80.266 Y114.95 E.04796
G1 X79.794 Y115.848 E.04803
;WIDTH:0.550398
G1 F709.39
G1 X79.521 Y116.291 E.02547
G1 X79.228 Y116.715 E.02523
;WIDTH:0.561234
G1 F694.56
G1 X78.698 Y117.406 E.04354
G1 X78.27 Y117.894 E.03245
;WIDTH:0.563088
G1 F692.084
G1 X77.752 Y118.419 E.037
G1 X77.075 Y119.025 E.04559
;WIDTH:0.546638
G1 F714.686
G1 X76.349 Y119.57 E.04411
;WIDTH:0.542912
G1 F720.012
G1 X75.597 Y120.036 E.04266
;WIDTH:0.549848
G1 F710.16
G1 X75.16 Y120.284 E.02457
G1 X74.621 Y120.544 E.02926
;WIDTH:0.535468
G1 F730.893
G1 X73.656 Y120.945 E.04965
;WIDTH:0.563292
G1 F691.813
G1 X73.034 Y121.14 E.03272
G1 X72.143 Y121.374 E.04624
;WIDTH:0.54504
G1 F716.96
G1 X71.312 Y121.515 E.04082
;WIDTH:0.550504
G1 F709.242
G1 X70.794 Y121.573 E.02552
G1 X70.216 Y121.605 E.02834
;WIDTH:0.535378
G1 F731.027
G1 X69.201 Y121.608 E.04821
G1 X68.161 Y121.51 E.04962
;WIDTH:0.5624
G1 F693.001
G1 X67.595 Y121.411 E.02879
G1 X66.76 Y121.222 E.0429
;WIDTH:0.549944
G1 F710.026
G1 X66.249 Y121.078 E.02596
G1 X65.719 Y120.891 E.02749
;WIDTH:0.562452
G1 F692.931
G1 X64.957 Y120.577 E.0413
G1 X64.142 Y120.177 E.04549
;WIDTH:0.548662
G1 F711.825
G1 X63.352 Y119.701 E.04499
;WIDTH:0.54677
G1 F714.498
G1 X62.673 Y119.214 E.04061
;WIDTH:0.55051
G1 F709.234
G1 X62.262 Y118.883 E.02584
G1 X61.874 Y118.534 E.02555
;WIDTH:0.532852
G1 F734.796
G1 X61.156 Y117.818 E.04792
;WIDTH:0.552866
G1 F705.957
G1 X60.374 Y116.858 E.0609
G1 X59.663 Y115.763 E.06422
;WIDTH:0.532964
G1 F734.628
G1 X59.208 Y114.869 E.04741
;WIDTH:0.537932
G1 F727.255
G1 X58.807 Y113.903 E.04994
;WIDTH:0.563094
G1 F692.076
G1 X58.58 Y113.172 E.0384
G1 X58.357 Y112.277 E.04628
;WIDTH:0.548218
G1 F712.451
G1 X58.226 Y111.473 E.0397
;WIDTH:0.533042
G1 F734.511
G1 X58.147 Y110.463 E.04789
;WIDTH:0.538438
G1 F726.512
G1 X58.143 Y109.449 E.04846
G1 X58.244 Y108.409 E.04994
;WIDTH:0.553066
G1 F705.68
G1 X58.462 Y107.261 E.0575
G1 X58.54 Y106.95 E.01578
;WIDTH:0.543088
G1 F719.758
G1 X58.855 Y105.956 E.0503
G1 X59.237 Y105.048 E.04752
;WIDTH:0.53934
G1 F725.192
G1 X59.727 Y104.124 E.05008
;WIDTH:0.563294
G1 F691.81
G1 X60.12 Y103.512 E.03651
G1 X60.656 Y102.767 E.04607
;WIDTH:0.546902
G1 F714.311
G1 X61.25 Y102.075 E.04433
;WIDTH:0.543646
G1 F718.956
G1 X61.933 Y101.4 E.04638
;WIDTH:0.540396
G1 F723.653
G1 X62.739 Y100.736 E.05011
;WIDTH:0.550558
G1 F709.167
G1 X63.137 Y100.467 E.02352
G1 X63.137 Y100.467 F9000
G1 X62.889 Y100.107
;WIDTH:0.419999
G1 F954.707
G1 X63.521 Y99.672 E.02791
G1 X64.346 Y99.217 E.03427
G1 X65.67 Y98.65 E.05239
G1 X66.573 Y98.364 E.03445
G1 X67.496 Y98.151 E.03445
G1 X68.924 Y97.966 E.05237
G1 X69.878 Y97.938 E.03471
G1 X70.818 Y97.985 E.03423
G1 X72.243 Y98.198 E.0524
G1 X73.156 Y98.428 E.03424
G1 X74.511 Y98.916 E.05238
G1 X75.372 Y99.327 E.0347
G1 X76.187 Y99.797 E.03422
G1 X77.353 Y100.634 E.0522
G1 X78.411 Y101.602 E.05216
G1 X79.044 Y102.307 E.03446
G1 X79.619 Y103.061 E.03449
G1 X80.375 Y104.286 E.05236
G1 X80.789 Y105.132 E.03426
G1 X81.289 Y106.477 E.05219
G1 X81.625 Y107.869 E.05208
G1 X81.776 Y109.07 E.04403
G1 X81.812 Y109.776 E.02571
G1 X81.794 Y110.714 E.03412
G1 X81.7 Y111.657 E.03447
G1 X81.531 Y112.601 E.03488
G1 X81.29 Y113.518 E.03448
G1 X80.789 Y114.868 E.05237
G1 X80.373 Y115.719 E.03445
G1 X79.891 Y116.535 E.03447
G1 X79.043 Y117.692 E.05217
G1 X78.064 Y118.741 E.05219
G1 X77.353 Y119.367 E.03445
G1 X76.594 Y119.934 E.03446
G1 X75.366 Y120.676 E.05218
G1 X74.059 Y121.267 E.05217
G1 X73.161 Y121.571 E.03448
G1 X72.332 Y121.78 E.03109
G1 X71.774 Y121.892 E.0207
G1 X70.829 Y122.014 E.03466
G1 X69.389 Y122.057 E.0524
G1 X68.444 Y121.991 E.03445
G1 X67.507 Y121.851 E.03446
G1 X66.116 Y121.501 E.05217
G1 X64.776 Y120.988 E.05219
G1 X63.929 Y120.563 E.03447
G1 X63.246 Y120.151 E.02901
G1 X62.725 Y119.804 E.02277
G1 X61.973 Y119.218 E.03467
G1 X60.934 Y118.229 E.05217
G1 X60.019 Y117.124 E.05218
G1 X59.489 Y116.338 E.03448
G1 X59.024 Y115.513 E.03444
G1 X58.443 Y114.195 E.05239
G1 X58.149 Y113.294 E.03447
G1 X57.975 Y112.575 E.02691
G1 X57.841 Y111.904 E.02489
G1 X57.728 Y110.958 E.03465
G1 X57.7 Y109.518 E.05238
G1 X57.774 Y108.579 E.03426
G1 X58.025 Y107.183 E.05159
G1 X58.445 Y105.799 E.0526
G1 X58.812 Y104.92 E.03464
G1 X59.25 Y104.067 E.03488
G1 X59.748 Y103.261 E.03446
G1 X60.311 Y102.493 E.03463
G1 X60.929 Y101.775 E.03446
G1 X61.611 Y101.1 E.0349
G1 X62.335 Y100.488 E.03448
G1 X62.84 Y100.141 E.02229
G1 X62.84 Y100.141 F9000
G1 X62.626 Y99.83
;TYPE:External perimeter
G1 F954.707
G1 X63.323 Y99.351 E.03076
G1 X64.18 Y98.878 E.0356
G1 X65.538 Y98.296 E.05374
G1 X66.474 Y98 E.0357
G1 X67.43 Y97.779 E.03569
G1 X68.895 Y97.59 E.05372
G1 X69.882 Y97.561 E.03591
G1 X70.855 Y97.609 E.03543
G1 X72.317 Y97.827 E.05376
G1 X73.266 Y98.067 E.0356
G1 X74.656 Y98.568 E.05374
G1 X75.548 Y98.993 E.03594
G1 X76.392 Y99.48 E.03544
G1 X77.591 Y100.34 E.05367
G1 X78.679 Y101.336 E.05365
G1 X79.334 Y102.067 E.0357
G1 X79.93 Y102.847 E.0357
G1 X80.706 Y104.104 E.05373
G1 X81.136 Y104.984 E.03562
G1 X81.65 Y106.367 E.05366
G1 X81.996 Y107.801 E.05365
G1 X82.153 Y109.05 E.04578
G1 X82.189 Y109.783 E.02669
G1 X82.17 Y110.737 E.0347
G1 X82.074 Y111.709 E.03552
G1 X81.9 Y112.683 E.03599
G1 X81.65 Y113.632 E.03569
G1 X81.136 Y115.016 E.0537
G1 X80.705 Y115.898 E.0357
G1 X80.206 Y116.743 E.03569
G1 X79.334 Y117.933 E.05366
G1 X78.327 Y119.012 E.05368
G1 X77.591 Y119.66 E.03567
G1 X76.805 Y120.247 E.03568
G1 X75.542 Y121.01 E.05367
G1 X74.197 Y121.619 E.0537
G1 X73.268 Y121.933 E.03567
G1 X72.342 Y122.166 E.03473
G1 X71.834 Y122.265 E.01882
G1 X70.859 Y122.39 E.03575
G1 X69.382 Y122.434 E.05374
G1 X68.403 Y122.366 E.03569
G1 X67.433 Y122.222 E.03567
G1 X66.002 Y121.861 E.05368
G1 X64.624 Y121.333 E.05367
G1 X63.747 Y120.894 E.03567
G1 X62.93 Y120.401 E.03471
G1 X62.502 Y120.108 E.01887
G1 X61.726 Y119.504 E.03577
G1 X60.657 Y118.487 E.05366
G1 X59.716 Y117.35 E.05368
G1 X59.168 Y116.536 E.03569
G1 X58.686 Y115.682 E.03567
G1 X58.091 Y114.33 E.05372
G1 X57.786 Y113.397 E.0357
G1 X57.561 Y112.47 E.03469
G1 X57.468 Y111.96 E.01886
G1 X57.352 Y110.984 E.03575
G1 X57.323 Y109.507 E.05373
G1 X57.4 Y108.53 E.03564
G1 X57.661 Y107.076 E.05373
G1 X57.923 Y106.154 E.03486
G1 X58.093 Y105.664 E.01886
G1 X58.47 Y104.761 E.03559
G1 X58.922 Y103.881 E.03598
G1 X59.435 Y103.05 E.03552
G1 X60.016 Y102.258 E.03573
G1 X60.653 Y101.518 E.03551
G1 X61.356 Y100.821 E.03601
G1 X62.105 Y100.188 E.03567
G1 X62.576 Y99.864 E.02079
G1 X62.906 Y99.637 F9000
;LAYER_CHANGE
;Z:0.36
;HEIGHT:0.16
;BEFORE_LAYER_CHANGE
G92 E0
;0.36


G1 Z.36 F9000
;AFTER_LAYER_CHANGE
;0.36
M104 S235 ; set temperature
; stop printing object Wheel_2,25mm id:0 copy 0
G1 X61.09 Y96.63
;TYPE:Skirt/Brim
;WIDTH:0.42
G1 F1166.82
G1 X62.113 Y96.012 E.03557
G1 X63.704 Y95.254 E.05245
G1 X65.007 Y94.785 E.04121
G1 X66.708 Y94.356 E.05221
G1 X68.087 Y94.149 E.0415
G1 X69.878 Y94.062 E.05336
G1 X150.476 Y94.063 E2.39853
G1 X151.757 Y94.133 E.03818
